(G-CODE GENERATED BY FLATCAM v8.994 - www.flatcam.org - Version Date: 2020/11/7)

(Name: pet_puller_shield-Edge_Cuts.gbr_cutout_cnc)
(Type: G-code from Geometry)
(Units: MM)

(Created on Saturday, 08 February 2025 at 19:49)

(This preprocessor is the default preprocessor used by FlatCAM.)
(It is made to work with MACH3 compatible motion controllers.)

(TOOL DIAMETER: 2.4 mm)
(Feedrate_XY: 120.0 mm/min)
(Feedrate_Z: 60.0 mm/min)
(Feedrate rapids 1500.0 mm/min)

(Z_Cut: -1.8 mm)
(DepthPerCut: 0.6 mm <=>3 passes)
(Z_Move: 2.0 mm)
(Z Start: None mm)
(Z End: 15.0 mm)
(X,Y End: None mm)
(Steps per circle: 64)
(Preprocessor Geometry: default)

(X range:   -1.3000 ...   76.8380  mm)
(Y range:   -1.3000 ...   55.2480  mm)

(Spindle Speed: 0.0 RPM)
G21
G90
G94

G01 F120.00

M5
G00 Z15.0000
G00 X0.0000 Y0.0000
T1
M6    
(MSG, Change to Tool Dia = 2.4000)
M0
G00 Z15.0000

M03
G01 F120.00
G00 X5.0500 Y23.8740
G01 F60.00
G01 Z-0.6000
G01 F120.00
G01 X5.0500 Y22.9900
G01 X0.0500 Y22.9900
G01 X-0.0187 Y22.9882
G01 X-0.1456 Y22.9757
G01 X-0.2804 Y22.9489
G01 X-0.4025 Y22.9119
G01 X-0.5249 Y22.8614
G01 X-0.6419 Y22.7992
G01 X-0.7561 Y22.7229
G01 X-0.8584 Y22.6386
G01 X-0.9486 Y22.5484
G01 X-1.0328 Y22.4462
G01 X-1.1066 Y22.3362
G01 X-1.1714 Y22.2150
G01 X-1.2219 Y22.0925
G01 X-1.2601 Y21.9657
G01 X-1.2857 Y21.8357
G01 X-1.2982 Y21.7087
G01 X-1.3000 Y21.6400
G01 X-1.3000 Y9.4480
G01 X-1.2982 Y9.3793
G01 X-1.2850 Y9.2475
G01 X-1.2589 Y9.1176
G01 X-1.2219 Y8.9955
G01 X-1.1714 Y8.8731
G01 X-1.1091 Y8.7561
G01 X-1.0328 Y8.6419
G01 X-0.9486 Y8.5396
G01 X-0.8584 Y8.4494
G01 X-0.7561 Y8.3652
G01 X-0.6461 Y8.2914
G01 X-0.5249 Y8.2266
G01 X-0.4025 Y8.1761
G01 X-0.2756 Y8.1379
G01 X-0.1456 Y8.1123
G01 X-0.0187 Y8.0998
G01 X0.0500 Y8.0980
G01 X5.0500 Y8.0980
G01 X5.0500 Y0.0500
G01 X5.0518 Y-0.0187
G01 X5.0650 Y-0.1505
G01 X5.0911 Y-0.2804
G01 X5.1298 Y-0.4071
G01 X5.1807 Y-0.5294
G01 X5.2434 Y-0.6461
G01 X5.3172 Y-0.7561
G01 X5.4014 Y-0.8584
G01 X5.4953 Y-0.9519
G01 X5.5978 Y-1.0357
G01 X5.7081 Y-1.1091
G01 X5.8206 Y-1.1693
G01 X5.9429 Y-1.2202
G01 X6.0696 Y-1.2589
G01 X6.1995 Y-1.2850
G01 X6.3313 Y-1.2982
G01 X6.4000 Y-1.3000
G01 X34.6690 Y-1.3000
G00 X34.6690 Y-1.3000
G01 F60.00
G01 Z-1.2000
G01 F120.00
G01 X6.4000 Y-1.3000
G01 X6.3313 Y-1.2982
G01 X6.1995 Y-1.2850
G01 X6.0696 Y-1.2589
G01 X5.9429 Y-1.2202
G01 X5.8206 Y-1.1693
G01 X5.7081 Y-1.1091
G01 X5.5978 Y-1.0357
G01 X5.4953 Y-0.9519
G01 X5.4014 Y-0.8584
G01 X5.3172 Y-0.7561
G01 X5.2434 Y-0.6461
G01 X5.1807 Y-0.5294
G01 X5.1298 Y-0.4071
G01 X5.0911 Y-0.2804
G01 X5.0650 Y-0.1505
G01 X5.0518 Y-0.0187
G01 X5.0500 Y0.0500
G01 X5.0500 Y8.0980
G01 X0.0500 Y8.0980
G01 X-0.0187 Y8.0998
G01 X-0.1456 Y8.1123
G01 X-0.2756 Y8.1379
G01 X-0.4025 Y8.1761
G01 X-0.5249 Y8.2266
G01 X-0.6461 Y8.2914
G01 X-0.7561 Y8.3652
G01 X-0.8584 Y8.4494
G01 X-0.9486 Y8.5396
G01 X-1.0328 Y8.6419
G01 X-1.1091 Y8.7561
G01 X-1.1714 Y8.8731
G01 X-1.2219 Y8.9955
G01 X-1.2589 Y9.1176
G01 X-1.2850 Y9.2475
G01 X-1.2982 Y9.3793
G01 X-1.3000 Y9.4480
G01 X-1.3000 Y21.6400
G01 X-1.2982 Y21.7087
G01 X-1.2857 Y21.8357
G01 X-1.2601 Y21.9657
G01 X-1.2219 Y22.0925
G01 X-1.1714 Y22.2150
G01 X-1.1066 Y22.3362
G01 X-1.0328 Y22.4462
G01 X-0.9486 Y22.5484
G01 X-0.8584 Y22.6386
G01 X-0.7561 Y22.7229
G01 X-0.6419 Y22.7992
G01 X-0.5249 Y22.8614
G01 X-0.4025 Y22.9119
G01 X-0.2804 Y22.9489
G01 X-0.1456 Y22.9757
G01 X-0.0187 Y22.9882
G01 X0.0500 Y22.9900
G01 X5.0500 Y22.9900
G01 X5.0500 Y23.8740
G00 X5.0500 Y23.8740
G01 F60.00
G01 Z-1.8000
G01 F120.00
G01 X5.0500 Y22.9900
G01 X0.0500 Y22.9900
G01 X-0.0187 Y22.9882
G01 X-0.1456 Y22.9757
G01 X-0.2804 Y22.9489
G01 X-0.4025 Y22.9119
G01 X-0.5249 Y22.8614
G01 X-0.6419 Y22.7992
G01 X-0.7561 Y22.7229
G01 X-0.8584 Y22.6386
G01 X-0.9486 Y22.5484
G01 X-1.0328 Y22.4462
G01 X-1.1066 Y22.3362
G01 X-1.1714 Y22.2150
G01 X-1.2219 Y22.0925
G01 X-1.2601 Y21.9657
G01 X-1.2857 Y21.8357
G01 X-1.2982 Y21.7087
G01 X-1.3000 Y21.6400
G01 X-1.3000 Y9.4480
G01 X-1.2982 Y9.3793
G01 X-1.2850 Y9.2475
G01 X-1.2589 Y9.1176
G01 X-1.2219 Y8.9955
G01 X-1.1714 Y8.8731
G01 X-1.1091 Y8.7561
G01 X-1.0328 Y8.6419
G01 X-0.9486 Y8.5396
G01 X-0.8584 Y8.4494
G01 X-0.7561 Y8.3652
G01 X-0.6461 Y8.2914
G01 X-0.5249 Y8.2266
G01 X-0.4025 Y8.1761
G01 X-0.2756 Y8.1379
G01 X-0.1456 Y8.1123
G01 X-0.0187 Y8.0998
G01 X0.0500 Y8.0980
G01 X5.0500 Y8.0980
G01 X5.0500 Y0.0500
G01 X5.0518 Y-0.0187
G01 X5.0650 Y-0.1505
G01 X5.0911 Y-0.2804
G01 X5.1298 Y-0.4071
G01 X5.1807 Y-0.5294
G01 X5.2434 Y-0.6461
G01 X5.3172 Y-0.7561
G01 X5.4014 Y-0.8584
G01 X5.4953 Y-0.9519
G01 X5.5978 Y-1.0357
G01 X5.7081 Y-1.1091
G01 X5.8206 Y-1.1693
G01 X5.9429 Y-1.2202
G01 X6.0696 Y-1.2589
G01 X6.1995 Y-1.2850
G01 X6.3313 Y-1.2982
G01 X6.4000 Y-1.3000
G01 X34.6690 Y-1.3000
G00 Z2.0000
G00 X3.0180 Y30.2740
G01 F60.00
G01 Z-0.6000
G01 F120.00
G01 X3.0180 Y36.3720
G01 X3.0198 Y36.4407
G01 X3.0323 Y36.5677
G01 X3.0591 Y36.7024
G01 X3.0978 Y36.8291
G01 X3.1487 Y36.9514
G01 X3.2114 Y37.0682
G01 X3.2823 Y37.1742
G01 X3.3661 Y37.2768
G01 X3.4596 Y37.3706
G01 X3.5619 Y37.4549
G01 X3.6719 Y37.5287
G01 X3.7886 Y37.5913
G01 X3.9109 Y37.6422
G01 X4.0376 Y37.6809
G01 X4.1724 Y37.7077
G01 X4.2993 Y37.7202
G01 X4.3680 Y37.7220
G01 X5.0500 Y37.7220
G01 X5.0500 Y39.8480
G01 X4.3680 Y39.8480
G01 X4.2993 Y39.8498
G01 X4.1724 Y39.8623
G01 X4.0424 Y39.8879
G01 X3.9155 Y39.9261
G01 X3.7931 Y39.9766
G01 X3.6761 Y40.0389
G01 X3.5658 Y40.1123
G01 X3.4596 Y40.1994
G01 X3.3661 Y40.2933
G01 X3.2823 Y40.3958
G01 X3.2089 Y40.5061
G01 X3.1466 Y40.6231
G01 X3.0961 Y40.7455
G01 X3.0591 Y40.8676
G01 X3.0330 Y40.9975
G01 X3.0198 Y41.1293
G01 X3.0180 Y41.1980
G01 X3.0180 Y50.8500
G01 X3.0198 Y50.9187
G01 X3.0323 Y51.0457
G01 X3.0591 Y51.1804
G01 X3.0978 Y51.3071
G01 X3.1487 Y51.4294
G01 X3.2114 Y51.5462
G01 X3.2823 Y51.6522
G01 X3.3661 Y51.7548
G01 X3.4596 Y51.8486
G01 X3.5658 Y51.9358
G01 X3.6761 Y52.0092
G01 X3.7931 Y52.0714
G01 X3.9155 Y52.1219
G01 X4.0424 Y52.1601
G01 X4.1724 Y52.1857
G01 X4.2993 Y52.1982
G01 X4.3680 Y52.2000
G01 X5.0500 Y52.2000
G01 X5.0500 Y53.8980
G01 X5.0518 Y53.9667
G01 X5.0650 Y54.0985
G01 X5.0911 Y54.2284
G01 X5.1298 Y54.3551
G01 X5.1786 Y54.4730
G01 X5.2409 Y54.5899
G01 X5.3143 Y54.7002
G01 X5.3981 Y54.8028
G01 X5.4916 Y54.8966
G01 X5.5939 Y54.9809
G01 X5.7081 Y55.0572
G01 X5.8251 Y55.1194
G01 X5.9475 Y55.1699
G01 X6.0696 Y55.2069
G01 X6.1995 Y55.2330
G01 X6.3313 Y55.2462
G01 X6.4000 Y55.2480
G01 X34.6690 Y55.2480
G00 X34.6690 Y55.2480
G01 F60.00
G01 Z-1.2000
G01 F120.00
G01 X6.4000 Y55.2480
G01 X6.3313 Y55.2462
G01 X6.1995 Y55.2330
G01 X6.0696 Y55.2069
G01 X5.9475 Y55.1699
G01 X5.8251 Y55.1194
G01 X5.7081 Y55.0572
G01 X5.5939 Y54.9809
G01 X5.4916 Y54.8966
G01 X5.3981 Y54.8028
G01 X5.3143 Y54.7002
G01 X5.2409 Y54.5899
G01 X5.1786 Y54.4730
G01 X5.1298 Y54.3551
G01 X5.0911 Y54.2284
G01 X5.0650 Y54.0985
G01 X5.0518 Y53.9667
G01 X5.0500 Y53.8980
G01 X5.0500 Y52.2000
G01 X4.3680 Y52.2000
G01 X4.2993 Y52.1982
G01 X4.1724 Y52.1857
G01 X4.0424 Y52.1601
G01 X3.9155 Y52.1219
G01 X3.7931 Y52.0714
G01 X3.6761 Y52.0092
G01 X3.5658 Y51.9358
G01 X3.4596 Y51.8486
G01 X3.3661 Y51.7548
G01 X3.2823 Y51.6522
G01 X3.2114 Y51.5462
G01 X3.1487 Y51.4294
G01 X3.0978 Y51.3071
G01 X3.0591 Y51.1804
G01 X3.0323 Y51.0457
G01 X3.0198 Y50.9187
G01 X3.0180 Y50.8500
G01 X3.0180 Y41.1980
G01 X3.0198 Y41.1293
G01 X3.0330 Y40.9975
G01 X3.0591 Y40.8676
G01 X3.0961 Y40.7455
G01 X3.1466 Y40.6231
G01 X3.2089 Y40.5061
G01 X3.2823 Y40.3958
G01 X3.3661 Y40.2933
G01 X3.4596 Y40.1994
G01 X3.5658 Y40.1123
G01 X3.6761 Y40.0389
G01 X3.7931 Y39.9766
G01 X3.9155 Y39.9261
G01 X4.0424 Y39.8879
G01 X4.1724 Y39.8623
G01 X4.2993 Y39.8498
G01 X4.3680 Y39.8480
G01 X5.0500 Y39.8480
G01 X5.0500 Y37.7220
G01 X4.3680 Y37.7220
G01 X4.2993 Y37.7202
G01 X4.1724 Y37.7077
G01 X4.0376 Y37.6809
G01 X3.9109 Y37.6422
G01 X3.7886 Y37.5913
G01 X3.6719 Y37.5287
G01 X3.5619 Y37.4549
G01 X3.4596 Y37.3706
G01 X3.3661 Y37.2768
G01 X3.2823 Y37.1742
G01 X3.2114 Y37.0682
G01 X3.1487 Y36.9514
G01 X3.0978 Y36.8291
G01 X3.0591 Y36.7024
G01 X3.0323 Y36.5677
G01 X3.0198 Y36.4407
G01 X3.0180 Y36.3720
G01 X3.0180 Y30.2740
G00 X3.0180 Y30.2740
G01 F60.00
G01 Z-1.8000
G01 F120.00
G01 X3.0180 Y36.3720
G01 X3.0198 Y36.4407
G01 X3.0323 Y36.5677
G01 X3.0591 Y36.7024
G01 X3.0978 Y36.8291
G01 X3.1487 Y36.9514
G01 X3.2114 Y37.0682
G01 X3.2823 Y37.1742
G01 X3.3661 Y37.2768
G01 X3.4596 Y37.3706
G01 X3.5619 Y37.4549
G01 X3.6719 Y37.5287
G01 X3.7886 Y37.5913
G01 X3.9109 Y37.6422
G01 X4.0376 Y37.6809
G01 X4.1724 Y37.7077
G01 X4.2993 Y37.7202
G01 X4.3680 Y37.7220
G01 X5.0500 Y37.7220
G01 X5.0500 Y39.8480
G01 X4.3680 Y39.8480
G01 X4.2993 Y39.8498
G01 X4.1724 Y39.8623
G01 X4.0424 Y39.8879
G01 X3.9155 Y39.9261
G01 X3.7931 Y39.9766
G01 X3.6761 Y40.0389
G01 X3.5658 Y40.1123
G01 X3.4596 Y40.1994
G01 X3.3661 Y40.2933
G01 X3.2823 Y40.3958
G01 X3.2089 Y40.5061
G01 X3.1466 Y40.6231
G01 X3.0961 Y40.7455
G01 X3.0591 Y40.8676
G01 X3.0330 Y40.9975
G01 X3.0198 Y41.1293
G01 X3.0180 Y41.1980
G01 X3.0180 Y50.8500
G01 X3.0198 Y50.9187
G01 X3.0323 Y51.0457
G01 X3.0591 Y51.1804
G01 X3.0978 Y51.3071
G01 X3.1487 Y51.4294
G01 X3.2114 Y51.5462
G01 X3.2823 Y51.6522
G01 X3.3661 Y51.7548
G01 X3.4596 Y51.8486
G01 X3.5658 Y51.9358
G01 X3.6761 Y52.0092
G01 X3.7931 Y52.0714
G01 X3.9155 Y52.1219
G01 X4.0424 Y52.1601
G01 X4.1724 Y52.1857
G01 X4.2993 Y52.1982
G01 X4.3680 Y52.2000
G01 X5.0500 Y52.2000
G01 X5.0500 Y53.8980
G01 X5.0518 Y53.9667
G01 X5.0650 Y54.0985
G01 X5.0911 Y54.2284
G01 X5.1298 Y54.3551
G01 X5.1786 Y54.4730
G01 X5.2409 Y54.5899
G01 X5.3143 Y54.7002
G01 X5.3981 Y54.8028
G01 X5.4916 Y54.8966
G01 X5.5939 Y54.9809
G01 X5.7081 Y55.0572
G01 X5.8251 Y55.1194
G01 X5.9475 Y55.1699
G01 X6.0696 Y55.2069
G01 X6.1995 Y55.2330
G01 X6.3313 Y55.2462
G01 X6.4000 Y55.2480
G01 X34.6690 Y55.2480
G00 Z2.0000
G00 X41.0690 Y55.2480
G01 F60.00
G01 Z-0.6000
G01 F120.00
G01 X72.9480 Y55.2480
G01 X73.0167 Y55.2462
G01 X73.1485 Y55.2330
G01 X73.2784 Y55.2069
G01 X73.4005 Y55.1699
G01 X73.5274 Y55.1173
G01 X73.6399 Y55.0572
G01 X73.7502 Y54.9838
G01 X73.8528 Y54.8999
G01 X73.9466 Y54.8064
G01 X74.0309 Y54.7042
G01 X74.1047 Y54.5942
G01 X74.1673 Y54.4774
G01 X74.2182 Y54.3551
G01 X74.2569 Y54.2284
G01 X74.2830 Y54.0985
G01 X74.2962 Y53.9667
G01 X74.2980 Y53.8980
G01 X74.2980 Y51.6632
G01 X76.4426 Y49.5186
G01 X76.4899 Y49.4688
G01 X76.5738 Y49.3662
G01 X76.6447 Y49.2602
G01 X76.7094 Y49.1390
G01 X76.7582 Y49.0211
G01 X76.7969 Y48.8944
G01 X76.8237 Y48.7597
G01 X76.8362 Y48.6327
G01 X76.8380 Y48.5640
G01 X76.8380 Y30.2740
G00 X76.8380 Y30.2740
G01 F60.00
G01 Z-1.2000
G01 F120.00
G01 X76.8380 Y48.5640
G01 X76.8362 Y48.6327
G01 X76.8237 Y48.7597
G01 X76.7969 Y48.8944
G01 X76.7582 Y49.0211
G01 X76.7094 Y49.1390
G01 X76.6447 Y49.2602
G01 X76.5738 Y49.3662
G01 X76.4899 Y49.4688
G01 X76.4426 Y49.5186
G01 X74.2980 Y51.6632
G01 X74.2980 Y53.8980
G01 X74.2962 Y53.9667
G01 X74.2830 Y54.0985
G01 X74.2569 Y54.2284
G01 X74.2182 Y54.3551
G01 X74.1673 Y54.4774
G01 X74.1047 Y54.5942
G01 X74.0309 Y54.7042
G01 X73.9466 Y54.8064
G01 X73.8528 Y54.8999
G01 X73.7502 Y54.9838
G01 X73.6399 Y55.0572
G01 X73.5274 Y55.1173
G01 X73.4005 Y55.1699
G01 X73.2784 Y55.2069
G01 X73.1485 Y55.2330
G01 X73.0167 Y55.2462
G01 X72.9480 Y55.2480
G01 X41.0690 Y55.2480
G00 X41.0690 Y55.2480
G01 F60.00
G01 Z-1.8000
G01 F120.00
G01 X72.9480 Y55.2480
G01 X73.0167 Y55.2462
G01 X73.1485 Y55.2330
G01 X73.2784 Y55.2069
G01 X73.4005 Y55.1699
G01 X73.5274 Y55.1173
G01 X73.6399 Y55.0572
G01 X73.7502 Y54.9838
G01 X73.8528 Y54.8999
G01 X73.9466 Y54.8064
G01 X74.0309 Y54.7042
G01 X74.1047 Y54.5942
G01 X74.1673 Y54.4774
G01 X74.2182 Y54.3551
G01 X74.2569 Y54.2284
G01 X74.2830 Y54.0985
G01 X74.2962 Y53.9667
G01 X74.2980 Y53.8980
G01 X74.2980 Y51.6632
G01 X76.4426 Y49.5186
G01 X76.4899 Y49.4688
G01 X76.5738 Y49.3662
G01 X76.6447 Y49.2602
G01 X76.7094 Y49.1390
G01 X76.7582 Y49.0211
G01 X76.7969 Y48.8944
G01 X76.8237 Y48.7597
G01 X76.8362 Y48.6327
G01 X76.8380 Y48.5640
G01 X76.8380 Y30.2740
G00 Z2.0000
G00 X76.8380 Y23.8740
G01 F60.00
G01 Z-0.6000
G01 F120.00
G01 X76.8380 Y15.7980
G01 X76.8362 Y15.7293
G01 X76.8237 Y15.6024
G01 X76.7981 Y15.4724
G01 X76.7582 Y15.3409
G01 X76.7073 Y15.2186
G01 X76.6472 Y15.1061
G01 X76.5738 Y14.9958
G01 X76.4899 Y14.8933
G01 X76.4426 Y14.8434
G01 X74.2980 Y12.6988
G01 X74.2980 Y1.8280
G01 X74.2962 Y1.7593
G01 X74.2830 Y1.6275
G01 X74.2569 Y1.4976
G01 X74.2182 Y1.3709
G01 X74.1694 Y1.2531
G01 X74.1047 Y1.1319
G01 X74.0309 Y1.0219
G01 X73.9499 Y0.9233
G01 X73.9026 Y0.8734
G01 X72.1246 Y-0.9046
G01 X72.0748 Y-0.9519
G01 X71.9722 Y-1.0357
G01 X71.8662 Y-1.1066
G01 X71.7494 Y-1.1693
G01 X71.6225 Y-1.2219
G01 X71.5004 Y-1.2589
G01 X71.3705 Y-1.2850
G01 X71.2387 Y-1.2982
G01 X71.1700 Y-1.3000
G01 X41.0690 Y-1.3000
G00 X41.0690 Y-1.3000
G01 F60.00
G01 Z-1.2000
G01 F120.00
G01 X71.1700 Y-1.3000
G01 X71.2387 Y-1.2982
G01 X71.3705 Y-1.2850
G01 X71.5004 Y-1.2589
G01 X71.6225 Y-1.2219
G01 X71.7494 Y-1.1693
G01 X71.8662 Y-1.1066
G01 X71.9722 Y-1.0357
G01 X72.0748 Y-0.9519
G01 X72.1246 Y-0.9046
G01 X73.9026 Y0.8734
G01 X73.9499 Y0.9233
G01 X74.0309 Y1.0219
G01 X74.1047 Y1.1319
G01 X74.1694 Y1.2531
G01 X74.2182 Y1.3709
G01 X74.2569 Y1.4976
G01 X74.2830 Y1.6275
G01 X74.2962 Y1.7593
G01 X74.2980 Y1.8280
G01 X74.2980 Y12.6988
G01 X76.4426 Y14.8434
G01 X76.4899 Y14.8933
G01 X76.5738 Y14.9958
G01 X76.6472 Y15.1061
G01 X76.7073 Y15.2186
G01 X76.7582 Y15.3409
G01 X76.7981 Y15.4724
G01 X76.8237 Y15.6024
G01 X76.8362 Y15.7293
G01 X76.8380 Y15.7980
G01 X76.8380 Y23.8740
G00 X76.8380 Y23.8740
G01 F60.00
G01 Z-1.8000
G01 F120.00
G01 X76.8380 Y15.7980
G01 X76.8362 Y15.7293
G01 X76.8237 Y15.6024
G01 X76.7981 Y15.4724
G01 X76.7582 Y15.3409
G01 X76.7073 Y15.2186
G01 X76.6472 Y15.1061
G01 X76.5738 Y14.9958
G01 X76.4899 Y14.8933
G01 X76.4426 Y14.8434
G01 X74.2980 Y12.6988
G01 X74.2980 Y1.8280
G01 X74.2962 Y1.7593
G01 X74.2830 Y1.6275
G01 X74.2569 Y1.4976
G01 X74.2182 Y1.3709
G01 X74.1694 Y1.2531
G01 X74.1047 Y1.1319
G01 X74.0309 Y1.0219
G01 X73.9499 Y0.9233
G01 X73.9026 Y0.8734
G01 X72.1246 Y-0.9046
G01 X72.0748 Y-0.9519
G01 X71.9722 Y-1.0357
G01 X71.8662 Y-1.1066
G01 X71.7494 Y-1.1693
G01 X71.6225 Y-1.2219
G01 X71.5004 Y-1.2589
G01 X71.3705 Y-1.2850
G01 X71.2387 Y-1.2982
G01 X71.1700 Y-1.3000
G01 X41.0690 Y-1.3000
G00 Z2.0000
M05
G00 Z2.0000
G00 Z15.00


