(G-CODE GENERATED BY FLATCAM v8.994 - www.flatcam.org - Version Date: 2020/11/7)

(Name: pet_puller_shield-B_Cu.gbr_iso_combined_cnc)
(Type: G-code from Geometry)
(Units: MM)

(Created on Saturday, 08 February 2025 at 20:09)

(This preprocessor is the default preprocessor used by FlatCAM.)
(It is made to work with MACH3 compatible motion controllers.)

(TOOL DIAMETER: 0.1655 mm)
(Feedrate_XY: 60.0 mm/min)
(Feedrate_Z: 30.0 mm/min)
(Feedrate rapids 1500.0 mm/min)

(Z_Cut: -0.09 mm)
(Z_Move: 2.0 mm)
(Z Start: None mm)
(Z End: 15.0 mm)
(X,Y End: None mm)
(Steps per circle: 64)
(Preprocessor Geometry: default)

(X range:    0.0289 ...   75.5091  mm)
(Y range:    0.0487 ...   53.9389  mm)

(Spindle Speed: 10000.0 RPM)
G21
G90
G94

G01 F60.00

M5
G00 Z15.0000
G00 X0.0000 Y0.0000
T2
M6    
(MSG, Change to Tool Dia = 0.1655)
M0
G00 Z15.0000

M03 S10000.0
G01 F60.00
G00 X19.7601 Y1.5014
G01 F30.00
G01 Z-0.0900
G01 F60.00
G01 X19.8966 Y1.3648
G01 X19.8995 Y1.3624
G01 X20.0577 Y1.2516
G01 X20.0609 Y1.2498
G01 X20.2360 Y1.1681
G01 X20.2395 Y1.1669
G01 X20.2873 Y1.1541
G01 X20.2873 Y1.5231
G01 X20.2533 Y1.5394
G01 X20.1875 Y1.5791
G01 X20.1275 Y1.6237
G01 X20.0705 Y1.6753
G01 X20.0190 Y1.7322
G01 X19.9743 Y1.7922
G01 X19.9347 Y1.8580
G01 X19.9183 Y1.8920
G01 X19.5493 Y1.8920
G01 X19.5621 Y1.8443
G01 X19.5634 Y1.8407
G01 X19.6450 Y1.6657
G01 X19.6469 Y1.6625
G01 X19.7577 Y1.5043
G01 X19.7601 Y1.5014
G00 Z2.0000
G00 X20.1160 Y1.4480
G01 F30.00
G01 Z-0.0900
G01 F60.00
G01 X20.1064 Y1.4541
G01 X20.0971 Y1.4606
G01 X20.0330 Y1.5086
G01 X19.9735 Y1.5621
G01 X19.9612 Y1.5740
G01 X19.9112 Y1.6291
G01 X19.9003 Y1.6422
G01 X19.8526 Y1.7065
G01 X19.8462 Y1.7159
G01 X19.8299 Y1.7431
G01 X19.7733 Y1.7431
G01 X19.7753 Y1.7388
G01 X19.8733 Y1.5988
G01 X19.9941 Y1.4780
G01 X20.1340 Y1.3800
G01 X20.1383 Y1.3780
G01 X20.1383 Y1.4346
G01 X20.1160 Y1.4480
G00 Z2.0000
G00 X19.9357 Y2.6013
G01 F30.00
G01 Z-0.0900
G01 F60.00
G01 X19.9732 Y2.6636
G01 X20.0165 Y2.7221
G01 X20.0216 Y2.7284
G01 X20.0720 Y2.7837
G01 X20.1275 Y2.8338
G01 X20.1875 Y2.8785
G01 X20.2533 Y2.9181
G01 X20.2873 Y2.9345
G01 X20.2873 Y3.3035
G01 X20.2395 Y3.2907
G01 X20.2360 Y3.2894
G01 X20.0609 Y3.2078
G01 X20.0577 Y3.2059
G01 X19.8995 Y3.0951
G01 X19.8966 Y3.0927
G01 X19.7601 Y2.9562
G01 X19.7577 Y2.9533
G01 X19.6469 Y2.7951
G01 X19.6450 Y2.7919
G01 X19.5634 Y2.6168
G01 X19.5621 Y2.6133
G01 X19.5493 Y2.5655
G01 X19.9183 Y2.5655
G01 X19.9319 Y2.5941
G01 X19.9357 Y2.6013
G00 Z2.0000
G00 X19.8559 Y2.7557
G01 F30.00
G01 Z-0.0900
G01 F60.00
G01 X19.9038 Y2.8198
G01 X19.9574 Y2.8793
G01 X19.9693 Y2.8916
G01 X20.0243 Y2.9416
G01 X20.0374 Y2.9525
G01 X20.1017 Y3.0002
G01 X20.1112 Y3.0066
G01 X20.1383 Y3.0229
G01 X20.1383 Y3.0795
G01 X20.1340 Y3.0775
G01 X19.9941 Y2.9795
G01 X19.8733 Y2.8587
G01 X19.7753 Y2.7188
G01 X19.7733 Y2.7145
G01 X19.8299 Y2.7145
G01 X19.8462 Y2.7416
G01 X19.8559 Y2.7557
G00 Z2.0000
G00 X20.9965 Y2.9171
G01 F30.00
G01 Z-0.0900
G01 F60.00
G01 X21.0589 Y2.8796
G01 X21.1174 Y2.8363
G01 X21.1237 Y2.8312
G01 X21.1789 Y2.7808
G01 X21.2291 Y2.7253
G01 X21.2737 Y2.6653
G01 X21.3134 Y2.5995
G01 X21.3297 Y2.5655
G01 X21.6987 Y2.5655
G01 X21.6859 Y2.6133
G01 X21.6847 Y2.6168
G01 X21.6030 Y2.7919
G01 X21.6012 Y2.7951
G01 X21.4904 Y2.9533
G01 X21.4880 Y2.9562
G01 X21.3514 Y3.0927
G01 X21.3485 Y3.0951
G01 X21.1903 Y3.2059
G01 X21.1871 Y3.2078
G01 X21.0121 Y3.2894
G01 X21.0085 Y3.2907
G01 X20.9608 Y3.3035
G01 X20.9608 Y2.9345
G01 X20.9894 Y2.9209
G01 X20.9965 Y2.9171
G00 Z2.0000
G00 X21.1509 Y2.9969
G01 F30.00
G01 Z-0.0900
G01 F60.00
G01 X21.2151 Y2.9490
G01 X21.2746 Y2.8954
G01 X21.2868 Y2.8835
G01 X21.3368 Y2.8285
G01 X21.3478 Y2.8154
G01 X21.3955 Y2.7511
G01 X21.4018 Y2.7416
G01 X21.4182 Y2.7145
G01 X21.4748 Y2.7145
G01 X21.4728 Y2.7188
G01 X21.3748 Y2.8587
G01 X21.2540 Y2.9795
G01 X21.1140 Y3.0775
G01 X21.1097 Y3.0795
G01 X21.1097 Y3.0229
G01 X21.1369 Y3.0066
G01 X21.1509 Y2.9969
G00 Z2.0000
G00 X21.4182 Y1.7431
G01 F30.00
G01 Z-0.0900
G01 F60.00
G01 X21.4018 Y1.7159
G01 X21.3955 Y1.7065
G01 X21.3478 Y1.6422
G01 X21.3368 Y1.6291
G01 X21.2828 Y1.5700
G01 X21.2237 Y1.5160
G01 X21.2106 Y1.5050
G01 X21.1463 Y1.4573
G01 X21.1369 Y1.4510
G01 X21.1097 Y1.4346
G01 X21.1097 Y1.3780
G01 X21.1140 Y1.3800
G01 X21.2540 Y1.4780
G01 X21.3748 Y1.5988
G01 X21.4728 Y1.7388
G01 X21.4748 Y1.7431
G01 X21.4182 Y1.7431
G00 Z2.0000
G00 X21.3485 Y1.3624
G01 F30.00
G01 Z-0.0900
G01 F60.00
G01 X21.3514 Y1.3648
G01 X21.4880 Y1.5014
G01 X21.4904 Y1.5043
G01 X21.6012 Y1.6625
G01 X21.6030 Y1.6657
G01 X21.6847 Y1.8407
G01 X21.6859 Y1.8443
G01 X21.6987 Y1.8920
G01 X21.3297 Y1.8920
G01 X21.3134 Y1.8580
G01 X21.2737 Y1.7922
G01 X21.2291 Y1.7322
G01 X21.1775 Y1.6753
G01 X21.1206 Y1.6237
G01 X21.0606 Y1.5791
G01 X20.9948 Y1.5394
G01 X20.9608 Y1.5231
G01 X20.9608 Y1.1541
G01 X21.0085 Y1.1669
G01 X21.0121 Y1.1681
G01 X21.1871 Y1.2498
G01 X21.1903 Y1.2516
G01 X21.3485 Y1.3624
G00 Z2.0000
G00 X20.4674 Y8.0756
G01 F30.00
G01 Z-0.0900
G01 F60.00
G01 X20.3968 Y8.0578
G01 X20.3245 Y8.0319
G01 X20.2550 Y7.9991
G01 X20.1892 Y7.9596
G01 X20.1275 Y7.9138
G01 X20.0705 Y7.8623
G01 X20.0190 Y7.8053
G01 X19.9732 Y7.7436
G01 X19.9337 Y7.6778
G01 X19.9009 Y7.6083
G01 X19.8750 Y7.5360
G01 X19.8563 Y7.4615
G01 X19.8450 Y7.3855
G01 X19.8413 Y7.3088
G01 X19.8450 Y7.2321
G01 X19.8563 Y7.1561
G01 X19.8750 Y7.0816
G01 X19.9009 Y7.0092
G01 X19.9337 Y6.9398
G01 X19.9732 Y6.8739
G01 X20.0190 Y6.8122
G01 X20.0705 Y6.7553
G01 X20.1275 Y6.7037
G01 X20.1892 Y6.6579
G01 X20.2550 Y6.6185
G01 X20.3245 Y6.5856
G01 X20.3968 Y6.5597
G01 X20.4713 Y6.5411
G01 X20.5473 Y6.5298
G01 X20.6240 Y6.5260
G01 X20.7007 Y6.5298
G01 X20.7767 Y6.5411
G01 X20.8512 Y6.5597
G01 X20.9236 Y6.5856
G01 X20.9930 Y6.6185
G01 X21.0589 Y6.6579
G01 X21.1206 Y6.7037
G01 X21.1775 Y6.7553
G01 X21.2291 Y6.8122
G01 X21.2749 Y6.8739
G01 X21.3143 Y6.9398
G01 X21.3472 Y7.0092
G01 X21.3731 Y7.0816
G01 X21.3917 Y7.1561
G01 X21.4030 Y7.2321
G01 X21.4068 Y7.3088
G01 X21.4030 Y7.3855
G01 X21.3917 Y7.4615
G01 X21.3731 Y7.5360
G01 X21.3472 Y7.6083
G01 X21.3143 Y7.6778
G01 X21.2749 Y7.7436
G01 X21.2291 Y7.8053
G01 X21.1775 Y7.8623
G01 X21.1206 Y7.9138
G01 X21.0589 Y7.9596
G01 X20.9930 Y7.9991
G01 X20.9236 Y8.0319
G01 X20.8512 Y8.0578
G01 X20.7767 Y8.0765
G01 X20.7007 Y8.0878
G01 X20.6240 Y8.0915
G01 X20.5473 Y8.0878
G01 X20.4753 Y8.0772
G01 X20.4674 Y8.0756
G00 Z2.0000
G00 X20.4312 Y8.2201
G01 F30.00
G01 Z-0.0900
G01 F60.00
G01 X20.3536 Y8.2004
G01 X20.2781 Y8.1736
G01 X20.2675 Y8.1696
G01 X20.2571 Y8.1649
G01 X20.1848 Y8.1305
G01 X20.1160 Y8.0895
G01 X20.1064 Y8.0835
G01 X20.0971 Y8.0769
G01 X20.0330 Y8.0290
G01 X19.9735 Y7.9754
G01 X19.9652 Y7.9676
G01 X19.9574 Y7.9593
G01 X19.9038 Y7.8998
G01 X19.8559 Y7.8357
G01 X19.8493 Y7.8264
G01 X19.8433 Y7.8168
G01 X19.8023 Y7.7480
G01 X19.7679 Y7.6757
G01 X19.7632 Y7.6653
G01 X19.7592 Y7.6547
G01 X19.7324 Y7.5792
G01 X19.7127 Y7.5016
G01 X19.7102 Y7.4905
G01 X19.7083 Y7.4793
G01 X19.6968 Y7.4001
G01 X19.6960 Y7.3888
G01 X19.6923 Y7.3088
G01 X19.6960 Y7.2288
G01 X19.6968 Y7.2175
G01 X19.7083 Y7.1382
G01 X19.7102 Y7.1270
G01 X19.7127 Y7.1159
G01 X19.7324 Y7.0383
G01 X19.7592 Y6.9628
G01 X19.7632 Y6.9522
G01 X19.7972 Y6.8797
G01 X19.8023 Y6.8696
G01 X19.8079 Y6.8597
G01 X19.8493 Y6.7912
G01 X19.8968 Y6.7267
G01 X19.9038 Y6.7177
G01 X19.9574 Y6.6582
G01 X19.9652 Y6.6500
G01 X19.9735 Y6.6421
G01 X20.0330 Y6.5886
G01 X20.0971 Y6.5406
G01 X20.1064 Y6.5341
G01 X20.1160 Y6.5280
G01 X20.1848 Y6.4871
G01 X20.1950 Y6.4820
G01 X20.2675 Y6.4480
G01 X20.3428 Y6.4208
G01 X20.3536 Y6.4172
G01 X20.4312 Y6.3975
G01 X20.4423 Y6.3950
G01 X20.4535 Y6.3930
G01 X20.5327 Y6.3816
G01 X20.6127 Y6.3774
G01 X20.6240 Y6.3771
G01 X20.6354 Y6.3774
G01 X20.7153 Y6.3816
G01 X20.7946 Y6.3930
G01 X20.8058 Y6.3950
G01 X20.8169 Y6.3975
G01 X20.8945 Y6.4172
G01 X20.9700 Y6.4439
G01 X20.9806 Y6.4480
G01 X20.9910 Y6.4526
G01 X21.0632 Y6.4871
G01 X21.1320 Y6.5280
G01 X21.1416 Y6.5341
G01 X21.1509 Y6.5406
G01 X21.2151 Y6.5886
G01 X21.2746 Y6.6421
G01 X21.2828 Y6.6500
G01 X21.2907 Y6.6582
G01 X21.3442 Y6.7177
G01 X21.3922 Y6.7819
G01 X21.3987 Y6.7912
G01 X21.4048 Y6.8008
G01 X21.4457 Y6.8696
G01 X21.4802 Y6.9418
G01 X21.4848 Y6.9522
G01 X21.4889 Y6.9628
G01 X21.5156 Y7.0383
G01 X21.5353 Y7.1159
G01 X21.5378 Y7.1270
G01 X21.5398 Y7.1382
G01 X21.5512 Y7.2175
G01 X21.5521 Y7.2288
G01 X21.5557 Y7.3088
G01 X21.5521 Y7.3888
G01 X21.5512 Y7.4001
G01 X21.5398 Y7.4793
G01 X21.5378 Y7.4905
G01 X21.5353 Y7.5016
G01 X21.5156 Y7.5792
G01 X21.4889 Y7.6547
G01 X21.4848 Y7.6653
G01 X21.4508 Y7.7378
G01 X21.4457 Y7.7480
G01 X21.4401 Y7.7579
G01 X21.3987 Y7.8264
G01 X21.3512 Y7.8909
G01 X21.3442 Y7.8998
G01 X21.2907 Y7.9593
G01 X21.2828 Y7.9676
G01 X21.2746 Y7.9754
G01 X21.2151 Y8.0290
G01 X21.1509 Y8.0769
G01 X21.1416 Y8.0835
G01 X21.1320 Y8.0895
G01 X21.0632 Y8.1305
G01 X21.0531 Y8.1356
G01 X20.9806 Y8.1696
G01 X20.9053 Y8.1968
G01 X20.8945 Y8.2004
G01 X20.8169 Y8.2201
G01 X20.8058 Y8.2226
G01 X20.7946 Y8.2245
G01 X20.7153 Y8.2360
G01 X20.6354 Y8.2402
G01 X20.6240 Y8.2405
G01 X20.6127 Y8.2402
G01 X20.5327 Y8.2360
G01 X20.4535 Y8.2245
G01 X20.4423 Y8.2226
G01 X20.4312 Y8.2201
G00 Z2.0000
G00 X19.8321 Y8.4593
G01 F30.00
G01 Z-0.0900
G01 F60.00
G01 X19.8454 Y8.4477
G01 X19.8536 Y8.4398
G01 X19.8651 Y8.4272
G01 X19.8756 Y8.4138
G01 X19.8820 Y8.4044
G01 X19.8893 Y8.3924
G01 X19.9130 Y8.3616
G01 X19.9226 Y8.3475
G01 X19.9284 Y8.3378
G01 X19.9337 Y8.3278
G01 X19.9385 Y8.3175
G01 X19.9428 Y8.3070
G01 X19.9483 Y8.2910
G01 X19.9513 Y8.2800
G01 X19.9548 Y8.2634
G01 X19.9570 Y8.2465
G01 X19.9625 Y8.1701
G01 X19.9631 Y8.1586
G01 X19.9630 Y8.1471
G01 X19.9624 Y8.1356
G01 X19.9605 Y8.1184
G01 X19.9572 Y8.1014
G01 X19.9543 Y8.0903
G01 X19.9509 Y8.0793
G01 X19.9448 Y8.0631
G01 X19.9374 Y8.0475
G01 X19.9055 Y7.9856
G01 X19.8997 Y7.9756
G01 X19.8935 Y7.9660
G01 X19.8868 Y7.9567
G01 X19.8756 Y7.9429
G01 X19.7749 Y7.7990
G01 X19.7026 Y7.6441
G01 X19.6584 Y7.4790
G01 X19.6435 Y7.3088
G01 X19.6584 Y7.1385
G01 X19.7026 Y6.9734
G01 X19.7749 Y6.8185
G01 X19.8729 Y6.6785
G01 X19.9938 Y6.5576
G01 X20.1338 Y6.4596
G01 X20.2887 Y6.3874
G01 X20.4538 Y6.3431
G01 X20.6240 Y6.3282
G01 X20.7943 Y6.3431
G01 X20.9594 Y6.3874
G01 X21.1143 Y6.4596
G01 X21.2543 Y6.5576
G01 X21.3752 Y6.6785
G01 X21.4732 Y6.8185
G01 X21.5454 Y6.9734
G01 X21.5897 Y7.1385
G01 X21.6046 Y7.3088
G01 X21.5897 Y7.4790
G01 X21.5554 Y7.6067
G01 X21.5454 Y7.6441
G01 X21.4732 Y7.7990
G01 X21.3752 Y7.9390
G01 X21.2509 Y8.0633
G01 X21.2376 Y8.0748
G01 X21.2295 Y8.0827
G01 X21.2180 Y8.0954
G01 X21.2109 Y8.1042
G01 X21.2010 Y8.1182
G01 X21.1937 Y8.1302
G01 X21.1667 Y8.1656
G01 X21.1604 Y8.1750
G01 X21.1547 Y8.1847
G01 X21.1469 Y8.1999
G01 X21.1402 Y8.2155
G01 X21.1348 Y8.2316
G01 X21.1318 Y8.2425
G01 X21.1293 Y8.2536
G01 X21.1274 Y8.2648
G01 X21.1256 Y8.2817
G01 X21.1205 Y8.3525
G01 X21.1199 Y8.3697
G01 X21.1206 Y8.3870
G01 X21.1226 Y8.4041
G01 X21.1259 Y8.4211
G01 X21.1304 Y8.4378
G01 X21.1361 Y8.4541
G01 X21.1430 Y8.4699
G01 X21.1749 Y8.5319
G01 X21.1833 Y8.5469
G01 X21.1928 Y8.5612
G01 X21.1998 Y8.5704
G01 X21.2074 Y8.5796
G01 X21.3082 Y8.7235
G01 X21.3804 Y8.8784
G01 X21.4247 Y9.0435
G01 X21.4396 Y9.2138
G01 X21.4247 Y9.3840
G01 X21.3818 Y9.5440
G01 X21.3804 Y9.5491
G01 X21.3082 Y9.7040
G01 X21.2102 Y9.8440
G01 X21.0893 Y9.9649
G01 X20.9493 Y10.0629
G01 X20.7944 Y10.1352
G01 X20.6293 Y10.1794
G01 X20.4590 Y10.1943
G01 X20.2888 Y10.1794
G01 X20.1237 Y10.1352
G01 X19.9688 Y10.0629
G01 X19.8288 Y9.9649
G01 X19.7079 Y9.8440
G01 X19.6099 Y9.7040
G01 X19.5376 Y9.5491
G01 X19.4934 Y9.3840
G01 X19.4785 Y9.2138
G01 X19.4934 Y9.0435
G01 X19.5376 Y8.8784
G01 X19.6099 Y8.7235
G01 X19.7079 Y8.5835
G01 X19.8321 Y8.4593
G00 Z2.0000
G00 X19.5934 Y8.4874
G01 F30.00
G01 Z-0.0900
G01 F60.00
G01 X19.7327 Y8.3480
G01 X19.7427 Y8.3398
G01 X19.7485 Y8.3342
G01 X19.7525 Y8.3296
G01 X19.7573 Y8.3230
G01 X19.7604 Y8.3178
G01 X19.7635 Y8.3116
G01 X19.7954 Y8.2701
G01 X19.7995 Y8.2631
G01 X19.8037 Y8.2539
G01 X19.8067 Y8.2442
G01 X19.8083 Y8.2363
G01 X19.8140 Y8.1594
G01 X19.8139 Y8.1471
G01 X19.8132 Y8.1410
G01 X19.8116 Y8.1330
G01 X19.8091 Y8.1251
G01 X19.8068 Y8.1194
G01 X19.7811 Y8.0718
G01 X19.7774 Y8.0623
G01 X19.7727 Y8.0533
G01 X19.7668 Y8.0450
G01 X19.7584 Y8.0353
G01 X19.6454 Y7.8738
G01 X19.5621 Y7.6953
G01 X19.5111 Y7.5050
G01 X19.4940 Y7.3088
G01 X19.5111 Y7.1125
G01 X19.5621 Y6.9223
G01 X19.6454 Y6.7437
G01 X19.7584 Y6.5824
G01 X19.8976 Y6.4431
G01 X20.0590 Y6.3301
G01 X20.2375 Y6.2469
G01 X20.4278 Y6.1959
G01 X20.6240 Y6.1787
G01 X20.8203 Y6.1959
G01 X21.0105 Y6.2469
G01 X21.1891 Y6.3301
G01 X21.3504 Y6.4431
G01 X21.4897 Y6.5824
G01 X21.6027 Y6.7438
G01 X21.6505 Y6.8462
G01 X21.6859 Y6.9223
G01 X21.7369 Y7.1125
G01 X21.7541 Y7.3088
G01 X21.7369 Y7.5050
G01 X21.6993 Y7.6453
G01 X21.6859 Y7.6953
G01 X21.6027 Y7.8738
G01 X21.4897 Y8.0352
G01 X21.3503 Y8.1745
G01 X21.3388 Y8.1841
G01 X21.3305 Y8.1930
G01 X21.3247 Y8.2013
G01 X21.3196 Y8.2109
G01 X21.2912 Y8.2476
G01 X21.2855 Y8.2559
G01 X21.2826 Y8.2613
G01 X21.2794 Y8.2687
G01 X21.2769 Y8.2764
G01 X21.2751 Y8.2843
G01 X21.2741 Y8.2923
G01 X21.2689 Y8.3693
G01 X21.2693 Y8.3775
G01 X21.2705 Y8.3856
G01 X21.2732 Y8.3955
G01 X21.2762 Y8.4031
G01 X21.3020 Y8.4507
G01 X21.3056 Y8.4603
G01 X21.3115 Y8.4709
G01 X21.3162 Y8.4775
G01 X21.3246 Y8.4873
G01 X21.4377 Y8.6488
G01 X21.5209 Y8.8273
G01 X21.5719 Y9.0175
G01 X21.5891 Y9.2138
G01 X21.5719 Y9.4100
G01 X21.5209 Y9.6003
G01 X21.4377 Y9.7788
G01 X21.3247 Y9.9402
G01 X21.1854 Y10.0794
G01 X21.0240 Y10.1924
G01 X20.8455 Y10.2757
G01 X20.6553 Y10.3267
G01 X20.4590 Y10.3438
G01 X20.2628 Y10.3267
G01 X20.0725 Y10.2757
G01 X19.8940 Y10.1924
G01 X19.7326 Y10.0794
G01 X19.5934 Y9.9402
G01 X19.4804 Y9.7788
G01 X19.3971 Y9.6003
G01 X19.3461 Y9.4100
G01 X19.3290 Y9.2138
G01 X19.3461 Y9.0175
G01 X19.3971 Y8.8273
G01 X19.4804 Y8.6487
G01 X19.5934 Y8.4874
G00 Z2.0000
G00 X20.3024 Y9.9806
G01 F30.00
G01 Z-0.0900
G01 F60.00
G01 X20.2318 Y9.9628
G01 X20.1595 Y9.9369
G01 X20.0900 Y9.9041
G01 X20.0242 Y9.8646
G01 X19.9625 Y9.8188
G01 X19.9055 Y9.7673
G01 X19.8540 Y9.7103
G01 X19.8082 Y9.6486
G01 X19.7687 Y9.5828
G01 X19.7359 Y9.5133
G01 X19.7100 Y9.4410
G01 X19.6913 Y9.3665
G01 X19.6800 Y9.2905
G01 X19.6763 Y9.2138
G01 X19.6800 Y9.1371
G01 X19.6913 Y9.0611
G01 X19.7100 Y8.9866
G01 X19.7359 Y8.9142
G01 X19.7687 Y8.8448
G01 X19.8082 Y8.7789
G01 X19.8540 Y8.7172
G01 X19.9055 Y8.6603
G01 X19.9625 Y8.6087
G01 X20.0242 Y8.5629
G01 X20.0900 Y8.5235
G01 X20.1595 Y8.4906
G01 X20.2318 Y8.4647
G01 X20.3063 Y8.4461
G01 X20.3823 Y8.4348
G01 X20.4590 Y8.4310
G01 X20.5357 Y8.4348
G01 X20.6117 Y8.4461
G01 X20.6862 Y8.4647
G01 X20.7586 Y8.4906
G01 X20.8280 Y8.5235
G01 X20.8939 Y8.5629
G01 X20.9556 Y8.6087
G01 X21.0125 Y8.6603
G01 X21.0641 Y8.7172
G01 X21.1099 Y8.7789
G01 X21.1493 Y8.8448
G01 X21.1822 Y8.9142
G01 X21.2081 Y8.9866
G01 X21.2267 Y9.0611
G01 X21.2380 Y9.1371
G01 X21.2418 Y9.2138
G01 X21.2380 Y9.2905
G01 X21.2267 Y9.3665
G01 X21.2081 Y9.4410
G01 X21.1822 Y9.5133
G01 X21.1493 Y9.5828
G01 X21.1099 Y9.6486
G01 X21.0641 Y9.7103
G01 X21.0125 Y9.7673
G01 X20.9556 Y9.8188
G01 X20.8939 Y9.8646
G01 X20.8280 Y9.9041
G01 X20.7586 Y9.9369
G01 X20.6862 Y9.9628
G01 X20.6117 Y9.9815
G01 X20.5357 Y9.9928
G01 X20.4590 Y9.9965
G01 X20.3823 Y9.9928
G01 X20.3103 Y9.9822
G01 X20.3024 Y9.9806
G00 Z2.0000
G00 X20.2662 Y10.1251
G01 F30.00
G01 Z-0.0900
G01 F60.00
G01 X20.1886 Y10.1054
G01 X20.1131 Y10.0786
G01 X20.1025 Y10.0746
G01 X20.0921 Y10.0699
G01 X20.0198 Y10.0355
G01 X19.9510 Y9.9945
G01 X19.9414 Y9.9885
G01 X19.9321 Y9.9819
G01 X19.8680 Y9.9340
G01 X19.8085 Y9.8804
G01 X19.8002 Y9.8726
G01 X19.7924 Y9.8643
G01 X19.7388 Y9.8048
G01 X19.6909 Y9.7407
G01 X19.6843 Y9.7314
G01 X19.6783 Y9.7218
G01 X19.6373 Y9.6530
G01 X19.6029 Y9.5807
G01 X19.5982 Y9.5703
G01 X19.5942 Y9.5597
G01 X19.5674 Y9.4842
G01 X19.5477 Y9.4066
G01 X19.5452 Y9.3955
G01 X19.5433 Y9.3843
G01 X19.5318 Y9.3051
G01 X19.5310 Y9.2938
G01 X19.5273 Y9.2138
G01 X19.5310 Y9.1338
G01 X19.5318 Y9.1225
G01 X19.5433 Y9.0432
G01 X19.5452 Y9.0320
G01 X19.5477 Y9.0209
G01 X19.5674 Y8.9433
G01 X19.5942 Y8.8678
G01 X19.5982 Y8.8572
G01 X19.6322 Y8.7847
G01 X19.6373 Y8.7746
G01 X19.6429 Y8.7647
G01 X19.6843 Y8.6962
G01 X19.7318 Y8.6317
G01 X19.7388 Y8.6227
G01 X19.7924 Y8.5632
G01 X19.8002 Y8.5550
G01 X19.8085 Y8.5471
G01 X19.8680 Y8.4936
G01 X19.9321 Y8.4456
G01 X19.9414 Y8.4391
G01 X19.9510 Y8.4330
G01 X20.0198 Y8.3921
G01 X20.0300 Y8.3870
G01 X20.1025 Y8.3530
G01 X20.1778 Y8.3258
G01 X20.1886 Y8.3222
G01 X20.2662 Y8.3025
G01 X20.2773 Y8.3000
G01 X20.2885 Y8.2980
G01 X20.3677 Y8.2866
G01 X20.4477 Y8.2824
G01 X20.4590 Y8.2821
G01 X20.4704 Y8.2824
G01 X20.5503 Y8.2866
G01 X20.6296 Y8.2980
G01 X20.6408 Y8.3000
G01 X20.6519 Y8.3025
G01 X20.7295 Y8.3222
G01 X20.8050 Y8.3489
G01 X20.8156 Y8.3530
G01 X20.8260 Y8.3576
G01 X20.8982 Y8.3921
G01 X20.9670 Y8.4330
G01 X20.9766 Y8.4391
G01 X20.9859 Y8.4456
G01 X21.0501 Y8.4936
G01 X21.1096 Y8.5471
G01 X21.1178 Y8.5550
G01 X21.1257 Y8.5632
G01 X21.1792 Y8.6227
G01 X21.2272 Y8.6869
G01 X21.2337 Y8.6962
G01 X21.2398 Y8.7058
G01 X21.2807 Y8.7746
G01 X21.3152 Y8.8468
G01 X21.3198 Y8.8572
G01 X21.3239 Y8.8678
G01 X21.3506 Y8.9433
G01 X21.3703 Y9.0209
G01 X21.3728 Y9.0320
G01 X21.3748 Y9.0432
G01 X21.3862 Y9.1225
G01 X21.3871 Y9.1338
G01 X21.3907 Y9.2138
G01 X21.3871 Y9.2938
G01 X21.3862 Y9.3051
G01 X21.3748 Y9.3843
G01 X21.3728 Y9.3955
G01 X21.3703 Y9.4066
G01 X21.3506 Y9.4842
G01 X21.3239 Y9.5597
G01 X21.3198 Y9.5703
G01 X21.2858 Y9.6428
G01 X21.2807 Y9.6530
G01 X21.2751 Y9.6629
G01 X21.2337 Y9.7314
G01 X21.1862 Y9.7959
G01 X21.1792 Y9.8048
G01 X21.1257 Y9.8643
G01 X21.1178 Y9.8726
G01 X21.1096 Y9.8804
G01 X21.0501 Y9.9340
G01 X20.9859 Y9.9819
G01 X20.9766 Y9.9885
G01 X20.9670 Y9.9945
G01 X20.8982 Y10.0355
G01 X20.8881 Y10.0406
G01 X20.8156 Y10.0746
G01 X20.7403 Y10.1018
G01 X20.7295 Y10.1054
G01 X20.6519 Y10.1251
G01 X20.6408 Y10.1276
G01 X20.6296 Y10.1295
G01 X20.5503 Y10.1410
G01 X20.4704 Y10.1452
G01 X20.4590 Y10.1455
G01 X20.4477 Y10.1452
G01 X20.3677 Y10.1410
G01 X20.2885 Y10.1295
G01 X20.2773 Y10.1276
G01 X20.2662 Y10.1251
G00 Z2.0000
G00 X24.6530 Y12.3412
G01 F30.00
G01 Z-0.0900
G01 F60.00
G01 X24.6419 Y12.3647
G01 X24.6319 Y12.3887
G01 X24.6232 Y12.4131
G01 X24.6156 Y12.4380
G01 X24.6123 Y12.4506
G01 X24.6093 Y12.4632
G01 X24.6042 Y12.4887
G01 X24.6004 Y12.5144
G01 X24.5979 Y12.5403
G01 X24.5966 Y12.5663
G01 X24.5964 Y14.1846
G01 X24.5803 Y14.1854
G01 X24.5541 Y14.1879
G01 X24.4940 Y14.1963
G01 X24.4940 Y12.3218
G01 X24.6633 Y12.3218
G01 X24.6530 Y12.3412
G00 Z2.0000
G00 X25.1073 Y12.1991
G01 F30.00
G01 Z-0.0900
G01 F60.00
G01 X25.0794 Y12.2015
G01 X25.0609 Y12.2042
G01 X25.0426 Y12.2079
G01 X25.0155 Y12.2150
G01 X24.9978 Y12.2209
G01 X24.9804 Y12.2276
G01 X24.9549 Y12.2393
G01 X24.9384 Y12.2481
G01 X24.9224 Y12.2577
G01 X24.8993 Y12.2735
G01 X24.8845 Y12.2850
G01 X24.8704 Y12.2972
G01 X24.8503 Y12.3168
G01 X24.8378 Y12.3306
G01 X24.8259 Y12.3451
G01 X24.8148 Y12.3601
G01 X24.8044 Y12.3756
G01 X24.7903 Y12.3998
G01 X24.7780 Y12.4250
G01 X24.7709 Y12.4423
G01 X24.7646 Y12.4599
G01 X24.7568 Y12.4868
G01 X24.7510 Y12.5142
G01 X24.7482 Y12.5327
G01 X24.7464 Y12.5513
G01 X24.7454 Y12.5793
G01 X24.7454 Y14.3556
G01 X24.7214 Y14.3479
G01 X24.7031 Y14.3431
G01 X24.6753 Y14.3377
G01 X24.6566 Y14.3352
G01 X24.6377 Y14.3337
G01 X24.6094 Y14.3332
G01 X24.5905 Y14.3340
G01 X24.5717 Y14.3358
G01 X24.4827 Y14.3486
G01 X24.4641 Y14.3522
G01 X24.4458 Y14.3567
G01 X24.4187 Y14.3652
G01 X24.3924 Y14.3757
G01 X24.3669 Y14.3881
G01 X24.3451 Y14.4007
G01 X24.3451 Y12.2430
G01 X24.4152 Y12.1728
G01 X25.4605 Y12.1728
G01 X25.5148 Y12.1986
G01 X25.1260 Y12.1986
G01 X25.1073 Y12.1991
G00 Z2.0000
G00 X26.9056 Y12.1175
G01 F30.00
G01 Z-0.0900
G01 F60.00
G01 X26.9145 Y12.1444
G01 X26.9346 Y12.1986
G01 X26.7372 Y12.1986
G01 X26.7853 Y12.1759
G01 X26.8020 Y12.1675
G01 X26.8182 Y12.1583
G01 X26.9029 Y12.1075
G01 X26.9056 Y12.1175
G00 Z2.0000
G00 X26.6249 Y9.7050
G01 F30.00
G01 Z-0.0900
G01 F60.00
G01 X26.6257 Y9.7265
G01 X26.6268 Y9.7392
G01 X26.5779 Y9.7218
G01 X26.6249 Y9.7050
G00 Z2.0000
G00 X25.3834 Y9.7961
G01 F30.00
G01 Z-0.0900
G01 F60.00
G01 X25.3972 Y9.7713
G01 X25.4053 Y9.7543
G01 X25.4126 Y9.7368
G01 X25.4219 Y9.7100
G01 X25.4270 Y9.6918
G01 X25.4329 Y9.6641
G01 X25.4357 Y9.6454
G01 X25.4379 Y9.6207
G01 X25.4501 Y9.6275
G01 X25.4668 Y9.6359
G01 X25.5513 Y9.6759
G01 X25.5684 Y9.6834
G01 X25.5858 Y9.6902
G01 X25.6741 Y9.7218
G01 X25.5858 Y9.7534
G01 X25.5684 Y9.7601
G01 X25.5513 Y9.7677
G01 X25.4605 Y9.8107
G01 X25.3740 Y9.8107
G01 X25.3834 Y9.7961
G00 Z2.0000
G00 X24.9281 Y7.6853
G01 F30.00
G01 Z-0.0900
G01 F60.00
G01 X25.0664 Y7.5103
G01 X25.0687 Y7.5077
G01 X25.2337 Y7.3576
G01 X25.2365 Y7.3555
G01 X25.4238 Y7.2343
G01 X25.4268 Y7.2327
G01 X25.6314 Y7.1438
G01 X25.6347 Y7.1426
G01 X25.7893 Y7.1038
G01 X25.7893 Y7.4582
G01 X25.7742 Y7.4624
G01 X25.6824 Y7.4953
G01 X25.5941 Y7.5369
G01 X25.5870 Y7.5408
G01 X25.5034 Y7.5910
G01 X25.4250 Y7.6490
G01 X25.4187 Y7.6542
G01 X25.3479 Y7.7183
G01 X25.2783 Y7.7950
G01 X25.2166 Y7.8783
G01 X25.1646 Y7.9656
G01 X25.1221 Y8.0556
G01 X25.1007 Y8.1150
G01 X24.7390 Y8.1150
G01 X24.7425 Y8.0970
G01 X24.8170 Y7.8867
G01 X24.8184 Y7.8835
G01 X24.9262 Y7.6883
G01 X24.9281 Y7.6853
G00 Z2.0000
G00 X25.6403 Y7.3023
G01 F30.00
G01 Z-0.0900
G01 F60.00
G01 X25.6403 Y7.3521
G01 X25.6254 Y7.3577
G01 X25.6150 Y7.3623
G01 X25.5203 Y7.4074
G01 X25.4302 Y7.4611
G01 X25.4206 Y7.4671
G01 X25.4113 Y7.4737
G01 X25.3273 Y7.5364
G01 X25.3187 Y7.5438
G01 X25.2452 Y7.6104
G01 X25.2333 Y7.6227
G01 X25.1631 Y7.7005
G01 X25.1561 Y7.7095
G01 X25.0971 Y7.7892
G01 X25.0878 Y7.8035
G01 X25.0369 Y7.8886
G01 X25.0290 Y7.9037
G01 X24.9995 Y7.9661
G01 X24.9469 Y7.9661
G01 X24.9539 Y7.9463
G01 X25.0515 Y7.7694
G01 X25.1767 Y7.6109
G01 X25.3262 Y7.4749
G01 X25.4959 Y7.3651
G01 X25.6403 Y7.3023
G00 Z2.0000
G00 X27.0421 Y7.3764
G01 F30.00
G01 Z-0.0900
G01 F60.00
G01 X27.0448 Y7.3786
G01 X27.2061 Y7.5327
G01 X27.2084 Y7.5353
G01 X27.3423 Y7.7137
G01 X27.3442 Y7.7167
G01 X27.4472 Y7.9145
G01 X27.4485 Y7.9177
G01 X27.5130 Y8.1150
G01 X27.1513 Y8.1150
G01 X27.1300 Y8.0556
G01 X27.0875 Y7.9656
G01 X27.0354 Y7.8783
G01 X26.9738 Y7.7950
G01 X26.9041 Y7.7183
G01 X26.8334 Y7.6542
G01 X26.8271 Y7.6490
G01 X26.7487 Y7.5910
G01 X26.6651 Y7.5408
G01 X26.6579 Y7.5369
G01 X26.5697 Y7.4953
G01 X26.4779 Y7.4624
G01 X26.4628 Y7.4582
G01 X26.4628 Y7.1022
G01 X26.6492 Y7.1539
G01 X26.6525 Y7.1551
G01 X26.8548 Y7.2490
G01 X26.8578 Y7.2507
G01 X27.0421 Y7.3764
G00 Z2.0000
G00 X27.2525 Y7.9661
G01 F30.00
G01 Z-0.0900
G01 F60.00
G01 X27.2179 Y7.8935
G01 X27.1642 Y7.8035
G01 X27.1582 Y7.7939
G01 X27.1516 Y7.7846
G01 X27.0889 Y7.7005
G01 X27.0815 Y7.6919
G01 X27.0149 Y7.6185
G01 X27.0026 Y7.6066
G01 X26.9248 Y7.5364
G01 X26.8407 Y7.4737
G01 X26.8314 Y7.4671
G01 X26.7416 Y7.4130
G01 X26.7318 Y7.4074
G01 X26.6371 Y7.3623
G01 X26.6267 Y7.3577
G01 X26.6117 Y7.3521
G01 X26.6117 Y7.3004
G01 X26.7826 Y7.3797
G01 X26.9495 Y7.4935
G01 X27.0956 Y7.6331
G01 X27.2169 Y7.7947
G01 X27.3061 Y7.9661
G01 X27.2525 Y7.9661
G00 Z2.0000
G00 X27.1362 Y14.5664
G01 F30.00
G01 Z-0.0900
G01 F60.00
G01 X27.1260 Y14.5670
G01 X25.1260 Y14.5670
G01 X25.1179 Y14.5666
G01 X25.1099 Y14.5654
G01 X25.1020 Y14.5635
G01 X25.0944 Y14.5607
G01 X25.0870 Y14.5573
G01 X25.0801 Y14.5531
G01 X25.0735 Y14.5482
G01 X25.0675 Y14.5428
G01 X25.0621 Y14.5368
G01 X25.0572 Y14.5302
G01 X25.0530 Y14.5233
G01 X25.0496 Y14.5159
G01 X25.0468 Y14.5083
G01 X25.0449 Y14.5004
G01 X25.0437 Y14.4924
G01 X25.0433 Y14.4843
G01 X25.0433 Y12.5772
G01 X25.0439 Y12.5691
G01 X25.0453 Y12.5611
G01 X25.0475 Y12.5533
G01 X25.0504 Y12.5457
G01 X25.0540 Y12.5385
G01 X25.0572 Y12.5333
G01 X25.0621 Y12.5268
G01 X25.0675 Y12.5208
G01 X25.0735 Y12.5153
G01 X25.0801 Y12.5105
G01 X25.0870 Y12.5063
G01 X25.0944 Y12.5028
G01 X25.1020 Y12.5001
G01 X25.1099 Y12.4981
G01 X25.1179 Y12.4969
G01 X25.1260 Y12.4965
G01 X27.1260 Y12.4965
G01 X27.1341 Y12.4969
G01 X27.1422 Y12.4981
G01 X27.1500 Y12.5001
G01 X27.1577 Y12.5028
G01 X27.1650 Y12.5063
G01 X27.1720 Y12.5105
G01 X27.1785 Y12.5153
G01 X27.1845 Y12.5208
G01 X27.1900 Y12.5268
G01 X27.1937 Y12.5316
G01 X27.1980 Y12.5385
G01 X27.2017 Y12.5457
G01 X27.2046 Y12.5533
G01 X27.2068 Y12.5611
G01 X27.2082 Y12.5691
G01 X27.2087 Y12.5772
G01 X27.2087 Y14.4863
G01 X27.2084 Y14.4924
G01 X27.2072 Y14.5004
G01 X27.2058 Y14.5063
G01 X27.2032 Y14.5141
G01 X27.1999 Y14.5215
G01 X27.1959 Y14.5285
G01 X27.1925 Y14.5336
G01 X27.1873 Y14.5398
G01 X27.1816 Y14.5456
G01 X27.1753 Y14.5507
G01 X27.1703 Y14.5542
G01 X27.1632 Y14.5582
G01 X27.1558 Y14.5615
G01 X27.1500 Y14.5635
G01 X27.1422 Y14.5654
G01 X27.1362 Y14.5664
G00 Z2.0000
G00 X27.1544 Y14.7142
G01 F30.00
G01 Z-0.0900
G01 F60.00
G01 X27.1374 Y14.7157
G01 X27.1260 Y14.7160
G01 X25.1203 Y14.7159
G01 X25.1090 Y14.7153
G01 X25.0977 Y14.7142
G01 X25.0864 Y14.7126
G01 X25.0753 Y14.7103
G01 X25.0642 Y14.7076
G01 X25.0533 Y14.7043
G01 X25.0426 Y14.7004
G01 X25.0321 Y14.6961
G01 X25.0219 Y14.6912
G01 X25.0118 Y14.6859
G01 X25.0021 Y14.6800
G01 X24.9926 Y14.6737
G01 X24.9835 Y14.6669
G01 X24.9747 Y14.6597
G01 X24.9663 Y14.6521
G01 X24.9582 Y14.6440
G01 X24.9469 Y14.6313
G01 X24.9399 Y14.6223
G01 X24.9334 Y14.6130
G01 X24.9273 Y14.6034
G01 X24.9217 Y14.5935
G01 X24.9166 Y14.5833
G01 X24.9120 Y14.5729
G01 X24.9079 Y14.5623
G01 X24.9043 Y14.5515
G01 X24.9013 Y14.5406
G01 X24.8988 Y14.5295
G01 X24.8968 Y14.5183
G01 X24.8954 Y14.5070
G01 X24.8944 Y14.4900
G01 X24.8943 Y12.5793
G01 X24.8946 Y12.5679
G01 X24.8954 Y12.5566
G01 X24.8968 Y12.5453
G01 X24.8988 Y12.5341
G01 X24.9013 Y12.5230
G01 X24.9043 Y12.5120
G01 X24.9099 Y12.4959
G01 X24.9142 Y12.4854
G01 X24.9191 Y12.4751
G01 X24.9244 Y12.4651
G01 X24.9303 Y12.4553
G01 X24.9366 Y12.4459
G01 X24.9434 Y12.4367
G01 X24.9506 Y12.4279
G01 X24.9582 Y12.4195
G01 X24.9663 Y12.4115
G01 X24.9747 Y12.4038
G01 X24.9835 Y12.3966
G01 X24.9926 Y12.3898
G01 X25.0021 Y12.3835
G01 X25.0168 Y12.3749
G01 X25.0270 Y12.3698
G01 X25.0374 Y12.3652
G01 X25.0533 Y12.3593
G01 X25.0642 Y12.3560
G01 X25.0753 Y12.3532
G01 X25.0864 Y12.3510
G01 X25.0977 Y12.3493
G01 X25.1090 Y12.3482
G01 X25.1203 Y12.3476
G01 X27.1260 Y12.3476
G01 X27.1374 Y12.3479
G01 X27.1544 Y12.3493
G01 X27.1656 Y12.3510
G01 X27.1768 Y12.3532
G01 X27.1878 Y12.3560
G01 X27.1987 Y12.3593
G01 X27.2094 Y12.3631
G01 X27.2199 Y12.3675
G01 X27.2302 Y12.3723
G01 X27.2402 Y12.3777
G01 X27.2500 Y12.3835
G01 X27.2594 Y12.3898
G01 X27.2686 Y12.3966
G01 X27.2774 Y12.4038
G01 X27.2858 Y12.4115
G01 X27.2938 Y12.4195
G01 X27.3015 Y12.4279
G01 X27.3087 Y12.4367
G01 X27.3155 Y12.4459
G01 X27.3218 Y12.4553
G01 X27.3276 Y12.4651
G01 X27.3330 Y12.4751
G01 X27.3401 Y12.4906
G01 X27.3442 Y12.5012
G01 X27.3477 Y12.5120
G01 X27.3508 Y12.5230
G01 X27.3533 Y12.5341
G01 X27.3560 Y12.5509
G01 X27.3571 Y12.5622
G01 X27.3577 Y12.5736
G01 X27.3577 Y14.4843
G01 X27.3574 Y14.4956
G01 X27.3566 Y14.5070
G01 X27.3552 Y14.5183
G01 X27.3521 Y14.5350
G01 X27.3493 Y14.5461
G01 X27.3460 Y14.5570
G01 X27.3401 Y14.5729
G01 X27.3330 Y14.5884
G01 X27.3276 Y14.5985
G01 X27.3218 Y14.6082
G01 X27.3155 Y14.6177
G01 X27.3087 Y14.6268
G01 X27.2977 Y14.6399
G01 X27.2899 Y14.6481
G01 X27.2816 Y14.6560
G01 X27.2686 Y14.6669
G01 X27.2594 Y14.6737
G01 X27.2500 Y14.6800
G01 X27.2402 Y14.6859
G01 X27.2302 Y14.6912
G01 X27.2199 Y14.6961
G01 X27.2094 Y14.7004
G01 X27.1933 Y14.7060
G01 X27.1768 Y14.7103
G01 X27.1656 Y14.7126
G01 X27.1544 Y14.7142
G00 Z2.0000
G00 X29.0261 Y16.5627
G01 F30.00
G01 Z-0.0900
G01 F60.00
G01 X29.0443 Y16.5577
G01 X29.0623 Y16.5518
G01 X29.0886 Y16.5413
G01 X29.1057 Y16.5332
G01 X29.1224 Y16.5243
G01 X29.1386 Y16.5146
G01 X29.1543 Y16.5041
G01 X29.1768 Y16.4869
G01 X29.2448 Y16.4280
G01 X29.2650 Y16.4082
G01 X29.2777 Y16.3941
G01 X29.2896 Y16.3795
G01 X29.3061 Y16.3564
G01 X29.3161 Y16.3404
G01 X29.3253 Y16.3239
G01 X29.3376 Y16.2983
G01 X29.3479 Y16.2719
G01 X29.3537 Y16.2539
G01 X29.3737 Y16.1858
G01 X29.3804 Y16.1594
G01 X29.3838 Y16.1416
G01 X29.3864 Y16.1237
G01 X29.3881 Y16.1057
G01 X29.3890 Y16.0876
G01 X29.3891 Y5.2764
G01 X49.7098 Y5.2764
G01 X49.7098 Y16.7071
G01 X30.0041 Y16.7074
G01 X29.9857 Y16.7081
G01 X29.9670 Y16.7097
G01 X29.9391 Y16.7139
G01 X29.9207 Y16.7178
G01 X29.9025 Y16.7226
G01 X29.8757 Y16.7314
G01 X29.8004 Y16.7597
G01 X29.7745 Y16.7712
G01 X29.7577 Y16.7800
G01 X29.7414 Y16.7895
G01 X29.7256 Y16.7999
G01 X29.7029 Y16.8169
G01 X29.6885 Y16.8291
G01 X29.6747 Y16.8421
G01 X29.6616 Y16.8557
G01 X29.6492 Y16.8699
G01 X29.6375 Y16.8848
G01 X29.5949 Y16.9416
G01 X29.5788 Y16.9649
G01 X29.5690 Y16.9811
G01 X29.5601 Y16.9978
G01 X29.5482 Y17.0235
G01 X29.5383 Y17.0501
G01 X29.5328 Y17.0682
G01 X29.5289 Y17.0834
G01 X29.0115 Y16.5659
G01 X29.0261 Y16.5627
G00 Z2.0000
G00 X29.2816 Y16.5934
G01 F30.00
G01 Z-0.0900
G01 F60.00
G01 X29.3353 Y16.5469
G01 X29.3547 Y16.5292
G01 X29.3732 Y16.5105
G01 X29.3908 Y16.4910
G01 X29.4074 Y16.4706
G01 X29.4154 Y16.4600
G01 X29.4304 Y16.4385
G01 X29.4443 Y16.4162
G01 X29.4509 Y16.4048
G01 X29.4631 Y16.3815
G01 X29.4742 Y16.3576
G01 X29.4841 Y16.3332
G01 X29.4886 Y16.3209
G01 X29.4966 Y16.2958
G01 X29.5200 Y16.2156
G01 X29.5259 Y16.1911
G01 X29.5285 Y16.1787
G01 X29.5327 Y16.1539
G01 X29.5357 Y16.1289
G01 X29.5374 Y16.1037
G01 X29.5379 Y16.0911
G01 X29.5380 Y5.4254
G01 X49.5609 Y5.4254
G01 X49.5608 Y16.5582
G01 X30.0177 Y16.5582
G01 X29.9988 Y16.5585
G01 X29.9767 Y16.5595
G01 X29.9507 Y16.5617
G01 X29.9377 Y16.5633
G01 X29.9118 Y16.5674
G01 X29.8862 Y16.5729
G01 X29.8735 Y16.5760
G01 X29.8484 Y16.5833
G01 X29.8360 Y16.5875
G01 X29.7571 Y16.6167
G01 X29.7449 Y16.6214
G01 X29.7207 Y16.6319
G01 X29.6971 Y16.6434
G01 X29.6855 Y16.6497
G01 X29.6628 Y16.6630
G01 X29.6408 Y16.6774
G01 X29.6196 Y16.6929
G01 X29.6093 Y16.7011
G01 X29.5991 Y16.7095
G01 X29.5795 Y16.7270
G01 X29.5701 Y16.7361
G01 X29.5518 Y16.7550
G01 X29.5345 Y16.7749
G01 X29.5182 Y16.7955
G01 X29.4897 Y16.8336
G01 X29.2640 Y16.6079
G01 X29.2816 Y16.5934
G00 Z2.0000
G00 X27.5550 Y21.3190
G01 F30.00
G01 Z-0.0900
G01 F60.00
G01 X27.7648 Y21.3374
G01 X27.7685 Y21.3380
G01 X27.9720 Y21.3925
G01 X27.9755 Y21.3938
G01 X28.1503 Y21.4753
G01 X27.8920 Y21.7337
G01 X27.8094 Y21.7040
G01 X27.7253 Y21.6830
G01 X27.6396 Y21.6703
G01 X27.5531 Y21.6660
G01 X27.4666 Y21.6703
G01 X27.3809 Y21.6830
G01 X27.2969 Y21.7040
G01 X27.2143 Y21.7337
G01 X26.9559 Y21.4753
G01 X27.1308 Y21.3938
G01 X27.1343 Y21.3925
G01 X27.3377 Y21.3380
G01 X27.3414 Y21.3374
G01 X27.5513 Y21.3190
G01 X27.5550 Y21.3190
G00 Z2.0000
G00 X27.8526 Y21.5615
G01 F30.00
G01 Z-0.0900
G01 F60.00
G01 X27.7655 Y21.5394
G01 X27.7544 Y21.5369
G01 X27.7432 Y21.5350
G01 X27.6542 Y21.5220
G01 X27.5645 Y21.5174
G01 X27.5531 Y21.5171
G01 X27.5417 Y21.5174
G01 X27.4520 Y21.5220
G01 X27.3630 Y21.5350
G01 X27.3518 Y21.5369
G01 X27.3407 Y21.5394
G01 X27.2646 Y21.5585
G01 X27.2529 Y21.5617
G01 X27.2161 Y21.5248
G01 X27.3655 Y21.4848
G01 X27.5531 Y21.4684
G01 X27.7407 Y21.4848
G01 X27.8902 Y21.5248
G01 X27.8533 Y21.5617
G01 X27.8526 Y21.5615
G00 Z2.0000
G00 X28.3979 Y22.8050
G01 F30.00
G01 Z-0.0900
G01 F60.00
G01 X28.4189 Y22.7210
G01 X28.4316 Y22.6353
G01 X28.4359 Y22.5488
G01 X28.4319 Y22.4663
G01 X28.4311 Y22.4582
G01 X28.4196 Y22.3806
G01 X28.4180 Y22.3726
G01 X28.3979 Y22.2925
G01 X28.3682 Y22.2099
G01 X28.6266 Y21.9516
G01 X28.7081 Y22.1264
G01 X28.7094 Y22.1299
G01 X28.7639 Y22.3334
G01 X28.7645 Y22.3371
G01 X28.7829 Y22.5469
G01 X28.7829 Y22.5506
G01 X28.7645 Y22.7605
G01 X28.7639 Y22.7642
G01 X28.7094 Y22.9676
G01 X28.7081 Y22.9711
G01 X28.6266 Y23.1460
G01 X28.3682 Y22.8876
G01 X28.3979 Y22.8050
G00 Z2.0000
G00 X28.5650 Y22.7500
G01 F30.00
G01 Z-0.0900
G01 F60.00
G01 X28.5785 Y22.6612
G01 X28.5799 Y22.6499
G01 X28.5807 Y22.6386
G01 X28.5848 Y22.5488
G01 X28.5807 Y22.4590
G01 X28.5799 Y22.4477
G01 X28.5785 Y22.4364
G01 X28.5650 Y22.3475
G01 X28.5434 Y22.2602
G01 X28.5402 Y22.2486
G01 X28.5771 Y22.2117
G01 X28.6171 Y22.3612
G01 X28.6335 Y22.5488
G01 X28.6171 Y22.7364
G01 X28.5771 Y22.8858
G01 X28.5402 Y22.8489
G01 X28.5434 Y22.8373
G01 X28.5650 Y22.7500
G00 Z2.0000
G00 X27.2949 Y23.3929
G01 F30.00
G01 Z-0.0900
G01 F60.00
G01 X27.3809 Y23.4146
G01 X27.4626 Y23.4268
G01 X27.4706 Y23.4276
G01 X27.5491 Y23.4314
G01 X27.5572 Y23.4314
G01 X27.6396 Y23.4273
G01 X27.7253 Y23.4146
G01 X27.8094 Y23.3935
G01 X27.8920 Y23.3639
G01 X28.1503 Y23.6222
G01 X27.9755 Y23.7037
G01 X27.9720 Y23.7050
G01 X27.7685 Y23.7595
G01 X27.7648 Y23.7602
G01 X27.5550 Y23.7785
G01 X27.5513 Y23.7785
G01 X27.3414 Y23.7602
G01 X27.3377 Y23.7595
G01 X27.1343 Y23.7050
G01 X27.1308 Y23.7037
G01 X26.9559 Y23.6222
G01 X27.2143 Y23.3639
G01 X27.2949 Y23.3929
G00 Z2.0000
G00 X27.3463 Y23.5595
G01 F30.00
G01 Z-0.0900
G01 F60.00
G01 X27.3630 Y23.5626
G01 X27.4520 Y23.5755
G01 X27.5417 Y23.5802
G01 X27.5531 Y23.5805
G01 X27.5645 Y23.5802
G01 X27.6542 Y23.5755
G01 X27.7432 Y23.5626
G01 X27.7544 Y23.5607
G01 X27.7655 Y23.5582
G01 X27.8416 Y23.5391
G01 X27.8533 Y23.5358
G01 X27.8902 Y23.5727
G01 X27.7407 Y23.6128
G01 X27.5531 Y23.6292
G01 X27.3655 Y23.6128
G01 X27.2161 Y23.5727
G01 X27.2529 Y23.5358
G01 X27.2646 Y23.5391
G01 X27.3463 Y23.5595
G00 Z2.0000
G00 X26.5424 Y22.3419
G01 F30.00
G01 Z-0.0900
G01 F60.00
G01 X26.5393 Y22.3587
G01 X26.5264 Y22.4477
G01 X26.5217 Y22.5374
G01 X26.5214 Y22.5488
G01 X26.5217 Y22.5601
G01 X26.5264 Y22.6499
G01 X26.5393 Y22.7388
G01 X26.5412 Y22.7500
G01 X26.5437 Y22.7611
G01 X26.5628 Y22.8373
G01 X26.5661 Y22.8489
G01 X26.5292 Y22.8858
G01 X26.4891 Y22.7364
G01 X26.4727 Y22.5488
G01 X26.4891 Y22.3612
G01 X26.5292 Y22.2117
G01 X26.5661 Y22.2486
G01 X26.5628 Y22.2602
G01 X26.5424 Y22.3419
G00 Z2.0000
G00 X26.4797 Y21.9516
G01 F30.00
G01 Z-0.0900
G01 F60.00
G01 X26.7380 Y22.2099
G01 X26.7084 Y22.2925
G01 X26.6873 Y22.3766
G01 X26.6746 Y22.4623
G01 X26.6704 Y22.5488
G01 X26.6746 Y22.6353
G01 X26.6873 Y22.7210
G01 X26.7084 Y22.8050
G01 X26.7380 Y22.8876
G01 X26.4797 Y23.1460
G01 X26.3982 Y22.9711
G01 X26.3969 Y22.9676
G01 X26.3424 Y22.7642
G01 X26.3417 Y22.7605
G01 X26.3234 Y22.5506
G01 X26.3234 Y22.5469
G01 X26.3417 Y22.3371
G01 X26.3424 Y22.3334
G01 X26.3969 Y22.1299
G01 X26.3982 Y22.1264
G01 X26.4797 Y21.9516
G00 Z2.0000
G00 X24.5632 Y23.4309
G01 F30.00
G01 Z-0.0900
G01 F60.00
G01 X24.5531 Y23.4315
G01 X22.9511 Y23.4315
G01 X22.9430 Y23.4309
G01 X22.9350 Y23.4295
G01 X22.9272 Y23.4273
G01 X22.9196 Y23.4244
G01 X22.9123 Y23.4208
G01 X22.9055 Y23.4164
G01 X22.8991 Y23.4114
G01 X22.8932 Y23.4058
G01 X22.8879 Y23.3997
G01 X22.8832 Y23.3930
G01 X22.8801 Y23.3878
G01 X22.8767 Y23.3804
G01 X22.8739 Y23.3728
G01 X22.8720 Y23.3649
G01 X22.8708 Y23.3569
G01 X22.8704 Y23.3508
G01 X22.8704 Y21.7488
G01 X22.8708 Y21.7407
G01 X22.8720 Y21.7326
G01 X22.8739 Y21.7248
G01 X22.8767 Y21.7171
G01 X22.8811 Y21.7080
G01 X22.8855 Y21.7011
G01 X22.8905 Y21.6947
G01 X22.8961 Y21.6888
G01 X22.9022 Y21.6835
G01 X22.9088 Y21.6789
G01 X22.9159 Y21.6749
G01 X22.9215 Y21.6723
G01 X22.9291 Y21.6696
G01 X22.9370 Y21.6676
G01 X22.9450 Y21.6664
G01 X22.9511 Y21.6661
G01 X24.5531 Y21.6660
G01 X24.5612 Y21.6664
G01 X24.5693 Y21.6676
G01 X24.5771 Y21.6696
G01 X24.5867 Y21.6731
G01 X24.5939 Y21.6768
G01 X24.6008 Y21.6811
G01 X24.6072 Y21.6861
G01 X24.6131 Y21.6917
G01 X24.6171 Y21.6963
G01 X24.6219 Y21.7028
G01 X24.6261 Y21.7098
G01 X24.6296 Y21.7171
G01 X24.6323 Y21.7248
G01 X24.6343 Y21.7326
G01 X24.6355 Y21.7407
G01 X24.6358 Y21.7467
G01 X24.6358 Y23.3508
G01 X24.6352 Y23.3589
G01 X24.6339 Y23.3669
G01 X24.6323 Y23.3728
G01 X24.6296 Y23.3804
G01 X24.6261 Y23.3878
G01 X24.6230 Y23.3930
G01 X24.6196 Y23.3981
G01 X24.6144 Y23.4043
G01 X24.6102 Y23.4087
G01 X24.6040 Y23.4140
G01 X24.5991 Y23.4176
G01 X24.5921 Y23.4218
G01 X24.5848 Y23.4252
G01 X24.5771 Y23.4280
G01 X24.5712 Y23.4295
G01 X24.5632 Y23.4309
G00 Z2.0000
G00 X24.5815 Y23.5787
G01 F30.00
G01 Z-0.0900
G01 F60.00
G01 X24.5645 Y23.5802
G01 X24.5531 Y23.5805
G01 X22.9531 Y23.5805
G01 X22.9418 Y23.5802
G01 X22.9304 Y23.5794
G01 X22.9191 Y23.5780
G01 X22.9079 Y23.5760
G01 X22.8968 Y23.5735
G01 X22.8859 Y23.5705
G01 X22.8751 Y23.5669
G01 X22.8645 Y23.5628
G01 X22.8541 Y23.5582
G01 X22.8439 Y23.5531
G01 X22.8340 Y23.5475
G01 X22.8244 Y23.5414
G01 X22.8151 Y23.5349
G01 X22.8061 Y23.5279
G01 X22.7975 Y23.5205
G01 X22.7893 Y23.5126
G01 X22.7814 Y23.5044
G01 X22.7740 Y23.4958
G01 X22.7670 Y23.4868
G01 X22.7605 Y23.4775
G01 X22.7544 Y23.4679
G01 X22.7462 Y23.4529
G01 X22.7413 Y23.4427
G01 X22.7369 Y23.4322
G01 X22.7331 Y23.4215
G01 X22.7298 Y23.4106
G01 X22.7259 Y23.3940
G01 X22.7232 Y23.3771
G01 X22.7220 Y23.3658
G01 X22.7215 Y23.3545
G01 X22.7214 Y21.7488
G01 X22.7217 Y21.7374
G01 X22.7225 Y21.7261
G01 X22.7239 Y21.7148
G01 X22.7259 Y21.7036
G01 X22.7284 Y21.6925
G01 X22.7331 Y21.6761
G01 X22.7369 Y21.6654
G01 X22.7413 Y21.6549
G01 X22.7462 Y21.6446
G01 X22.7515 Y21.6346
G01 X22.7605 Y21.6200
G01 X22.7670 Y21.6108
G01 X22.7740 Y21.6018
G01 X22.7814 Y21.5932
G01 X22.7893 Y21.5849
G01 X22.7975 Y21.5771
G01 X22.8061 Y21.5697
G01 X22.8151 Y21.5627
G01 X22.8292 Y21.5530
G01 X22.8439 Y21.5444
G01 X22.8541 Y21.5393
G01 X22.8645 Y21.5347
G01 X22.8751 Y21.5306
G01 X22.8859 Y21.5271
G01 X22.8968 Y21.5240
G01 X22.9079 Y21.5215
G01 X22.9248 Y21.5188
G01 X22.9361 Y21.5177
G01 X22.9474 Y21.5171
G01 X24.5531 Y21.5171
G01 X24.5645 Y21.5174
G01 X24.5758 Y21.5182
G01 X24.5871 Y21.5196
G01 X24.5983 Y21.5215
G01 X24.6094 Y21.5240
G01 X24.6204 Y21.5271
G01 X24.6312 Y21.5306
G01 X24.6470 Y21.5370
G01 X24.6623 Y21.5444
G01 X24.6722 Y21.5500
G01 X24.6818 Y21.5561
G01 X24.6911 Y21.5627
G01 X24.7001 Y21.5697
G01 X24.7087 Y21.5771
G01 X24.7170 Y21.5849
G01 X24.7248 Y21.5932
G01 X24.7358 Y21.6062
G01 X24.7426 Y21.6154
G01 X24.7489 Y21.6248
G01 X24.7547 Y21.6346
G01 X24.7601 Y21.6446
G01 X24.7672 Y21.6601
G01 X24.7731 Y21.6761
G01 X24.7764 Y21.6870
G01 X24.7792 Y21.6980
G01 X24.7814 Y21.7092
G01 X24.7831 Y21.7204
G01 X24.7842 Y21.7317
G01 X24.7847 Y21.7431
G01 X24.7848 Y23.3488
G01 X24.7842 Y23.3658
G01 X24.7831 Y23.3771
G01 X24.7814 Y23.3884
G01 X24.7779 Y23.4051
G01 X24.7731 Y23.4215
G01 X24.7693 Y23.4322
G01 X24.7649 Y23.4427
G01 X24.7575 Y23.4580
G01 X24.7519 Y23.4679
G01 X24.7458 Y23.4775
G01 X24.7392 Y23.4868
G01 X24.7322 Y23.4958
G01 X24.7209 Y23.5085
G01 X24.7129 Y23.5166
G01 X24.7045 Y23.5242
G01 X24.6911 Y23.5349
G01 X24.6771 Y23.5445
G01 X24.6673 Y23.5504
G01 X24.6573 Y23.5557
G01 X24.6470 Y23.5606
G01 X24.6365 Y23.5649
G01 X24.6204 Y23.5705
G01 X24.6039 Y23.5748
G01 X24.5927 Y23.5771
G01 X24.5815 Y23.5787
G00 Z2.0000
G00 X22.8968 Y21.4742
G01 F30.00
G01 Z-0.0900
G01 F60.00
G01 X22.9175 Y21.4720
G01 X24.5887 Y21.4720
G01 X24.6094 Y21.4742
G01 X24.6874 Y21.5035
G01 X24.7509 Y21.5510
G01 X24.7984 Y21.6145
G01 X24.8277 Y21.6925
G01 X24.8299 Y21.7132
G01 X24.8299 Y23.3844
G01 X24.8277 Y23.4051
G01 X24.7984 Y23.4831
G01 X24.7509 Y23.5465
G01 X24.6874 Y23.5941
G01 X24.6094 Y23.6233
G01 X24.5887 Y23.6256
G01 X22.9175 Y23.6256
G01 X22.8968 Y23.6233
G01 X22.8188 Y23.5941
G01 X22.7554 Y23.5465
G01 X22.7078 Y23.4831
G01 X22.6786 Y23.4051
G01 X22.6763 Y23.3844
G01 X22.6763 Y21.7132
G01 X22.6786 Y21.6925
G01 X22.7078 Y21.6145
G01 X22.7554 Y21.5510
G01 X22.8188 Y21.5035
G01 X22.8968 Y21.4742
G00 Z2.0000
G00 X22.8621 Y21.3282
G01 F30.00
G01 Z-0.0900
G01 F60.00
G01 X22.9095 Y21.3230
G01 X24.5968 Y21.3230
G01 X24.6441 Y21.3282
G01 X24.7597 Y21.3715
G01 X24.8573 Y21.4446
G01 X24.9304 Y21.5422
G01 X24.9737 Y21.6578
G01 X24.9789 Y21.7051
G01 X24.9789 Y23.3924
G01 X24.9737 Y23.4398
G01 X24.9304 Y23.5553
G01 X24.8573 Y23.6529
G01 X24.7597 Y23.7261
G01 X24.6441 Y23.7694
G01 X24.5968 Y23.7745
G01 X22.9095 Y23.7745
G01 X22.8621 Y23.7694
G01 X22.7466 Y23.7261
G01 X22.6490 Y23.6529
G01 X22.5758 Y23.5553
G01 X22.5325 Y23.4398
G01 X22.5274 Y23.3924
G01 X22.5274 Y21.7051
G01 X22.5325 Y21.6578
G01 X22.5758 Y21.5422
G01 X22.6490 Y21.4446
G01 X22.7466 Y21.3715
G01 X22.8621 Y21.3282
G00 Z2.0000
G00 X19.7292 Y24.9459
G01 F30.00
G01 Z-0.0900
G01 F60.00
G01 X19.7190 Y24.9465
G01 X17.7170 Y24.9465
G01 X17.7049 Y24.9453
G01 X17.6950 Y24.9430
G01 X17.6836 Y24.9386
G01 X17.6731 Y24.9326
G01 X17.6650 Y24.9264
G01 X17.6564 Y24.9178
G01 X17.6491 Y24.9080
G01 X17.6434 Y24.8973
G01 X17.6405 Y24.8897
G01 X17.6383 Y24.8819
G01 X17.6367 Y24.8719
G01 X17.6363 Y24.8638
G01 X17.6363 Y20.2638
G01 X17.6372 Y20.2516
G01 X17.6398 Y20.2398
G01 X17.6442 Y20.2284
G01 X17.6502 Y20.2178
G01 X17.6577 Y20.2082
G01 X17.6665 Y20.1998
G01 X17.6748 Y20.1939
G01 X17.6855 Y20.1881
G01 X17.6931 Y20.1852
G01 X17.7009 Y20.1830
G01 X17.7109 Y20.1814
G01 X17.7190 Y20.1810
G01 X19.7211 Y20.1811
G01 X19.7312 Y20.1819
G01 X19.7430 Y20.1846
G01 X19.7544 Y20.1890
G01 X19.7650 Y20.1950
G01 X19.7746 Y20.2025
G01 X19.7830 Y20.2113
G01 X19.7900 Y20.2212
G01 X19.7947 Y20.2302
G01 X19.7976 Y20.2378
G01 X19.7998 Y20.2456
G01 X19.8014 Y20.2557
G01 X19.8018 Y20.2638
G01 X19.8017 Y24.8658
G01 X19.8014 Y24.8719
G01 X19.8002 Y24.8799
G01 X19.7988 Y24.8858
G01 X19.7962 Y24.8936
G01 X19.7938 Y24.8992
G01 X19.7900 Y24.9063
G01 X19.7855 Y24.9131
G01 X19.7803 Y24.9193
G01 X19.7746 Y24.9251
G01 X19.7699 Y24.9290
G01 X19.7650 Y24.9326
G01 X19.7580 Y24.9368
G01 X19.7507 Y24.9402
G01 X19.7430 Y24.9430
G01 X19.7372 Y24.9445
G01 X19.7292 Y24.9459
G00 Z2.0000
G00 X19.7474 Y25.0937
G01 F30.00
G01 Z-0.0900
G01 F60.00
G01 X19.7304 Y25.0952
G01 X19.7190 Y25.0955
G01 X17.7190 Y25.0955
G01 X17.7020 Y25.0948
G01 X17.6850 Y25.0930
G01 X17.6683 Y25.0898
G01 X17.6572 Y25.0871
G01 X17.6410 Y25.0819
G01 X17.6251 Y25.0756
G01 X17.6098 Y25.0681
G01 X17.5951 Y25.0595
G01 X17.5810 Y25.0499
G01 X17.5677 Y25.0392
G01 X17.5552 Y25.0276
G01 X17.5473 Y25.0194
G01 X17.5364 Y25.0063
G01 X17.5264 Y24.9925
G01 X17.5203 Y24.9829
G01 X17.5121 Y24.9679
G01 X17.5050 Y24.9524
G01 X17.5009 Y24.9418
G01 X17.4973 Y24.9310
G01 X17.4943 Y24.9201
G01 X17.4918 Y24.9090
G01 X17.4898 Y24.8978
G01 X17.4884 Y24.8865
G01 X17.4876 Y24.8751
G01 X17.4873 Y24.8638
G01 X17.4874 Y20.2581
G01 X17.4884 Y20.2411
G01 X17.4907 Y20.2242
G01 X17.4943 Y20.2075
G01 X17.4990 Y20.1911
G01 X17.5050 Y20.1751
G01 X17.5121 Y20.1596
G01 X17.5203 Y20.1447
G01 X17.5296 Y20.1304
G01 X17.5399 Y20.1168
G01 X17.5512 Y20.1040
G01 X17.5634 Y20.0921
G01 X17.5765 Y20.0811
G01 X17.5903 Y20.0711
G01 X17.5999 Y20.0650
G01 X17.6149 Y20.0568
G01 X17.6304 Y20.0497
G01 X17.6410 Y20.0456
G01 X17.6518 Y20.0421
G01 X17.6627 Y20.0390
G01 X17.6738 Y20.0365
G01 X17.6850 Y20.0346
G01 X17.6963 Y20.0332
G01 X17.7077 Y20.0324
G01 X17.7190 Y20.0321
G01 X19.7190 Y20.0321
G01 X19.7304 Y20.0324
G01 X19.7474 Y20.0338
G01 X19.7586 Y20.0355
G01 X19.7753 Y20.0390
G01 X19.7917 Y20.0438
G01 X19.8077 Y20.0497
G01 X19.8232 Y20.0568
G01 X19.8381 Y20.0650
G01 X19.8524 Y20.0743
G01 X19.8660 Y20.0847
G01 X19.8788 Y20.0960
G01 X19.8907 Y20.1082
G01 X19.9017 Y20.1212
G01 X19.9117 Y20.1350
G01 X19.9206 Y20.1496
G01 X19.9285 Y20.1647
G01 X19.9331 Y20.1751
G01 X19.9372 Y20.1857
G01 X19.9407 Y20.1965
G01 X19.9438 Y20.2075
G01 X19.9463 Y20.2186
G01 X19.9482 Y20.2298
G01 X19.9496 Y20.2411
G01 X19.9504 Y20.2524
G01 X19.9507 Y20.2638
G01 X19.9507 Y24.8638
G01 X19.9504 Y24.8751
G01 X19.9490 Y24.8921
G01 X19.9473 Y24.9034
G01 X19.9451 Y24.9145
G01 X19.9423 Y24.9256
G01 X19.9390 Y24.9365
G01 X19.9331 Y24.9524
G01 X19.9260 Y24.9679
G01 X19.9206 Y24.9780
G01 X19.9148 Y24.9877
G01 X19.9051 Y25.0018
G01 X19.8981 Y25.0108
G01 X19.8907 Y25.0194
G01 X19.8829 Y25.0276
G01 X19.8746 Y25.0355
G01 X19.8660 Y25.0429
G01 X19.8570 Y25.0499
G01 X19.8430 Y25.0595
G01 X19.8332 Y25.0654
G01 X19.8232 Y25.0707
G01 X19.8077 Y25.0778
G01 X19.7971 Y25.0819
G01 X19.7863 Y25.0855
G01 X19.7753 Y25.0885
G01 X19.7642 Y25.0910
G01 X19.7474 Y25.0937
G00 Z2.0000
G00 X17.6627 Y19.9892
G01 F30.00
G01 Z-0.0900
G01 F60.00
G01 X17.6834 Y19.9870
G01 X19.7546 Y19.9870
G01 X19.7753 Y19.9892
G01 X19.8533 Y20.0185
G01 X19.9168 Y20.0660
G01 X19.9643 Y20.1295
G01 X19.9936 Y20.2075
G01 X19.9958 Y20.2282
G01 X19.9958 Y24.8994
G01 X19.9936 Y24.9201
G01 X19.9643 Y24.9981
G01 X19.9168 Y25.0615
G01 X19.8533 Y25.1091
G01 X19.7753 Y25.1383
G01 X19.7546 Y25.1406
G01 X17.6834 Y25.1406
G01 X17.6627 Y25.1383
G01 X17.5847 Y25.1091
G01 X17.5213 Y25.0615
G01 X17.4737 Y24.9981
G01 X17.4445 Y24.9201
G01 X17.4422 Y24.8994
G01 X17.4422 Y20.2282
G01 X17.4445 Y20.2075
G01 X17.4737 Y20.1295
G01 X17.5213 Y20.0660
G01 X17.5847 Y20.0185
G01 X17.6627 Y19.9892
G00 Z2.0000
G00 X17.6280 Y19.8432
G01 F30.00
G01 Z-0.0900
G01 F60.00
G01 X17.6754 Y19.8380
G01 X19.7627 Y19.8380
G01 X19.8100 Y19.8432
G01 X19.9256 Y19.8865
G01 X20.0232 Y19.9596
G01 X20.0963 Y20.0572
G01 X20.1396 Y20.1728
G01 X20.1448 Y20.2201
G01 X20.1448 Y24.9074
G01 X20.1396 Y24.9548
G01 X20.0963 Y25.0703
G01 X20.0232 Y25.1679
G01 X19.9256 Y25.2411
G01 X19.8100 Y25.2844
G01 X19.7627 Y25.2895
G01 X17.6754 Y25.2895
G01 X17.6280 Y25.2844
G01 X17.5125 Y25.2411
G01 X17.4149 Y25.1679
G01 X17.3417 Y25.0703
G01 X17.2984 Y24.9548
G01 X17.2933 Y24.9074
G01 X17.2933 Y20.2201
G01 X17.2984 Y20.1728
G01 X17.3417 Y20.0572
G01 X17.4149 Y19.9596
G01 X17.5125 Y19.8865
G01 X17.6280 Y19.8432
G00 Z2.0000
G00 X17.0341 Y18.9900
G01 F30.00
G01 Z-0.0900
G01 F60.00
G01 X17.0510 Y18.9882
G01 X17.1481 Y18.9738
G01 X17.1593 Y18.9718
G01 X17.1704 Y18.9693
G01 X17.2656 Y18.9455
G01 X17.2766 Y18.9424
G01 X17.2874 Y18.9389
G01 X17.3798 Y18.9058
G01 X17.3904 Y18.9017
G01 X17.4008 Y18.8971
G01 X17.4895 Y18.8552
G01 X17.4996 Y18.8500
G01 X17.5095 Y18.8444
G01 X17.5937 Y18.7940
G01 X17.6080 Y18.7847
G01 X17.6914 Y18.7229
G01 X17.7004 Y18.7159
G01 X17.7090 Y18.7085
G01 X17.7817 Y18.6426
G01 X17.7900 Y18.6347
G01 X17.7978 Y18.6265
G01 X17.8637 Y18.5538
G01 X17.8711 Y18.5452
G01 X17.8781 Y18.5362
G01 X17.9366 Y18.4574
G01 X17.9431 Y18.4481
G01 X17.9492 Y18.4385
G01 X17.9997 Y18.3543
G01 X18.0053 Y18.3444
G01 X18.0505 Y18.2495
G01 X18.0997 Y18.2495
G01 X18.0738 Y18.3170
G01 X17.9705 Y18.4946
G01 X17.8401 Y18.6533
G01 X17.6860 Y18.7891
G01 X17.5123 Y18.8985
G01 X17.3232 Y18.9788
G01 X17.1237 Y19.0278
G01 X16.9707 Y19.0401
G01 X16.3047 Y19.0401
G01 X16.3047 Y18.9955
G01 X16.9190 Y18.9955
G01 X16.9304 Y18.9952
G01 X17.0341 Y18.9900
G00 Z2.0000
G00 X17.0231 Y18.8415
G01 F30.00
G01 Z-0.0900
G01 F60.00
G01 X17.1263 Y18.8264
G01 X17.1342 Y18.8248
G01 X17.2333 Y18.7999
G01 X17.3334 Y18.7641
G01 X17.4294 Y18.7187
G01 X17.5171 Y18.6662
G01 X17.5239 Y18.6617
G01 X17.6059 Y18.6008
G01 X17.6817 Y18.5322
G01 X17.6874 Y18.5265
G01 X17.7560 Y18.4507
G01 X17.8193 Y18.3653
G01 X17.8719 Y18.2777
G01 X17.8758 Y18.2706
G01 X17.9194 Y18.1781
G01 X17.9472 Y18.1005
G01 X18.3047 Y18.1005
G01 X18.2911 Y18.1658
G01 X18.2901 Y18.1691
G01 X18.2092 Y18.3800
G01 X18.2077 Y18.3831
G01 X18.0940 Y18.5783
G01 X18.0921 Y18.5812
G01 X17.9487 Y18.7557
G01 X17.9463 Y18.7582
G01 X17.7769 Y18.9076
G01 X17.7741 Y18.9097
G01 X17.5829 Y19.0300
G01 X17.5799 Y19.0316
G01 X17.3720 Y19.1199
G01 X17.3687 Y19.1210
G01 X17.1493 Y19.1749
G01 X17.1459 Y19.1754
G01 X16.9758 Y19.1890
G01 X16.1558 Y19.1890
G01 X16.1558 Y18.8465
G01 X16.9190 Y18.8465
G01 X17.0231 Y18.8415
G00 Z2.0000
G00 X17.7758 Y16.8122
G01 F30.00
G01 Z-0.0900
G01 F60.00
G01 X17.9169 Y16.9614
G01 X18.0324 Y17.1313
G01 X18.1008 Y17.2781
G01 X18.0505 Y17.2781
G01 X18.0053 Y17.1832
G01 X17.9997 Y17.1733
G01 X17.9492 Y17.0891
G01 X17.9431 Y17.0795
G01 X17.9366 Y17.0702
G01 X17.8781 Y16.9914
G01 X17.8711 Y16.9824
G01 X17.8637 Y16.9738
G01 X17.7978 Y16.9011
G01 X17.7900 Y16.8928
G01 X17.7817 Y16.8850
G01 X17.7090 Y16.8191
G01 X17.7004 Y16.8117
G01 X17.6914 Y16.8047
G01 X17.6126 Y16.7462
G01 X17.6033 Y16.7397
G01 X17.5937 Y16.7336
G01 X17.5095 Y16.6831
G01 X17.4996 Y16.6775
G01 X17.4895 Y16.6724
G01 X17.3956 Y16.6281
G01 X17.3798 Y16.6217
G01 X17.2874 Y16.5887
G01 X17.2766 Y16.5851
G01 X17.2656 Y16.5821
G01 X17.1704 Y16.5582
G01 X17.1593 Y16.5557
G01 X17.1481 Y16.5538
G01 X17.0510 Y16.5394
G01 X17.0398 Y16.5380
G01 X17.0284 Y16.5372
G01 X16.9304 Y16.5324
G01 X16.9190 Y16.5321
G01 X16.3047 Y16.5321
G01 X16.3047 Y16.4875
G01 X17.0218 Y16.4875
G01 X17.0311 Y16.4879
G01 X17.2375 Y16.5235
G01 X17.4317 Y16.5904
G01 X17.6127 Y16.6875
G01 X17.7758 Y16.8122
G00 Z2.0000
G00 X17.2763 Y16.3794
G01 F30.00
G01 Z-0.0900
G01 F60.00
G01 X17.4898 Y16.4529
G01 X17.4930 Y16.4543
G01 X17.6921 Y16.5610
G01 X17.6950 Y16.5629
G01 X17.8744 Y16.7001
G01 X17.8770 Y16.7024
G01 X18.0322 Y16.8665
G01 X18.0344 Y16.8692
G01 X18.1613 Y17.0561
G01 X18.1630 Y17.0591
G01 X18.2585 Y17.2638
G01 X18.2597 Y17.2670
G01 X18.3050 Y17.4270
G01 X17.9472 Y17.4270
G01 X17.9194 Y17.3494
G01 X17.8758 Y17.2570
G01 X17.8719 Y17.2498
G01 X17.8215 Y17.1657
G01 X17.8170 Y17.1589
G01 X17.7560 Y17.0769
G01 X17.6846 Y16.9982
G01 X17.6059 Y16.9268
G01 X17.5239 Y16.8658
G01 X17.5171 Y16.8613
G01 X17.4294 Y16.8089
G01 X17.3371 Y16.7651
G01 X17.3296 Y16.7620
G01 X17.2372 Y16.7289
G01 X17.2294 Y16.7266
G01 X17.1342 Y16.7027
G01 X17.1263 Y16.7011
G01 X17.0252 Y16.6862
G01 X16.9231 Y16.6811
G01 X16.1558 Y16.6810
G01 X16.1558 Y16.3385
G01 X17.0257 Y16.3385
G01 X17.0485 Y16.3398
G01 X17.2729 Y16.3785
G01 X17.2763 Y16.3794
G00 Z2.0000
G00 X14.3148 Y16.5488
G01 F30.00
G01 Z-0.0900
G01 F60.00
G01 X14.5143 Y16.4998
G01 X14.6674 Y16.4875
G01 X15.3333 Y16.4875
G01 X15.3333 Y16.5321
G01 X14.7190 Y16.5321
G01 X14.7077 Y16.5324
G01 X14.6096 Y16.5372
G01 X14.5983 Y16.5380
G01 X14.5870 Y16.5394
G01 X14.4899 Y16.5538
G01 X14.4787 Y16.5557
G01 X14.4676 Y16.5582
G01 X14.3724 Y16.5821
G01 X14.3615 Y16.5851
G01 X14.3507 Y16.5887
G01 X14.2583 Y16.6217
G01 X14.2424 Y16.6281
G01 X14.1486 Y16.6724
G01 X14.1384 Y16.6775
G01 X14.1285 Y16.6831
G01 X14.0443 Y16.7336
G01 X14.0347 Y16.7397
G01 X14.0254 Y16.7462
G01 X13.9466 Y16.8047
G01 X13.9376 Y16.8117
G01 X13.9290 Y16.8191
G01 X13.8563 Y16.8850
G01 X13.8481 Y16.8928
G01 X13.8402 Y16.9011
G01 X13.7743 Y16.9738
G01 X13.7669 Y16.9824
G01 X13.7599 Y16.9914
G01 X13.7015 Y17.0702
G01 X13.6949 Y17.0795
G01 X13.6888 Y17.0891
G01 X13.6384 Y17.1733
G01 X13.6328 Y17.1832
G01 X13.5876 Y17.2781
G01 X13.5383 Y17.2781
G01 X13.5643 Y17.2105
G01 X13.6676 Y17.0330
G01 X13.7979 Y16.8743
G01 X13.9520 Y16.7385
G01 X14.1258 Y16.6290
G01 X14.3148 Y16.5488
G00 Z2.0000
G00 X13.5460 Y16.9464
G01 F30.00
G01 Z-0.0900
G01 F60.00
G01 X13.6894 Y16.7718
G01 X13.6917 Y16.7694
G01 X13.8612 Y16.6200
G01 X13.8639 Y16.6179
G01 X14.0551 Y16.4975
G01 X14.0582 Y16.4959
G01 X14.2661 Y16.4077
G01 X14.2694 Y16.4066
G01 X14.4887 Y16.3527
G01 X14.4921 Y16.3521
G01 X14.6605 Y16.3386
G01 X15.4823 Y16.3385
G01 X15.4823 Y16.6810
G01 X14.7150 Y16.6811
G01 X14.6129 Y16.6862
G01 X14.5118 Y16.7011
G01 X14.5038 Y16.7027
G01 X14.4086 Y16.7266
G01 X14.4009 Y16.7289
G01 X14.3047 Y16.7634
G01 X14.2122 Y16.8070
G01 X14.2051 Y16.8109
G01 X14.1209 Y16.8613
G01 X14.1142 Y16.8658
G01 X14.0321 Y16.9268
G01 X13.9534 Y16.9982
G01 X13.8820 Y17.0769
G01 X13.8211 Y17.1589
G01 X13.8166 Y17.1657
G01 X13.7661 Y17.2498
G01 X13.7623 Y17.2570
G01 X13.7187 Y17.3494
G01 X13.6908 Y17.4270
G01 X13.3333 Y17.4270
G01 X13.3470 Y17.3618
G01 X13.3479 Y17.3584
G01 X13.4289 Y17.1476
G01 X13.4304 Y17.1444
G01 X13.5440 Y16.9492
G01 X13.5460 Y16.9464
G00 Z2.0000
G00 X13.7203 Y18.1818
G01 F30.00
G01 Z-0.0900
G01 F60.00
G01 X13.7641 Y18.2742
G01 X13.8188 Y18.3653
G01 X13.8820 Y18.4507
G01 X13.9534 Y18.5294
G01 X14.0321 Y18.6008
G01 X14.1175 Y18.6640
G01 X14.2086 Y18.7187
G01 X14.3066 Y18.7649
G01 X14.4047 Y18.7999
G01 X14.5038 Y18.8248
G01 X14.5118 Y18.8264
G01 X14.6149 Y18.8415
G01 X14.7190 Y18.8465
G01 X15.4823 Y18.8465
G01 X15.4823 Y19.1890
G01 X14.6133 Y19.1890
G01 X14.5895 Y19.1878
G01 X14.3651 Y19.1490
G01 X14.3618 Y19.1482
G01 X14.1482 Y19.0746
G01 X14.1450 Y19.0733
G01 X13.9460 Y18.9665
G01 X13.9431 Y18.9646
G01 X13.7636 Y18.8274
G01 X13.7611 Y18.8251
G01 X13.6059 Y18.6610
G01 X13.6037 Y18.6583
G01 X13.4767 Y18.4715
G01 X13.4750 Y18.4685
G01 X13.3795 Y18.2638
G01 X13.3783 Y18.2605
G01 X13.3331 Y18.1005
G01 X13.6908 Y18.1005
G01 X13.7172 Y18.1743
G01 X13.7203 Y18.1818
G00 Z2.0000
G00 X13.6384 Y18.3543
G01 F30.00
G01 Z-0.0900
G01 F60.00
G01 X13.6888 Y18.4385
G01 X13.6949 Y18.4481
G01 X13.7015 Y18.4574
G01 X13.7599 Y18.5362
G01 X13.7669 Y18.5452
G01 X13.7743 Y18.5538
G01 X13.8402 Y18.6265
G01 X13.8481 Y18.6347
G01 X13.8563 Y18.6426
G01 X13.9290 Y18.7085
G01 X13.9376 Y18.7159
G01 X13.9466 Y18.7229
G01 X14.0254 Y18.7813
G01 X14.0347 Y18.7879
G01 X14.0443 Y18.7940
G01 X14.1285 Y18.8444
G01 X14.1384 Y18.8500
G01 X14.1486 Y18.8552
G01 X14.2373 Y18.8971
G01 X14.2477 Y18.9017
G01 X14.2583 Y18.9058
G01 X14.3507 Y18.9389
G01 X14.3615 Y18.9424
G01 X14.3724 Y18.9455
G01 X14.4676 Y18.9693
G01 X14.4787 Y18.9718
G01 X14.4899 Y18.9738
G01 X14.5870 Y18.9882
G01 X14.5983 Y18.9895
G01 X14.6096 Y18.9904
G01 X14.7077 Y18.9952
G01 X14.7190 Y18.9955
G01 X15.3333 Y18.9955
G01 X15.3333 Y19.0401
G01 X14.6162 Y19.0401
G01 X14.6070 Y19.0397
G01 X14.4006 Y19.0040
G01 X14.2064 Y18.9371
G01 X14.0254 Y18.8401
G01 X13.8622 Y18.7153
G01 X13.7211 Y18.5661
G01 X13.6057 Y18.3963
G01 X13.5372 Y18.2495
G01 X13.5876 Y18.2495
G01 X13.6276 Y18.3342
G01 X13.6328 Y18.3444
G01 X13.6384 Y18.3543
G00 Z2.0000
G00 X13.2364 Y20.2907
G01 F30.00
G01 Z-0.0900
G01 F60.00
G01 X13.4110 Y20.4341
G01 X13.4134 Y20.4365
G01 X13.5628 Y20.6059
G01 X13.5649 Y20.6087
G01 X13.6853 Y20.7999
G01 X13.6869 Y20.8029
G01 X13.7751 Y21.0108
G01 X13.7762 Y21.0141
G01 X13.8301 Y21.2335
G01 X13.8307 Y21.2369
G01 X13.8442 Y21.4053
G01 X13.8443 Y22.2270
G01 X13.5018 Y22.2270
G01 X13.5017 Y21.4597
G01 X13.4966 Y21.3576
G01 X13.4817 Y21.2565
G01 X13.4801 Y21.2486
G01 X13.4562 Y21.1534
G01 X13.4539 Y21.1456
G01 X13.4208 Y21.0532
G01 X13.4177 Y21.0457
G01 X13.3739 Y20.9534
G01 X13.3215 Y20.8657
G01 X13.3170 Y20.8589
G01 X13.2560 Y20.7769
G01 X13.1846 Y20.6982
G01 X13.1059 Y20.6268
G01 X13.0239 Y20.5658
G01 X13.0171 Y20.5613
G01 X12.9330 Y20.5109
G01 X12.9258 Y20.5070
G01 X12.8334 Y20.4634
G01 X12.7558 Y20.4356
G01 X12.7558 Y20.0781
G01 X12.8210 Y20.0917
G01 X12.8244 Y20.0927
G01 X13.0352 Y20.1736
G01 X13.0384 Y20.1751
G01 X13.2336 Y20.2888
G01 X13.2364 Y20.2907
G00 Z2.0000
G00 X13.6340 Y21.0596
G01 F30.00
G01 Z-0.0900
G01 F60.00
G01 X13.6830 Y21.2591
G01 X13.6953 Y21.4121
G01 X13.6953 Y22.0781
G01 X13.6507 Y22.0781
G01 X13.6507 Y21.4638
G01 X13.6504 Y21.4524
G01 X13.6456 Y21.3544
G01 X13.6448 Y21.3430
G01 X13.6434 Y21.3318
G01 X13.6290 Y21.2347
G01 X13.6271 Y21.2235
G01 X13.6246 Y21.2124
G01 X13.6007 Y21.1172
G01 X13.5977 Y21.1062
G01 X13.5941 Y21.0954
G01 X13.5611 Y21.0030
G01 X13.5547 Y20.9872
G01 X13.5104 Y20.8933
G01 X13.5053 Y20.8832
G01 X13.4997 Y20.8733
G01 X13.4492 Y20.7891
G01 X13.4431 Y20.7795
G01 X13.4366 Y20.7702
G01 X13.3781 Y20.6914
G01 X13.3711 Y20.6824
G01 X13.3637 Y20.6738
G01 X13.2978 Y20.6011
G01 X13.2900 Y20.5928
G01 X13.2817 Y20.5850
G01 X13.2090 Y20.5191
G01 X13.2004 Y20.5117
G01 X13.1914 Y20.5047
G01 X13.1126 Y20.4462
G01 X13.1033 Y20.4397
G01 X13.0937 Y20.4336
G01 X13.0095 Y20.3831
G01 X12.9996 Y20.3775
G01 X12.9047 Y20.3323
G01 X12.9047 Y20.2831
G01 X12.9723 Y20.3090
G01 X13.1498 Y20.4123
G01 X13.3085 Y20.5427
G01 X13.4443 Y20.6968
G01 X13.5538 Y20.8705
G01 X13.6340 Y21.0596
G00 Z2.0000
G00 X11.4675 Y20.6070
G01 F30.00
G01 Z-0.0900
G01 F60.00
G01 X11.6167 Y20.4659
G01 X11.7865 Y20.3504
G01 X11.9333 Y20.2820
G01 X11.9333 Y20.3323
G01 X11.8384 Y20.3775
G01 X11.8285 Y20.3831
G01 X11.7443 Y20.4336
G01 X11.7347 Y20.4397
G01 X11.7254 Y20.4462
G01 X11.6466 Y20.5047
G01 X11.6376 Y20.5117
G01 X11.6290 Y20.5191
G01 X11.5563 Y20.5850
G01 X11.5481 Y20.5928
G01 X11.5402 Y20.6011
G01 X11.4743 Y20.6738
G01 X11.4669 Y20.6824
G01 X11.4599 Y20.6914
G01 X11.4015 Y20.7702
G01 X11.3949 Y20.7795
G01 X11.3888 Y20.7891
G01 X11.3384 Y20.8733
G01 X11.3328 Y20.8832
G01 X11.3276 Y20.8933
G01 X11.2833 Y20.9872
G01 X11.2770 Y21.0030
G01 X11.2439 Y21.0954
G01 X11.2404 Y21.1062
G01 X11.2373 Y21.1172
G01 X11.2135 Y21.2124
G01 X11.2110 Y21.2235
G01 X11.2090 Y21.2347
G01 X11.1946 Y21.3318
G01 X11.1933 Y21.3430
G01 X11.1924 Y21.3544
G01 X11.1876 Y21.4524
G01 X11.1873 Y21.4638
G01 X11.1873 Y22.0781
G01 X11.1427 Y22.0781
G01 X11.1427 Y21.3610
G01 X11.1431 Y21.3517
G01 X11.1788 Y21.1453
G01 X11.2457 Y20.9511
G01 X11.3427 Y20.7701
G01 X11.4675 Y20.6070
G00 Z2.0000
G00 X11.0346 Y21.1065
G01 F30.00
G01 Z-0.0900
G01 F60.00
G01 X11.1082 Y20.8930
G01 X11.1095 Y20.8898
G01 X11.2163 Y20.6907
G01 X11.2182 Y20.6878
G01 X11.3554 Y20.5084
G01 X11.3577 Y20.5058
G01 X11.5218 Y20.3506
G01 X11.5245 Y20.3484
G01 X11.7113 Y20.2215
G01 X11.7143 Y20.2198
G01 X11.9190 Y20.1243
G01 X11.9223 Y20.1231
G01 X12.0823 Y20.0778
G01 X12.0823 Y20.4356
G01 X12.0047 Y20.4634
G01 X11.9122 Y20.5070
G01 X11.9051 Y20.5109
G01 X11.8209 Y20.5613
G01 X11.8142 Y20.5658
G01 X11.7321 Y20.6268
G01 X11.6534 Y20.6982
G01 X11.5820 Y20.7769
G01 X11.5211 Y20.8589
G01 X11.5166 Y20.8657
G01 X11.4661 Y20.9498
G01 X11.4623 Y20.9570
G01 X11.4187 Y21.0494
G01 X11.3842 Y21.1456
G01 X11.3818 Y21.1534
G01 X11.3580 Y21.2486
G01 X11.3564 Y21.2565
G01 X11.3415 Y21.3576
G01 X11.3364 Y21.4597
G01 X11.3363 Y22.2270
G01 X10.9938 Y22.2270
G01 X10.9938 Y21.3571
G01 X10.9950 Y21.3343
G01 X11.0338 Y21.1099
G01 X11.0346 Y21.1065
G00 Z2.0000
G00 X11.1928 Y23.7788
G01 F30.00
G01 Z-0.0900
G01 F60.00
G01 X11.1946 Y23.7958
G01 X11.2090 Y23.8929
G01 X11.2110 Y23.9041
G01 X11.2135 Y23.9152
G01 X11.2373 Y24.0104
G01 X11.2404 Y24.0213
G01 X11.2439 Y24.0321
G01 X11.2770 Y24.1245
G01 X11.2811 Y24.1351
G01 X11.2857 Y24.1455
G01 X11.3276 Y24.2342
G01 X11.3328 Y24.2444
G01 X11.3384 Y24.2543
G01 X11.3888 Y24.3385
G01 X11.3981 Y24.3528
G01 X11.4599 Y24.4362
G01 X11.4669 Y24.4452
G01 X11.4743 Y24.4538
G01 X11.5402 Y24.5265
G01 X11.5481 Y24.5347
G01 X11.5563 Y24.5426
G01 X11.6290 Y24.6085
G01 X11.6376 Y24.6159
G01 X11.6466 Y24.6229
G01 X11.7254 Y24.6813
G01 X11.7347 Y24.6879
G01 X11.7443 Y24.6940
G01 X11.8285 Y24.7444
G01 X11.8384 Y24.7500
G01 X11.9333 Y24.7952
G01 X11.9333 Y24.8445
G01 X11.8658 Y24.8185
G01 X11.6882 Y24.7152
G01 X11.5295 Y24.5849
G01 X11.3937 Y24.4308
G01 X11.2843 Y24.2570
G01 X11.2040 Y24.0680
G01 X11.1550 Y23.8685
G01 X11.1427 Y23.7154
G01 X11.1427 Y23.0495
G01 X11.1873 Y23.0495
G01 X11.1873 Y23.6638
G01 X11.1876 Y23.6751
G01 X11.1928 Y23.7788
G00 Z2.0000
G00 X11.3413 Y23.7679
G01 F30.00
G01 Z-0.0900
G01 F60.00
G01 X11.3564 Y23.8710
G01 X11.3580 Y23.8790
G01 X11.3829 Y23.9781
G01 X11.4187 Y24.0781
G01 X11.4641 Y24.1742
G01 X11.5166 Y24.2619
G01 X11.5211 Y24.2686
G01 X11.5820 Y24.3507
G01 X11.6506 Y24.4265
G01 X11.6563 Y24.4322
G01 X11.7321 Y24.5008
G01 X11.8175 Y24.5640
G01 X11.9051 Y24.6167
G01 X11.9122 Y24.6205
G01 X12.0047 Y24.6641
G01 X12.0823 Y24.6920
G01 X12.0823 Y25.0495
G01 X12.0170 Y25.0358
G01 X12.0137 Y25.0349
G01 X11.8028 Y24.9539
G01 X11.7997 Y24.9524
G01 X11.6045 Y24.8388
G01 X11.6016 Y24.8368
G01 X11.4271 Y24.6934
G01 X11.4246 Y24.6911
G01 X11.2752 Y24.5216
G01 X11.2731 Y24.5189
G01 X11.1528 Y24.3277
G01 X11.1512 Y24.3246
G01 X11.0629 Y24.1167
G01 X11.0618 Y24.1134
G01 X11.0079 Y23.8941
G01 X11.0074 Y23.8907
G01 X10.9938 Y23.7206
G01 X10.9938 Y22.9005
G01 X11.3363 Y22.9005
G01 X11.3363 Y23.6638
G01 X11.3413 Y23.7679
G00 Z2.0000
G00 X12.9258 Y24.6205
G01 F30.00
G01 Z-0.0900
G01 F60.00
G01 X12.9330 Y24.6167
G01 X13.0206 Y24.5640
G01 X13.1059 Y24.5008
G01 X13.1846 Y24.4294
G01 X13.2560 Y24.3507
G01 X13.3193 Y24.2653
G01 X13.3739 Y24.1742
G01 X13.4194 Y24.0781
G01 X13.4545 Y23.9800
G01 X13.4801 Y23.8790
G01 X13.4817 Y23.8710
G01 X13.4966 Y23.7699
G01 X13.5017 Y23.6678
G01 X13.5018 Y22.9005
G01 X13.8443 Y22.9005
G01 X13.8443 Y23.7695
G01 X13.8433 Y23.7906
G01 X13.8043 Y24.0177
G01 X13.8034 Y24.0210
G01 X13.7299 Y24.2346
G01 X13.7285 Y24.2378
G01 X13.6218 Y24.4368
G01 X13.6199 Y24.4397
G01 X13.4827 Y24.6192
G01 X13.4804 Y24.6217
G01 X13.3163 Y24.7769
G01 X13.3136 Y24.7791
G01 X13.1267 Y24.9061
G01 X13.1237 Y24.9078
G01 X12.9190 Y25.0033
G01 X12.9158 Y25.0045
G01 X12.7558 Y25.0497
G01 X12.7558 Y24.6920
G01 X12.8334 Y24.6641
G01 X12.9258 Y24.6205
G00 Z2.0000
G00 X13.0095 Y24.7444
G01 F30.00
G01 Z-0.0900
G01 F60.00
G01 X13.0937 Y24.6940
G01 X13.1033 Y24.6879
G01 X13.1126 Y24.6813
G01 X13.1914 Y24.6229
G01 X13.2004 Y24.6159
G01 X13.2090 Y24.6085
G01 X13.2817 Y24.5426
G01 X13.2900 Y24.5347
G01 X13.2978 Y24.5265
G01 X13.3637 Y24.4538
G01 X13.3711 Y24.4452
G01 X13.3781 Y24.4362
G01 X13.4366 Y24.3574
G01 X13.4431 Y24.3481
G01 X13.4492 Y24.3385
G01 X13.4997 Y24.2543
G01 X13.5053 Y24.2444
G01 X13.5104 Y24.2342
G01 X13.5524 Y24.1455
G01 X13.5570 Y24.1351
G01 X13.5611 Y24.1245
G01 X13.5941 Y24.0321
G01 X13.5977 Y24.0213
G01 X13.6007 Y24.0104
G01 X13.6246 Y23.9152
G01 X13.6271 Y23.9041
G01 X13.6290 Y23.8929
G01 X13.6434 Y23.7958
G01 X13.6448 Y23.7845
G01 X13.6456 Y23.7732
G01 X13.6504 Y23.6751
G01 X13.6507 Y23.6638
G01 X13.6507 Y23.0495
G01 X13.6953 Y23.0495
G01 X13.6953 Y23.7666
G01 X13.6949 Y23.7758
G01 X13.6593 Y23.9822
G01 X13.5924 Y24.1764
G01 X13.4953 Y24.3574
G01 X13.3706 Y24.5206
G01 X13.2214 Y24.6617
G01 X13.0515 Y24.7771
G01 X12.9047 Y24.8456
G01 X12.9047 Y24.7952
G01 X12.9895 Y24.7552
G01 X12.9996 Y24.7500
G01 X13.0095 Y24.7444
G00 Z2.0000
G00 X8.7134 Y25.7711
G01 F30.00
G01 Z-0.0900
G01 F60.00
G01 X8.7111 Y25.7238
G01 X8.7111 Y7.3088
G01 X8.7134 Y7.2614
G01 X8.7197 Y7.2186
G01 X8.7212 Y7.2106
G01 X8.7308 Y7.1725
G01 X8.7331 Y7.1647
G01 X8.7478 Y7.1240
G01 X8.7681 Y7.0811
G01 X8.7925 Y7.0405
G01 X8.8207 Y7.0024
G01 X8.8525 Y6.9673
G01 X11.3940 Y4.4259
G01 X11.4276 Y4.3954
G01 X11.4624 Y4.3696
G01 X11.4691 Y4.3650
G01 X11.5064 Y4.3429
G01 X11.5492 Y4.3226
G01 X11.5900 Y4.3079
G01 X11.5977 Y4.3055
G01 X11.6358 Y4.2960
G01 X11.6438 Y4.2944
G01 X11.6867 Y4.2882
G01 X11.7340 Y4.2858
G01 X26.1390 Y4.2858
G01 X27.2181 Y3.2068
G01 X27.2073 Y3.1761
G01 X27.1825 Y3.0770
G01 X27.1663 Y2.9679
G01 X27.1614 Y2.8678
G01 X27.1614 Y2.8597
G01 X27.1665 Y2.7576
G01 X27.1817 Y2.6545
G01 X27.2079 Y2.5495
G01 X27.2422 Y2.4532
G01 X27.2453 Y2.4457
G01 X27.2891 Y2.3534
G01 X27.3416 Y2.2657
G01 X27.3461 Y2.2589
G01 X27.4070 Y2.1769
G01 X27.4784 Y2.0982
G01 X27.5571 Y2.0268
G01 X27.6425 Y1.9635
G01 X27.7336 Y1.9089
G01 X27.8297 Y1.8634
G01 X27.9297 Y1.8276
G01 X28.0328 Y1.8018
G01 X28.1399 Y1.7861
G01 X28.2440 Y1.7810
G01 X28.3461 Y1.7859
G01 X28.3542 Y1.7867
G01 X28.4553 Y1.8018
G01 X28.5544 Y1.8266
G01 X28.5622 Y1.8289
G01 X28.6584 Y1.8634
G01 X28.7508 Y1.9070
G01 X28.7580 Y1.9109
G01 X28.8456 Y1.9635
G01 X28.9277 Y2.0243
G01 X28.9340 Y2.0295
G01 X29.0096 Y2.0982
G01 X29.0783 Y2.1738
G01 X29.0835 Y2.1801
G01 X29.1443 Y2.2622
G01 X29.1969 Y2.3498
G01 X29.2008 Y2.3570
G01 X29.2444 Y2.4494
G01 X29.2789 Y2.5456
G01 X29.2812 Y2.5534
G01 X29.3060 Y2.6525
G01 X29.3211 Y2.7536
G01 X29.3219 Y2.7617
G01 X29.3268 Y2.8638
G01 X29.3219 Y2.9659
G01 X29.3211 Y2.9739
G01 X29.3060 Y3.0750
G01 X29.2812 Y3.1742
G01 X29.2789 Y3.1819
G01 X29.2444 Y3.2781
G01 X29.2008 Y3.3706
G01 X29.1969 Y3.3777
G01 X29.1443 Y3.4653
G01 X29.0835 Y3.5475
G01 X29.0783 Y3.5537
G01 X29.0124 Y3.6265
G01 X29.0067 Y3.6322
G01 X28.9309 Y3.7008
G01 X28.8456 Y3.7640
G01 X28.7544 Y3.8187
G01 X28.6565 Y3.8649
G01 X28.5583 Y3.8999
G01 X28.4553 Y3.9257
G01 X28.3502 Y3.9413
G01 X28.2461 Y3.9465
G01 X28.1379 Y3.9413
G01 X28.0348 Y3.9261
G01 X27.9317 Y3.9005
G01 X27.9010 Y3.8897
G01 X26.6791 Y5.1117
G01 X26.6485 Y5.1394
G01 X26.6422 Y5.1446
G01 X26.6073 Y5.1703
G01 X26.5702 Y5.1927
G01 X26.5631 Y5.1965
G01 X26.5238 Y5.2150
G01 X26.4792 Y5.2309
G01 X26.4332 Y5.2424
G01 X26.3904 Y5.2489
G01 X26.3823 Y5.2497
G01 X26.3390 Y5.2517
G01 X11.9341 Y5.2517
G01 X9.6770 Y7.5088
G01 X9.6770 Y25.5237
G01 X12.5691 Y28.4158
G01 X26.1390 Y28.4158
G01 X32.9825 Y21.5723
G01 X33.0176 Y21.5404
G01 X33.0524 Y21.5146
G01 X33.0591 Y21.5100
G01 X33.0928 Y21.4899
G01 X33.1000 Y21.4860
G01 X33.1392 Y21.4676
G01 X33.1838 Y21.4516
G01 X33.2298 Y21.4401
G01 X33.2747 Y21.4334
G01 X33.3240 Y21.4308
G01 X65.2732 Y21.4308
G01 X65.2663 Y21.3829
G01 X65.2613 Y21.2808
G01 X65.2663 Y21.1747
G01 X65.2821 Y21.0675
G01 X65.3073 Y20.9664
G01 X65.3437 Y20.8644
G01 X65.3891 Y20.7684
G01 X65.4438 Y20.6772
G01 X65.5084 Y20.5903
G01 X65.5784 Y20.5132
G01 X65.6541 Y20.4445
G01 X65.6603 Y20.4393
G01 X65.7392 Y20.3808
G01 X65.7459 Y20.3763
G01 X65.8336 Y20.3239
G01 X65.9260 Y20.2801
G01 X65.9335 Y20.2770
G01 X66.0297 Y20.2426
G01 X66.1328 Y20.2168
G01 X66.2379 Y20.2012
G01 X66.3440 Y20.1960
G01 X66.4502 Y20.2012
G01 X66.5553 Y20.2168
G01 X66.6583 Y20.2426
G01 X66.7584 Y20.2784
G01 X66.8544 Y20.3239
G01 X66.9456 Y20.3785
G01 X67.0309 Y20.4418
G01 X67.1067 Y20.5104
G01 X67.1124 Y20.5161
G01 X67.1810 Y20.5919
G01 X67.2420 Y20.6739
G01 X67.2465 Y20.6807
G01 X67.2969 Y20.7648
G01 X67.3008 Y20.7720
G01 X67.3444 Y20.8644
G01 X67.3802 Y20.9645
G01 X67.4060 Y21.0675
G01 X67.4217 Y21.1747
G01 X67.4268 Y21.2788
G01 X67.4219 Y21.3809
G01 X67.4211 Y21.3889
G01 X67.4060 Y21.4900
G01 X67.3812 Y21.5892
G01 X67.3789 Y21.5969
G01 X67.3444 Y21.6931
G01 X67.3008 Y21.7856
G01 X67.2969 Y21.7927
G01 X67.2443 Y21.8803
G01 X67.1835 Y21.9625
G01 X67.1783 Y21.9687
G01 X67.1096 Y22.0444
G01 X67.0340 Y22.1131
G01 X67.0277 Y22.1183
G01 X66.9472 Y22.1779
G01 X66.8544 Y22.2337
G01 X66.7584 Y22.2791
G01 X66.6583 Y22.3149
G01 X66.5533 Y22.3411
G01 X66.4502 Y22.3563
G01 X66.3481 Y22.3614
G01 X66.3400 Y22.3614
G01 X66.2399 Y22.3565
G01 X66.1308 Y22.3403
G01 X66.0317 Y22.3155
G01 X65.9948 Y22.3025
G01 X65.9756 Y22.3164
G01 X65.9349 Y22.3406
G01 X65.8938 Y22.3600
G01 X65.8512 Y22.3753
G01 X65.8072 Y22.3866
G01 X65.7992 Y22.3881
G01 X65.7564 Y22.3944
G01 X65.7111 Y22.3967
G01 X33.5241 Y22.3967
G01 X26.6805 Y29.2403
G01 X26.6454 Y29.2721
G01 X26.6073 Y29.3003
G01 X26.5667 Y29.3247
G01 X26.5276 Y29.3433
G01 X26.5201 Y29.3464
G01 X26.4831 Y29.3597
G01 X26.4753 Y29.3620
G01 X26.4332 Y29.3724
G01 X26.3843 Y29.3796
G01 X26.3390 Y29.3817
G01 X12.3690 Y29.3817
G01 X12.3217 Y29.3794
G01 X12.2748 Y29.3724
G01 X12.2327 Y29.3620
G01 X12.2250 Y29.3597
G01 X12.1842 Y29.3450
G01 X12.1414 Y29.3247
G01 X12.1041 Y29.3025
G01 X12.0974 Y29.2980
G01 X12.0626 Y29.2721
G01 X12.0290 Y29.2417
G01 X8.8525 Y26.0653
G01 X8.8207 Y26.0302
G01 X8.7948 Y25.9954
G01 X8.7903 Y25.9887
G01 X8.7701 Y25.9550
G01 X8.7663 Y25.9478
G01 X8.7478 Y25.9086
G01 X8.7319 Y25.8640
G01 X8.7204 Y25.8180
G01 X8.7134 Y25.7711
G00 Z2.0000
G00 X8.5652 Y25.7857
G01 F30.00
G01 Z-0.0900
G01 F60.00
G01 X8.5624 Y25.7351
G01 X8.5621 Y25.7238
G01 X8.5621 Y7.3088
G01 X8.5624 Y7.2974
G01 X8.5652 Y7.2468
G01 X8.5723 Y7.1967
G01 X8.5743 Y7.1855
G01 X8.5768 Y7.1744
G01 X8.5878 Y7.1308
G01 X8.5929 Y7.1145
G01 X8.6102 Y7.0670
G01 X8.6148 Y7.0566
G01 X8.6367 Y7.0109
G01 X8.6625 Y6.9673
G01 X8.6686 Y6.9577
G01 X8.6752 Y6.9484
G01 X8.7056 Y6.9079
G01 X8.7394 Y6.8702
G01 X8.7472 Y6.8620
G01 X11.2913 Y4.3180
G01 X11.3288 Y4.2840
G01 X11.3421 Y4.2733
G01 X11.3830 Y4.2434
G01 X11.4263 Y4.2171
G01 X11.4361 Y4.2115
G01 X11.4463 Y4.2064
G01 X11.4922 Y4.1850
G01 X11.5398 Y4.1677
G01 X11.5561 Y4.1625
G01 X11.6107 Y4.1490
G01 X11.6608 Y4.1413
G01 X11.6721 Y4.1399
G01 X11.6834 Y4.1391
G01 X11.7340 Y4.1369
G01 X26.0773 Y4.1369
G01 X27.0506 Y3.1636
G01 X27.0385 Y3.1152
G01 X27.0350 Y3.0985
G01 X27.0189 Y2.9902
G01 X27.0174 Y2.9732
G01 X27.0124 Y2.8695
G01 X27.0126 Y2.8524
G01 X27.0174 Y2.7544
G01 X27.0183 Y2.7430
G01 X27.0196 Y2.7318
G01 X27.0340 Y2.6347
G01 X27.0372 Y2.6179
G01 X27.0623 Y2.5172
G01 X27.0654 Y2.5062
G01 X27.0689 Y2.4954
G01 X27.1020 Y2.4030
G01 X27.1061 Y2.3924
G01 X27.1107 Y2.3820
G01 X27.1526 Y2.2933
G01 X27.1578 Y2.2832
G01 X27.1634 Y2.2733
G01 X27.2138 Y2.1891
G01 X27.2199 Y2.1795
G01 X27.2265 Y2.1702
G01 X27.2849 Y2.0914
G01 X27.2919 Y2.0824
G01 X27.2993 Y2.0738
G01 X27.3652 Y2.0011
G01 X27.3731 Y1.9928
G01 X27.3813 Y1.9850
G01 X27.4540 Y1.9191
G01 X27.4626 Y1.9117
G01 X27.4716 Y1.9047
G01 X27.5504 Y1.8462
G01 X27.5597 Y1.8397
G01 X27.5693 Y1.8336
G01 X27.6535 Y1.7831
G01 X27.6634 Y1.7775
G01 X27.6736 Y1.7724
G01 X27.7623 Y1.7304
G01 X27.7727 Y1.7258
G01 X27.7833 Y1.7217
G01 X27.8757 Y1.6887
G01 X27.8865 Y1.6851
G01 X27.8974 Y1.6821
G01 X27.9926 Y1.6582
G01 X28.0037 Y1.6557
G01 X28.0149 Y1.6538
G01 X28.1120 Y1.6394
G01 X28.1290 Y1.6375
G01 X28.2327 Y1.6324
G01 X28.2440 Y1.6321
G01 X28.2554 Y1.6324
G01 X28.3534 Y1.6372
G01 X28.3648 Y1.6380
G01 X28.3760 Y1.6394
G01 X28.4731 Y1.6538
G01 X28.4843 Y1.6557
G01 X28.4954 Y1.6582
G01 X28.5906 Y1.6821
G01 X28.6016 Y1.6851
G01 X28.6124 Y1.6887
G01 X28.7048 Y1.7217
G01 X28.7154 Y1.7258
G01 X28.7258 Y1.7304
G01 X28.8145 Y1.7724
G01 X28.8246 Y1.7775
G01 X28.8345 Y1.7831
G01 X28.9187 Y1.8336
G01 X28.9283 Y1.8397
G01 X28.9376 Y1.8462
G01 X29.0164 Y1.9047
G01 X29.0254 Y1.9117
G01 X29.0340 Y1.9191
G01 X29.1067 Y1.9850
G01 X29.1150 Y1.9928
G01 X29.1228 Y2.0011
G01 X29.1887 Y2.0738
G01 X29.1961 Y2.0824
G01 X29.2031 Y2.0914
G01 X29.2616 Y2.1702
G01 X29.2681 Y2.1795
G01 X29.2742 Y2.1891
G01 X29.3247 Y2.2733
G01 X29.3303 Y2.2832
G01 X29.3354 Y2.2933
G01 X29.3774 Y2.3820
G01 X29.3820 Y2.3924
G01 X29.3861 Y2.4030
G01 X29.4191 Y2.4954
G01 X29.4227 Y2.5062
G01 X29.4257 Y2.5172
G01 X29.4496 Y2.6124
G01 X29.4521 Y2.6235
G01 X29.4540 Y2.6347
G01 X29.4684 Y2.7318
G01 X29.4698 Y2.7430
G01 X29.4706 Y2.7544
G01 X29.4754 Y2.8524
G01 X29.4757 Y2.8638
G01 X29.4754 Y2.8751
G01 X29.4706 Y2.9732
G01 X29.4698 Y2.9845
G01 X29.4684 Y2.9958
G01 X29.4540 Y3.0929
G01 X29.4521 Y3.1041
G01 X29.4496 Y3.1152
G01 X29.4257 Y3.2104
G01 X29.4227 Y3.2213
G01 X29.4191 Y3.2321
G01 X29.3861 Y3.3245
G01 X29.3797 Y3.3404
G01 X29.3354 Y3.4342
G01 X29.3303 Y3.4444
G01 X29.3247 Y3.4543
G01 X29.2742 Y3.5385
G01 X29.2681 Y3.5481
G01 X29.2616 Y3.5574
G01 X29.2031 Y3.6362
G01 X29.1961 Y3.6452
G01 X29.1887 Y3.6538
G01 X29.1228 Y3.7265
G01 X29.1150 Y3.7347
G01 X29.1067 Y3.7426
G01 X29.0340 Y3.8085
G01 X29.0254 Y3.8159
G01 X29.0164 Y3.8229
G01 X28.9376 Y3.8813
G01 X28.9283 Y3.8879
G01 X28.9187 Y3.8940
G01 X28.8345 Y3.9444
G01 X28.8196 Y3.9527
G01 X28.7258 Y3.9971
G01 X28.7154 Y4.0017
G01 X28.7048 Y4.0058
G01 X28.6124 Y4.0389
G01 X28.6016 Y4.0424
G01 X28.5906 Y4.0455
G01 X28.4954 Y4.0693
G01 X28.4843 Y4.0718
G01 X28.4731 Y4.0738
G01 X28.3704 Y4.0889
G01 X28.3534 Y4.0904
G01 X28.2554 Y4.0952
G01 X28.2440 Y4.0955
G01 X28.2327 Y4.0952
G01 X28.1290 Y4.0900
G01 X28.1120 Y4.0882
G01 X28.0093 Y4.0728
G01 X27.9926 Y4.0693
G01 X27.9442 Y4.0572
G01 X26.7858 Y5.2156
G01 X26.7776 Y5.2234
G01 X26.7442 Y5.2536
G01 X26.7309 Y5.2642
G01 X26.6901 Y5.2942
G01 X26.6468 Y5.3205
G01 X26.6319 Y5.3287
G01 X26.5861 Y5.3503
G01 X26.5702 Y5.3567
G01 X26.5279 Y5.3717
G01 X26.5115 Y5.3765
G01 X26.4734 Y5.3860
G01 X26.4623 Y5.3885
G01 X26.4511 Y5.3905
G01 X26.4010 Y5.3976
G01 X26.3504 Y5.4004
G01 X26.3390 Y5.4007
G01 X11.9958 Y5.4007
G01 X9.8259 Y7.5705
G01 X9.8259 Y25.4620
G01 X12.6308 Y28.2669
G01 X26.0773 Y28.2669
G01 X32.8813 Y21.4630
G01 X32.9232 Y21.4253
G01 X32.9683 Y21.3916
G01 X32.9826 Y21.3823
G01 X33.0163 Y21.3621
G01 X33.0261 Y21.3565
G01 X33.0363 Y21.3514
G01 X33.0822 Y21.3300
G01 X33.1298 Y21.3127
G01 X33.1406 Y21.3091
G01 X33.1897 Y21.2965
G01 X33.2007 Y21.2940
G01 X33.2564 Y21.2855
G01 X33.2734 Y21.2841
G01 X33.3240 Y21.2819
G01 X65.1124 Y21.2819
G01 X65.1126 Y21.2674
G01 X65.1174 Y21.1694
G01 X65.1183 Y21.1580
G01 X65.1196 Y21.1468
G01 X65.1340 Y21.0497
G01 X65.1360 Y21.0385
G01 X65.1385 Y21.0274
G01 X65.1623 Y20.9322
G01 X65.1654 Y20.9212
G01 X65.1689 Y20.9104
G01 X65.2020 Y20.8180
G01 X65.2061 Y20.8074
G01 X65.2107 Y20.7970
G01 X65.2526 Y20.7083
G01 X65.2578 Y20.6982
G01 X65.2634 Y20.6883
G01 X65.3138 Y20.6041
G01 X65.3199 Y20.5945
G01 X65.3265 Y20.5852
G01 X65.3849 Y20.5064
G01 X65.3919 Y20.4974
G01 X65.3993 Y20.4888
G01 X65.4652 Y20.4161
G01 X65.4731 Y20.4078
G01 X65.4813 Y20.4000
G01 X65.5540 Y20.3341
G01 X65.5626 Y20.3267
G01 X65.5716 Y20.3197
G01 X65.6504 Y20.2612
G01 X65.6597 Y20.2547
G01 X65.6693 Y20.2486
G01 X65.7535 Y20.1981
G01 X65.7634 Y20.1925
G01 X65.7736 Y20.1874
G01 X65.8623 Y20.1454
G01 X65.8727 Y20.1408
G01 X65.8833 Y20.1367
G01 X65.9757 Y20.1037
G01 X65.9865 Y20.1001
G01 X65.9974 Y20.0971
G01 X66.0926 Y20.0732
G01 X66.1037 Y20.0707
G01 X66.1149 Y20.0688
G01 X66.2120 Y20.0544
G01 X66.2233 Y20.0530
G01 X66.2346 Y20.0522
G01 X66.3327 Y20.0474
G01 X66.3440 Y20.0471
G01 X66.3554 Y20.0474
G01 X66.4534 Y20.0522
G01 X66.4648 Y20.0530
G01 X66.4760 Y20.0544
G01 X66.5731 Y20.0688
G01 X66.5843 Y20.0707
G01 X66.5954 Y20.0732
G01 X66.6906 Y20.0971
G01 X66.7016 Y20.1001
G01 X66.7124 Y20.1037
G01 X66.8048 Y20.1367
G01 X66.8154 Y20.1408
G01 X66.8258 Y20.1454
G01 X66.9145 Y20.1874
G01 X66.9246 Y20.1925
G01 X66.9345 Y20.1981
G01 X67.0187 Y20.2486
G01 X67.0283 Y20.2547
G01 X67.0376 Y20.2612
G01 X67.1164 Y20.3197
G01 X67.1254 Y20.3267
G01 X67.1340 Y20.3341
G01 X67.2067 Y20.4000
G01 X67.2150 Y20.4078
G01 X67.2228 Y20.4161
G01 X67.2887 Y20.4888
G01 X67.2961 Y20.4974
G01 X67.3031 Y20.5064
G01 X67.3616 Y20.5852
G01 X67.3681 Y20.5945
G01 X67.3742 Y20.6041
G01 X67.4247 Y20.6883
G01 X67.4303 Y20.6982
G01 X67.4354 Y20.7083
G01 X67.4774 Y20.7970
G01 X67.4820 Y20.8074
G01 X67.4861 Y20.8180
G01 X67.5191 Y20.9104
G01 X67.5227 Y20.9212
G01 X67.5257 Y20.9322
G01 X67.5496 Y21.0274
G01 X67.5521 Y21.0385
G01 X67.5540 Y21.0497
G01 X67.5684 Y21.1468
G01 X67.5703 Y21.1637
G01 X67.5754 Y21.2674
G01 X67.5757 Y21.2788
G01 X67.5754 Y21.2901
G01 X67.5706 Y21.3882
G01 X67.5698 Y21.3995
G01 X67.5684 Y21.4108
G01 X67.5540 Y21.5079
G01 X67.5521 Y21.5191
G01 X67.5496 Y21.5302
G01 X67.5257 Y21.6254
G01 X67.5227 Y21.6363
G01 X67.5191 Y21.6471
G01 X67.4861 Y21.7395
G01 X67.4820 Y21.7501
G01 X67.4774 Y21.7605
G01 X67.4354 Y21.8492
G01 X67.4303 Y21.8594
G01 X67.4247 Y21.8693
G01 X67.3742 Y21.9535
G01 X67.3681 Y21.9631
G01 X67.3616 Y21.9724
G01 X67.3031 Y22.0512
G01 X67.2961 Y22.0602
G01 X67.2887 Y22.0688
G01 X67.2228 Y22.1415
G01 X67.2150 Y22.1497
G01 X67.2067 Y22.1576
G01 X67.1340 Y22.2235
G01 X67.1254 Y22.2309
G01 X67.1164 Y22.2379
G01 X67.0376 Y22.2963
G01 X67.0283 Y22.3029
G01 X67.0187 Y22.3090
G01 X66.9345 Y22.3594
G01 X66.9246 Y22.3650
G01 X66.9145 Y22.3702
G01 X66.8258 Y22.4121
G01 X66.8154 Y22.4167
G01 X66.8048 Y22.4208
G01 X66.7124 Y22.4539
G01 X66.7016 Y22.4574
G01 X66.6906 Y22.4605
G01 X66.5899 Y22.4856
G01 X66.5731 Y22.4888
G01 X66.4760 Y22.5032
G01 X66.4648 Y22.5045
G01 X66.4534 Y22.5054
G01 X66.3554 Y22.5102
G01 X66.3383 Y22.5104
G01 X66.2346 Y22.5054
G01 X66.2233 Y22.5045
G01 X66.2120 Y22.5032
G01 X66.1149 Y22.4888
G01 X66.1037 Y22.4868
G01 X66.0170 Y22.4654
G01 X66.0069 Y22.4711
G01 X65.9967 Y22.4762
G01 X65.9508 Y22.4976
G01 X65.9033 Y22.5149
G01 X65.8870 Y22.5200
G01 X65.8379 Y22.5324
G01 X65.8211 Y22.5355
G01 X65.7710 Y22.5426
G01 X65.7204 Y22.5454
G01 X65.7090 Y22.5457
G01 X33.5858 Y22.5457
G01 X26.7818 Y29.3496
G01 X26.7399 Y29.3872
G01 X26.6994 Y29.4176
G01 X26.6901 Y29.4242
G01 X26.6805 Y29.4303
G01 X26.6369 Y29.4561
G01 X26.5912 Y29.4780
G01 X26.5756 Y29.4847
G01 X26.5333 Y29.4999
G01 X26.5225 Y29.5035
G01 X26.5115 Y29.5065
G01 X26.4734 Y29.5160
G01 X26.4567 Y29.5196
G01 X26.4122 Y29.5262
G01 X26.3953 Y29.5281
G01 X26.3390 Y29.5307
G01 X12.3690 Y29.5307
G01 X12.3577 Y29.5304
G01 X12.3071 Y29.5276
G01 X12.2570 Y29.5205
G01 X12.2457 Y29.5185
G01 X12.1966 Y29.5065
G01 X12.1856 Y29.5035
G01 X12.1748 Y29.4999
G01 X12.1272 Y29.4826
G01 X12.1168 Y29.4780
G01 X12.0711 Y29.4561
G01 X12.0276 Y29.4303
G01 X12.0180 Y29.4242
G01 X12.0087 Y29.4176
G01 X11.9682 Y29.3872
G01 X11.9263 Y29.3496
G01 X8.7472 Y26.1706
G01 X8.7394 Y26.1624
G01 X8.7056 Y26.1246
G01 X8.6752 Y26.0841
G01 X8.6655 Y26.0701
G01 X8.6423 Y26.0315
G01 X8.6367 Y26.0217
G01 X8.6316 Y26.0115
G01 X8.6102 Y25.9656
G01 X8.5929 Y25.9180
G01 X8.5893 Y25.9072
G01 X8.5768 Y25.8581
G01 X8.5743 Y25.8471
G01 X8.5723 Y25.8358
G01 X8.5652 Y25.7857
G00 Z2.0000
G00 X8.5172 Y25.6424
G01 F30.00
G01 Z-0.0900
G01 F60.00
G01 X8.5172 Y7.3902
G01 X8.5169 Y7.3781
G01 X8.5144 Y7.3458
G01 X8.5167 Y7.3004
G01 X8.5172 Y7.2733
G01 X8.5196 Y7.2463
G01 X8.5220 Y7.2009
G01 X8.5279 Y7.1687
G01 X8.5456 Y7.1133
G01 X8.5591 Y7.0635
G01 X8.5716 Y7.0332
G01 X8.6005 Y6.9828
G01 X8.6239 Y6.9368
G01 X8.6425 Y6.9098
G01 X8.6729 Y6.8760
G01 X8.6904 Y6.8553
G01 X8.7092 Y6.8358
G01 X8.7396 Y6.8020
G01 X8.7642 Y6.7810
G01 X8.7730 Y6.7726
G01 X11.1979 Y4.3478
G01 X11.2062 Y4.3390
G01 X11.2272 Y4.3144
G01 X11.2610 Y4.2839
G01 X11.2805 Y4.2651
G01 X11.3013 Y4.2477
G01 X11.3351 Y4.2172
G01 X11.3621 Y4.1987
G01 X11.4080 Y4.1752
G01 X11.4585 Y4.1464
G01 X11.4888 Y4.1338
G01 X11.5448 Y4.1185
G01 X11.5939 Y4.1027
G01 X11.6261 Y4.0967
G01 X11.6715 Y4.0943
G01 X11.6986 Y4.0920
G01 X11.7257 Y4.0915
G01 X11.7711 Y4.0891
G01 X11.8033 Y4.0917
G01 X11.8154 Y4.0920
G01 X25.9105 Y4.0920
G01 X25.9291 Y4.0912
G01 X25.9733 Y4.0863
G01 X25.9901 Y4.0830
G01 X26.0011 Y4.0801
G01 X26.0119 Y4.0767
G01 X26.0279 Y4.0707
G01 X26.0433 Y4.0634
G01 X26.1202 Y4.0212
G01 X26.1295 Y4.0153
G01 X26.1385 Y4.0089
G01 X26.1471 Y4.0020
G01 X26.1555 Y3.9948
G01 X26.1635 Y3.9872
G01 X26.8703 Y3.2804
G01 X26.8781 Y3.2722
G01 X26.8890 Y3.2592
G01 X26.9143 Y3.2252
G01 X26.9238 Y3.2115
G01 X26.9296 Y3.2020
G01 X26.9373 Y3.1872
G01 X26.9440 Y3.1719
G01 X26.9495 Y3.1562
G01 X26.9526 Y3.1455
G01 X26.9551 Y3.1347
G01 X26.9697 Y3.0652
G01 X26.9725 Y3.0489
G01 X26.9738 Y3.0379
G01 X26.9745 Y3.0269
G01 X26.9747 Y3.0159
G01 X26.9743 Y3.0049
G01 X26.9633 Y2.8638
G01 X26.9790 Y2.6634
G01 X27.0260 Y2.4680
G01 X27.1029 Y2.2823
G01 X27.1605 Y2.1883
G01 X27.2079 Y2.1110
G01 X27.3384 Y1.9581
G01 X27.4912 Y1.8276
G01 X27.6626 Y1.7226
G01 X27.8483 Y1.6457
G01 X28.0437 Y1.5988
G01 X28.2440 Y1.5830
G01 X28.4444 Y1.5988
G01 X28.6398 Y1.6457
G01 X28.8255 Y1.7226
G01 X28.9968 Y1.8276
G01 X29.1497 Y1.9581
G01 X29.2802 Y2.1110
G01 X29.3852 Y2.2823
G01 X29.4621 Y2.4680
G01 X29.5090 Y2.6634
G01 X29.5248 Y2.8638
G01 X29.5090 Y3.0641
G01 X29.4621 Y3.2596
G01 X29.3852 Y3.4452
G01 X29.2802 Y3.6166
G01 X29.1497 Y3.7694
G01 X28.9968 Y3.8999
G01 X28.8255 Y4.0049
G01 X28.6398 Y4.0818
G01 X28.4444 Y4.1288
G01 X28.2440 Y4.1445
G01 X28.1084 Y4.1339
G01 X28.0971 Y4.1332
G01 X28.0858 Y4.1332
G01 X28.0745 Y4.1337
G01 X28.0323 Y4.1366
G01 X28.0158 Y4.1387
G01 X27.9994 Y4.1420
G01 X27.9834 Y4.1465
G01 X27.9677 Y4.1521
G01 X27.9574 Y4.1565
G01 X27.9425 Y4.1640
G01 X27.8707 Y4.2035
G01 X27.8569 Y4.2126
G01 X27.8480 Y4.2192
G01 X27.8395 Y4.2262
G01 X27.8274 Y4.2375
G01 X26.8752 Y5.1898
G01 X26.8668 Y5.1986
G01 X26.8458 Y5.2232
G01 X26.8120 Y5.2536
G01 X26.7925 Y5.2724
G01 X26.7718 Y5.2899
G01 X26.7380 Y5.3203
G01 X26.7110 Y5.3389
G01 X26.6650 Y5.3623
G01 X26.6146 Y5.3912
G01 X26.5843 Y5.4037
G01 X26.5345 Y5.4172
G01 X26.4791 Y5.4349
G01 X26.4469 Y5.4408
G01 X26.4015 Y5.4432
G01 X26.3745 Y5.4456
G01 X26.3474 Y5.4461
G01 X26.3020 Y5.4484
G01 X26.2697 Y5.4459
G01 X26.2576 Y5.4456
G01 X12.1625 Y5.4456
G01 X12.1439 Y5.4463
G01 X12.1053 Y5.4505
G01 X12.0941 Y5.4522
G01 X12.0830 Y5.4545
G01 X12.0665 Y5.4590
G01 X12.0557 Y5.4627
G01 X12.0452 Y5.4669
G01 X12.0297 Y5.4741
G01 X11.9528 Y5.5163
G01 X11.9436 Y5.5223
G01 X11.9302 Y5.5321
G01 X11.9217 Y5.5391
G01 X11.9135 Y5.5465
G01 X9.9756 Y7.4843
G01 X9.9671 Y7.4933
G01 X9.9590 Y7.5028
G01 X9.9386 Y7.5282
G01 X9.9287 Y7.5422
G01 X9.9199 Y7.5568
G01 X9.9122 Y7.5720
G01 X9.9056 Y7.5877
G01 X9.9002 Y7.6039
G01 X9.8802 Y7.6720
G01 X9.8761 Y7.6880
G01 X9.8732 Y7.7043
G01 X9.8719 Y7.7153
G01 X9.8711 Y7.7263
G01 X9.8708 Y7.7373
G01 X9.8708 Y25.2953
G01 X9.8716 Y25.3139
G01 X9.8757 Y25.3525
G01 X9.8786 Y25.3693
G01 X9.8812 Y25.3804
G01 X9.8843 Y25.3913
G01 X9.8900 Y25.4074
G01 X9.8944 Y25.4178
G01 X9.8994 Y25.4281
G01 X9.9416 Y25.5050
G01 X9.9475 Y25.5142
G01 X9.9539 Y25.5232
G01 X9.9608 Y25.5319
G01 X9.9717 Y25.5443
G01 X12.5446 Y28.1172
G01 X12.5583 Y28.1298
G01 X12.5930 Y28.1576
G01 X12.6024 Y28.1641
G01 X12.6121 Y28.1701
G01 X12.6220 Y28.1756
G01 X12.6322 Y28.1806
G01 X12.6480 Y28.1872
G01 X12.6641 Y28.1926
G01 X12.7376 Y28.2141
G01 X12.7537 Y28.2178
G01 X12.7646 Y28.2196
G01 X12.7810 Y28.2214
G01 X12.7975 Y28.2220
G01 X25.9105 Y28.2220
G01 X25.9291 Y28.2212
G01 X25.9733 Y28.2163
G01 X25.9901 Y28.2130
G01 X26.0011 Y28.2101
G01 X26.0119 Y28.2067
G01 X26.0279 Y28.2007
G01 X26.0433 Y28.1934
G01 X26.1155 Y28.1540
G01 X26.1249 Y28.1483
G01 X26.1385 Y28.1389
G01 X26.1513 Y28.1285
G01 X26.1635 Y28.1172
G01 X32.5845 Y21.6962
G01 X32.6002 Y21.6794
G01 X32.6076 Y21.6707
G01 X32.6145 Y21.6616
G01 X32.6240 Y21.6473
G01 X32.6298 Y21.6374
G01 X32.6351 Y21.6272
G01 X32.6693 Y21.5522
G01 X32.6755 Y21.5361
G01 X32.6790 Y21.5251
G01 X32.6831 Y21.5083
G01 X32.6852 Y21.4970
G01 X32.6867 Y21.4856
G01 X32.6878 Y21.4684
G01 X32.6877 Y21.4511
G01 X32.6869 Y21.4397
G01 X32.6856 Y21.4282
G01 X32.6746 Y21.3523
G01 X32.6724 Y21.3410
G01 X32.6696 Y21.3298
G01 X32.6663 Y21.3188
G01 X32.6625 Y21.3079
G01 X32.6557 Y21.2921
G01 X32.6477 Y21.2767
G01 X32.6387 Y21.2621
G01 X32.6321 Y21.2527
G01 X32.6250 Y21.2436
G01 X32.5748 Y21.1855
G01 X32.5670 Y21.1770
G01 X32.5588 Y21.1689
G01 X32.5459 Y21.1575
G01 X32.5368 Y21.1505
G01 X32.5225 Y21.1408
G01 X32.5126 Y21.1350
G01 X32.4972 Y21.1271
G01 X32.4813 Y21.1204
G01 X32.4704 Y21.1167
G01 X32.3861 Y21.0921
G01 X32.3754 Y21.0898
G01 X32.3645 Y21.0879
G01 X32.3481 Y21.0862
G01 X32.3370 Y21.0856
G01 X30.6898 Y21.0856
G01 X30.6537 Y21.0793
G01 X30.6378 Y21.0771
G01 X30.5963 Y21.0733
G01 X30.5609 Y21.0638
G01 X30.5453 Y21.0603
G01 X30.5043 Y21.0529
G01 X30.4698 Y21.0404
G01 X30.4546 Y21.0355
G01 X30.4143 Y21.0245
G01 X30.3811 Y21.0091
G01 X30.3663 Y21.0029
G01 X30.3272 Y20.9884
G01 X30.2955 Y20.9701
G01 X30.2813 Y20.9627
G01 X30.2436 Y20.9449
G01 X30.2093 Y20.9211
G01 X30.1957 Y20.9126
G01 X30.1640 Y20.8942
G01 X30.1360 Y20.8707
G01 X30.1233 Y20.8609
G01 X30.0892 Y20.8368
G01 X27.2678 Y18.0153
G01 X27.2541 Y18.0027
G01 X27.2193 Y17.9750
G01 X27.2100 Y17.9685
G01 X27.2003 Y17.9625
G01 X27.1904 Y17.9570
G01 X27.1802 Y17.9519
G01 X27.1697 Y17.9474
G01 X27.1537 Y17.9416
G01 X27.0748 Y17.9185
G01 X27.0641 Y17.9159
G01 X27.0478 Y17.9129
G01 X27.0314 Y17.9112
G01 X27.0204 Y17.9106
G01 X24.3398 Y17.9106
G01 X24.3037 Y17.9043
G01 X24.2878 Y17.9021
G01 X24.2463 Y17.8983
G01 X24.2109 Y17.8888
G01 X24.1953 Y17.8853
G01 X24.1543 Y17.8779
G01 X24.1198 Y17.8654
G01 X24.1046 Y17.8605
G01 X24.0643 Y17.8495
G01 X24.0311 Y17.8341
G01 X24.0163 Y17.8279
G01 X23.9772 Y17.8134
G01 X23.9455 Y17.7951
G01 X23.9313 Y17.7877
G01 X23.8936 Y17.7699
G01 X23.8593 Y17.7461
G01 X23.8457 Y17.7376
G01 X23.8140 Y17.7192
G01 X23.7860 Y17.6957
G01 X23.7733 Y17.6859
G01 X23.7392 Y17.6618
G01 X22.3360 Y16.2586
G01 X22.3119 Y16.2245
G01 X22.3021 Y16.2119
G01 X22.2786 Y16.1838
G01 X22.2602 Y16.1521
G01 X22.2517 Y16.1385
G01 X22.2279 Y16.1042
G01 X22.2101 Y16.0665
G01 X22.2026 Y16.0523
G01 X22.1844 Y16.0206
G01 X22.1699 Y15.9815
G01 X22.1637 Y15.9667
G01 X22.1483 Y15.9335
G01 X22.1373 Y15.8932
G01 X22.1324 Y15.8780
G01 X22.1199 Y15.8435
G01 X22.1125 Y15.8025
G01 X22.1090 Y15.7869
G01 X22.0995 Y15.7515
G01 X22.0957 Y15.7100
G01 X22.0935 Y15.6941
G01 X22.0872 Y15.6580
G01 X22.0872 Y14.7083
G01 X22.0869 Y14.6968
G01 X22.0861 Y14.6854
G01 X22.0847 Y14.6740
G01 X22.0827 Y14.6627
G01 X22.0801 Y14.6515
G01 X22.0770 Y14.6404
G01 X22.0554 Y14.5698
G01 X22.0499 Y14.5538
G01 X22.0455 Y14.5434
G01 X22.0381 Y14.5283
G01 X22.0325 Y14.5185
G01 X22.0233 Y14.5043
G01 X22.0131 Y14.4909
G01 X22.0058 Y14.4823
G01 X21.9980 Y14.4742
G01 X21.9857 Y14.4627
G01 X21.9222 Y14.4102
G01 X21.9129 Y14.4033
G01 X21.9034 Y14.3969
G01 X21.8885 Y14.3882
G01 X21.8730 Y14.3806
G01 X21.8623 Y14.3762
G01 X21.8515 Y14.3724
G01 X21.8349 Y14.3676
G01 X21.8180 Y14.3641
G01 X21.8066 Y14.3624
G01 X21.7304 Y14.3534
G01 X21.7189 Y14.3526
G01 X21.7074 Y14.3524
G01 X21.6902 Y14.3531
G01 X21.6730 Y14.3551
G01 X21.6561 Y14.3584
G01 X21.6395 Y14.3629
G01 X21.6232 Y14.3687
G01 X21.6074 Y14.3756
G01 X21.5435 Y14.4067
G01 X21.5333 Y14.4120
G01 X21.5234 Y14.4177
G01 X21.5090 Y14.4273
G01 X21.4954 Y14.4379
G01 X21.4826 Y14.4496
G01 X21.4746 Y14.4578
G01 X21.4670 Y14.4665
G01 X21.4565 Y14.4801
G01 X21.4500 Y14.4896
G01 X21.4072 Y14.5599
G01 X21.4019 Y14.5695
G01 X21.3971 Y14.5795
G01 X21.3907 Y14.5947
G01 X21.3855 Y14.6104
G01 X21.3804 Y14.6291
G01 X21.3082 Y14.7840
G01 X21.2102 Y14.9240
G01 X21.0893 Y15.0449
G01 X20.9493 Y15.1429
G01 X20.7944 Y15.2152
G01 X20.6293 Y15.2594
G01 X20.4590 Y15.2743
G01 X20.2888 Y15.2594
G01 X20.1237 Y15.2152
G01 X19.9688 Y15.1429
G01 X19.8288 Y15.0449
G01 X19.7079 Y14.9240
G01 X19.6099 Y14.7840
G01 X19.5376 Y14.6291
G01 X19.4934 Y14.4640
G01 X19.4785 Y14.2938
G01 X19.4934 Y14.1235
G01 X19.5376 Y13.9584
G01 X19.6099 Y13.8035
G01 X19.7079 Y13.6635
G01 X19.8288 Y13.5426
G01 X19.9688 Y13.4446
G01 X20.1237 Y13.3724
G01 X20.2888 Y13.3281
G01 X20.4590 Y13.3132
G01 X20.6293 Y13.3281
G01 X20.7944 Y13.3724
G01 X20.9493 Y13.4446
G01 X21.0893 Y13.5426
G01 X21.2102 Y13.6635
G01 X21.3082 Y13.8035
G01 X21.3804 Y13.9584
G01 X21.3856 Y13.9773
G01 X21.3891 Y13.9883
G01 X21.3954 Y14.0043
G01 X21.4002 Y14.0147
G01 X21.4056 Y14.0249
G01 X21.4114 Y14.0348
G01 X21.4537 Y14.1021
G01 X21.4601 Y14.1114
G01 X21.4706 Y14.1246
G01 X21.4820 Y14.1371
G01 X21.4942 Y14.1487
G01 X21.5073 Y14.1593
G01 X21.5212 Y14.1690
G01 X21.5357 Y14.1776
G01 X21.5508 Y14.1852
G01 X21.6153 Y14.2147
G01 X21.6313 Y14.2213
G01 X21.6422 Y14.2250
G01 X21.6588 Y14.2296
G01 X21.6701 Y14.2319
G01 X21.6815 Y14.2337
G01 X21.6987 Y14.2353
G01 X21.7102 Y14.2356
G01 X21.7217 Y14.2354
G01 X21.7331 Y14.2346
G01 X21.7446 Y14.2333
G01 X21.8205 Y14.2223
G01 X21.8318 Y14.2201
G01 X21.8430 Y14.2173
G01 X21.8540 Y14.2140
G01 X21.8649 Y14.2102
G01 X21.8755 Y14.2058
G01 X21.8859 Y14.2009
G01 X21.8961 Y14.1955
G01 X21.9059 Y14.1895
G01 X21.9155 Y14.1831
G01 X21.9292 Y14.1727
G01 X21.9873 Y14.1225
G01 X21.9999 Y14.1107
G01 X22.0078 Y14.1023
G01 X22.0188 Y14.0891
G01 X22.0256 Y14.0798
G01 X22.0320 Y14.0702
G01 X22.0378 Y14.0603
G01 X22.0432 Y14.0501
G01 X22.0480 Y14.0397
G01 X22.0524 Y14.0290
G01 X22.0578 Y14.0126
G01 X22.0807 Y13.9339
G01 X22.0830 Y13.9231
G01 X22.0849 Y13.9122
G01 X22.0862 Y13.9013
G01 X22.0872 Y13.8847
G01 X22.0872 Y11.6596
G01 X22.0935 Y11.6235
G01 X22.0957 Y11.6076
G01 X22.0995 Y11.5661
G01 X22.1090 Y11.5307
G01 X22.1125 Y11.5150
G01 X22.1199 Y11.4740
G01 X22.1324 Y11.4396
G01 X22.1373 Y11.4243
G01 X22.1483 Y11.3841
G01 X22.1637 Y11.3509
G01 X22.1699 Y11.3361
G01 X22.1844 Y11.2970
G01 X22.2027 Y11.2652
G01 X22.2101 Y11.2510
G01 X22.2279 Y11.2133
G01 X22.2517 Y11.1790
G01 X22.2602 Y11.1655
G01 X22.2786 Y11.1338
G01 X22.3021 Y11.1057
G01 X22.3119 Y11.0930
G01 X22.3360 Y11.0590
G01 X23.2312 Y10.1637
G01 X23.2653 Y10.1396
G01 X23.2779 Y10.1298
G01 X23.3060 Y10.1063
G01 X23.3420 Y10.0853
G01 X23.3555 Y10.0766
G01 X23.3856 Y10.0557
G01 X23.4233 Y10.0379
G01 X23.4375 Y10.0304
G01 X23.4692 Y10.0121
G01 X23.5036 Y9.9996
G01 X23.5185 Y9.9935
G01 X23.5563 Y9.9760
G01 X23.5917 Y9.9665
G01 X23.6070 Y9.9617
G01 X23.6463 Y9.9477
G01 X23.6873 Y9.9402
G01 X23.7029 Y9.9367
G01 X23.7383 Y9.9273
G01 X23.7798 Y9.9234
G01 X23.7957 Y9.9213
G01 X23.8318 Y9.9150
G01 X24.9389 Y9.9150
G01 X24.9616 Y9.9142
G01 X24.9726 Y9.9134
G01 X24.9836 Y9.9121
G01 X24.9944 Y9.9103
G01 X25.0052 Y9.9079
G01 X25.0211 Y9.9035
G01 X25.0366 Y9.8979
G01 X25.1079 Y9.8694
G01 X25.1235 Y9.8620
G01 X25.1385 Y9.8535
G01 X25.1528 Y9.8439
G01 X25.1664 Y9.8332
G01 X25.1750 Y9.8256
G01 X25.1832 Y9.8175
G01 X25.1910 Y9.8090
G01 X25.1984 Y9.8002
G01 X25.2053 Y9.7910
G01 X25.2498 Y9.7285
G01 X25.2589 Y9.7139
G01 X25.2670 Y9.6986
G01 X25.2717 Y9.6881
G01 X25.2777 Y9.6719
G01 X25.2811 Y9.6609
G01 X25.2839 Y9.6498
G01 X25.2862 Y9.6385
G01 X25.2879 Y9.6271
G01 X25.2894 Y9.6099
G01 X25.2928 Y9.5390
G01 X25.2930 Y9.5217
G01 X25.2919 Y9.5045
G01 X25.2896 Y9.4874
G01 X25.2859 Y9.4705
G01 X25.2811 Y9.4540
G01 X25.2771 Y9.4432
G01 X25.2727 Y9.4326
G01 X25.2677 Y9.4222
G01 X25.2268 Y9.3506
G01 X25.2210 Y9.3411
G01 X25.2149 Y9.3320
G01 X25.2048 Y9.3189
G01 X25.1938 Y9.3065
G01 X25.1565 Y9.2704
G01 X25.0351 Y9.1088
G01 X24.9460 Y8.9375
G01 X24.9995 Y8.9375
G01 X25.0290 Y8.9998
G01 X25.0369 Y9.0150
G01 X25.0878 Y9.1001
G01 X25.0971 Y9.1144
G01 X25.1561 Y9.1941
G01 X25.1631 Y9.2030
G01 X25.2333 Y9.2809
G01 X25.2412 Y9.2891
G01 X25.3187 Y9.3597
G01 X25.3273 Y9.3672
G01 X25.3362 Y9.3742
G01 X25.4206 Y9.4364
G01 X25.4302 Y9.4425
G01 X25.5153 Y9.4934
G01 X25.5305 Y9.5013
G01 X25.6150 Y9.5412
G01 X25.6254 Y9.5458
G01 X25.6360 Y9.5499
G01 X25.7348 Y9.5850
G01 X25.7457 Y9.5880
G01 X25.8419 Y9.6120
G01 X25.8587 Y9.6152
G01 X25.9512 Y9.6289
G01 X25.9681 Y9.6308
G01 X26.0728 Y9.6359
G01 X26.1735 Y9.6360
G01 X26.2783 Y9.6311
G01 X26.2896 Y9.6303
G01 X26.3009 Y9.6289
G01 X26.4046 Y9.6132
G01 X26.4156 Y9.6107
G01 X26.5173 Y9.5850
G01 X26.6161 Y9.5499
G01 X26.6267 Y9.5458
G01 X26.6371 Y9.5412
G01 X26.7318 Y9.4961
G01 X26.7416 Y9.4905
G01 X26.8267 Y9.4395
G01 X26.8407 Y9.4299
G01 X26.9158 Y9.3742
G01 X26.9248 Y9.3672
G01 X26.9334 Y9.3597
G01 X27.0109 Y9.2891
G01 X27.0187 Y9.2809
G01 X27.0853 Y9.2074
G01 X27.0959 Y9.1941
G01 X27.1516 Y9.1190
G01 X27.1613 Y9.1049
G01 X27.2123 Y9.0199
G01 X27.2179 Y9.0100
G01 X27.2525 Y8.9375
G01 X27.3052 Y8.9375
G01 X27.2982 Y8.9572
G01 X27.2005 Y9.1341
G01 X27.0753 Y9.2927
G01 X26.9238 Y9.4305
G01 X26.9117 Y9.4401
G01 X26.8788 Y9.4683
G01 X26.8707 Y9.4762
G01 X26.8630 Y9.4844
G01 X26.8523 Y9.4975
G01 X26.8457 Y9.5066
G01 X26.8367 Y9.5209
G01 X26.8287 Y9.5358
G01 X26.7975 Y9.5995
G01 X26.7927 Y9.6100
G01 X26.7884 Y9.6206
G01 X26.7830 Y9.6370
G01 X26.7800 Y9.6482
G01 X26.7777 Y9.6594
G01 X26.7758 Y9.6708
G01 X26.7746 Y9.6822
G01 X26.7739 Y9.6937
G01 X26.7738 Y9.7052
G01 X26.7743 Y9.7167
G01 X26.7753 Y9.7282
G01 X26.7835 Y9.7987
G01 X26.7861 Y9.8157
G01 X26.7886 Y9.8270
G01 X26.7916 Y9.8381
G01 X26.7951 Y9.8490
G01 X26.7992 Y9.8598
G01 X26.8039 Y9.8703
G01 X26.8090 Y9.8806
G01 X26.8146 Y9.8907
G01 X26.8240 Y9.9051
G01 X26.8345 Y9.9189
G01 X26.8795 Y9.9738
G01 X26.8867 Y9.9822
G01 X26.8942 Y9.9902
G01 X26.9022 Y9.9978
G01 X26.9148 Y10.0085
G01 X26.9236 Y10.0152
G01 X26.9498 Y10.0331
G01 X27.0960 Y10.1728
G01 X27.2173 Y10.3345
G01 X27.3107 Y10.5138
G01 X27.3735 Y10.7059
G01 X27.4040 Y10.9057
G01 X27.4016 Y11.1079
G01 X27.3661 Y11.3069
G01 X27.2986 Y11.4974
G01 X27.2010 Y11.6744
G01 X27.1124 Y11.7866
G01 X27.1050 Y11.7972
G01 X27.0903 Y11.8195
G01 X27.0845 Y11.8293
G01 X27.0767 Y11.8445
G01 X27.0700 Y11.8603
G01 X27.0662 Y11.8710
G01 X27.0630 Y11.8820
G01 X27.0603 Y11.8930
G01 X27.0429 Y11.9737
G01 X27.0406 Y11.9908
G01 X27.0397 Y12.0080
G01 X27.0401 Y12.0253
G01 X27.0417 Y12.0425
G01 X27.0435 Y12.0538
G01 X27.0458 Y12.0651
G01 X27.0504 Y12.0817
G01 X27.0541 Y12.0926
G01 X27.0831 Y12.1699
G01 X27.0879 Y12.1803
G01 X27.0932 Y12.1905
G01 X27.0990 Y12.2005
G01 X27.1053 Y12.2101
G01 X27.1156 Y12.2239
G01 X27.1270 Y12.2370
G01 X27.1392 Y12.2491
G01 X27.1524 Y12.2603
G01 X27.2181 Y12.3097
G01 X27.2272 Y12.3159
G01 X27.2367 Y12.3217
G01 X27.2463 Y12.3270
G01 X27.2592 Y12.3331
G01 X27.3238 Y12.3815
G01 X27.3713 Y12.4450
G01 X27.4006 Y12.5230
G01 X27.4028 Y12.5437
G01 X27.4028 Y14.5199
G01 X27.4006 Y14.5406
G01 X27.3713 Y14.6186
G01 X27.3238 Y14.6820
G01 X27.2603 Y14.7296
G01 X27.1823 Y14.7588
G01 X27.1616 Y14.7611
G01 X25.0904 Y14.7611
G01 X25.0697 Y14.7588
G01 X24.9917 Y14.7296
G01 X24.9283 Y14.6820
G01 X24.8810 Y14.6191
G01 X24.8689 Y14.6050
G01 X24.8466 Y14.5812
G01 X24.8343 Y14.5695
G01 X24.8211 Y14.5587
G01 X24.8072 Y14.5489
G01 X24.7925 Y14.5402
G01 X24.7773 Y14.5325
G01 X24.7074 Y14.5007
G01 X24.6913 Y14.4945
G01 X24.6748 Y14.4895
G01 X24.6636 Y14.4869
G01 X24.6523 Y14.4849
G01 X24.6409 Y14.4834
G01 X24.6294 Y14.4824
G01 X24.6179 Y14.4821
G01 X24.6064 Y14.4823
G01 X24.5949 Y14.4831
G01 X24.5835 Y14.4844
G01 X24.5132 Y14.4945
G01 X24.5019 Y14.4965
G01 X24.4906 Y14.4989
G01 X24.4740 Y14.5037
G01 X24.4578 Y14.5097
G01 X24.4421 Y14.5168
G01 X24.4320 Y14.5223
G01 X24.4173 Y14.5313
G01 X24.4079 Y14.5380
G01 X24.3988 Y14.5451
G01 X24.3408 Y14.5953
G01 X24.3323 Y14.6030
G01 X24.3203 Y14.6154
G01 X24.3092 Y14.6287
G01 X24.2992 Y14.6427
G01 X24.2931 Y14.6524
G01 X24.2875 Y14.6625
G01 X24.2824 Y14.6728
G01 X24.2778 Y14.6834
G01 X24.2719 Y14.6996
G01 X24.2487 Y14.7785
G01 X24.2461 Y14.7892
G01 X24.2440 Y14.8001
G01 X24.2419 Y14.8165
G01 X24.2411 Y14.8275
G01 X24.2408 Y14.8385
G01 X24.2409 Y14.9758
G01 X24.2422 Y14.9944
G01 X24.2457 Y15.0268
G01 X24.2475 Y15.0380
G01 X24.2512 Y15.0547
G01 X24.2561 Y15.0710
G01 X24.2600 Y15.0817
G01 X24.2668 Y15.0973
G01 X24.2720 Y15.1074
G01 X24.3116 Y15.1793
G01 X24.3175 Y15.1886
G01 X24.3239 Y15.1975
G01 X24.3343 Y15.2104
G01 X24.3456 Y15.2225
G01 X24.7797 Y15.6565
G01 X24.7937 Y15.6688
G01 X24.8237 Y15.6926
G01 X24.8379 Y15.7021
G01 X24.8477 Y15.7079
G01 X24.8578 Y15.7132
G01 X24.8733 Y15.7201
G01 X24.8894 Y15.7259
G01 X24.9682 Y15.7491
G01 X24.9790 Y15.7517
G01 X24.9952 Y15.7546
G01 X25.0117 Y15.7564
G01 X25.0282 Y15.7570
G01 X27.7032 Y15.7570
G01 X27.7393 Y15.7633
G01 X27.7552 Y15.7654
G01 X27.7967 Y15.7693
G01 X27.8321 Y15.7787
G01 X27.8478 Y15.7822
G01 X27.8888 Y15.7897
G01 X27.9232 Y15.8022
G01 X27.9385 Y15.8070
G01 X27.9787 Y15.8180
G01 X28.0166 Y15.8355
G01 X28.0314 Y15.8416
G01 X28.0658 Y15.8541
G01 X28.0976 Y15.8724
G01 X28.1118 Y15.8799
G01 X28.1495 Y15.8977
G01 X28.1838 Y15.9214
G01 X28.1973 Y15.9300
G01 X28.2290 Y15.9483
G01 X28.2571 Y15.9718
G01 X28.2698 Y15.9816
G01 X28.3038 Y16.0057
G01 X28.6295 Y16.3314
G01 X28.6506 Y16.3509
G01 X28.6596 Y16.3581
G01 X28.6688 Y16.3648
G01 X28.6834 Y16.3740
G01 X28.6934 Y16.3795
G01 X28.7683 Y16.4140
G01 X28.7788 Y16.4185
G01 X28.7896 Y16.4225
G01 X28.8006 Y16.4259
G01 X28.8118 Y16.4288
G01 X28.8230 Y16.4312
G01 X28.8344 Y16.4330
G01 X28.8458 Y16.4342
G01 X28.8573 Y16.4348
G01 X28.8688 Y16.4349
G01 X28.8861 Y16.4339
G01 X28.8975 Y16.4326
G01 X28.9735 Y16.4216
G01 X28.9847 Y16.4194
G01 X28.9959 Y16.4166
G01 X29.0124 Y16.4114
G01 X29.0231 Y16.4073
G01 X29.0337 Y16.4027
G01 X29.0490 Y16.3947
G01 X29.0637 Y16.3857
G01 X29.0731 Y16.3790
G01 X29.0821 Y16.3719
G01 X29.1402 Y16.3217
G01 X29.1487 Y16.3140
G01 X29.1568 Y16.3058
G01 X29.1645 Y16.2973
G01 X29.1718 Y16.2883
G01 X29.1818 Y16.2743
G01 X29.1908 Y16.2596
G01 X29.1961 Y16.2494
G01 X29.2010 Y16.2389
G01 X29.2053 Y16.2283
G01 X29.2108 Y16.2119
G01 X29.2336 Y16.1331
G01 X29.2369 Y16.1169
G01 X29.2385 Y16.1060
G01 X29.2396 Y16.0950
G01 X29.2401 Y16.0785
G01 X29.2401 Y5.1275
G01 X49.8588 Y5.1275
G01 X49.8587 Y16.8561
G01 X30.0177 Y16.8561
G01 X29.9947 Y16.8568
G01 X29.9833 Y16.8578
G01 X29.9720 Y16.8593
G01 X29.9551 Y16.8627
G01 X29.9441 Y16.8656
G01 X29.9331 Y16.8691
G01 X29.8612 Y16.8958
G01 X29.8453 Y16.9024
G01 X29.8299 Y16.9102
G01 X29.8200 Y16.9161
G01 X29.8104 Y16.9224
G01 X29.8011 Y16.9292
G01 X29.7921 Y16.9364
G01 X29.7835 Y16.9441
G01 X29.7753 Y16.9522
G01 X29.7638 Y16.9650
G01 X29.7142 Y17.0309
G01 X29.7075 Y17.0403
G01 X29.7013 Y17.0500
G01 X29.6956 Y17.0600
G01 X29.6904 Y17.0702
G01 X29.6857 Y17.0807
G01 X29.6816 Y17.0915
G01 X29.6780 Y17.1024
G01 X29.6736 Y17.1191
G01 X29.6713 Y17.1304
G01 X29.6697 Y17.1418
G01 X29.6635 Y17.2240
G01 X29.6629 Y17.2413
G01 X29.6636 Y17.2585
G01 X29.6648 Y17.2700
G01 X29.6676 Y17.2870
G01 X29.6702 Y17.2982
G01 X29.6733 Y17.3093
G01 X29.6770 Y17.3202
G01 X29.6835 Y17.3362
G01 X29.6885 Y17.3465
G01 X29.7280 Y17.4187
G01 X29.7337 Y17.4281
G01 X29.7431 Y17.4417
G01 X29.7535 Y17.4546
G01 X29.7648 Y17.4667
G01 X31.1297 Y18.8315
G01 X31.1437 Y18.8438
G01 X31.1737 Y18.8676
G01 X31.1831 Y18.8741
G01 X31.1927 Y18.8801
G01 X31.2027 Y18.8856
G01 X31.2129 Y18.8906
G01 X31.2286 Y18.8972
G01 X31.2448 Y18.9026
G01 X31.3129 Y18.9226
G01 X31.3236 Y18.9254
G01 X31.3344 Y18.9278
G01 X31.3452 Y18.9296
G01 X31.3562 Y18.9309
G01 X31.3672 Y18.9317
G01 X31.3782 Y18.9320
G01 X62.5748 Y18.9320
G01 X62.5934 Y18.9312
G01 X62.6377 Y18.9263
G01 X62.6544 Y18.9230
G01 X62.6709 Y18.9185
G01 X62.6816 Y18.9148
G01 X62.6922 Y18.9107
G01 X62.7076 Y18.9034
G01 X62.7750 Y18.8667
G01 X62.7892 Y18.8583
G01 X62.7983 Y18.8521
G01 X62.8115 Y18.8420
G01 X62.8198 Y18.8348
G01 X62.8278 Y18.8272
G01 X65.1625 Y16.4925
G01 X65.1710 Y16.4835
G01 X65.1790 Y16.4741
G01 X65.1994 Y16.4486
G01 X65.2093 Y16.4347
G01 X65.2153 Y16.4251
G01 X65.2234 Y16.4100
G01 X65.2304 Y16.3945
G01 X65.2362 Y16.3784
G01 X65.2578 Y16.3049
G01 X65.2619 Y16.2888
G01 X65.2640 Y16.2780
G01 X65.2662 Y16.2616
G01 X65.2670 Y16.2506
G01 X65.2672 Y16.2396
G01 X65.2672 Y11.2653
G01 X65.2666 Y11.2538
G01 X65.2654 Y11.2422
G01 X65.2637 Y11.2308
G01 X65.2614 Y11.2194
G01 X65.2400 Y11.1424
G01 X65.2346 Y11.1259
G01 X65.2281 Y11.1098
G01 X65.2230 Y11.0994
G01 X65.2175 Y11.0892
G01 X65.2029 Y11.0652
G01 X65.1260 Y10.8795
G01 X65.0790 Y10.6841
G01 X65.0633 Y10.4838
G01 X65.0790 Y10.2834
G01 X65.1260 Y10.0880
G01 X65.2029 Y9.9023
G01 X65.3079 Y9.7310
G01 X65.4384 Y9.5781
G01 X65.5912 Y9.4476
G01 X65.7626 Y9.3426
G01 X65.9483 Y9.2657
G01 X66.1437 Y9.2188
G01 X66.3440 Y9.2030
G01 X66.5444 Y9.2188
G01 X66.7398 Y9.2657
G01 X66.9255 Y9.3426
G01 X67.0968 Y9.4476
G01 X67.2497 Y9.5781
G01 X67.3590 Y9.7062
G01 X67.3669 Y9.7149
G01 X67.3751 Y9.7232
G01 X67.4030 Y9.7486
G01 X67.4115 Y9.7560
G01 X67.4203 Y9.7629
G01 X67.4342 Y9.7725
G01 X67.4438 Y9.7783
G01 X67.4537 Y9.7836
G01 X67.4690 Y9.7907
G01 X67.4848 Y9.7967
G01 X67.5553 Y9.8204
G01 X67.5504 Y9.8315
G01 X67.5444 Y9.8477
G01 X67.5397 Y9.8643
G01 X67.5362 Y9.8812
G01 X67.5340 Y9.8983
G01 X67.5332 Y9.9098
G01 X67.5332 Y9.9271
G01 X67.5344 Y9.9443
G01 X67.5426 Y10.0203
G01 X67.5443 Y10.0312
G01 X67.5465 Y10.0420
G01 X67.5492 Y10.0527
G01 X67.5525 Y10.0633
G01 X67.5562 Y10.0736
G01 X67.5621 Y10.0880
G01 X67.6090 Y10.2834
G01 X67.6248 Y10.4838
G01 X67.6090 Y10.6841
G01 X67.5621 Y10.8795
G01 X67.4852 Y11.0652
G01 X67.4677 Y11.0942
G01 X67.4600 Y11.1098
G01 X67.4555 Y11.1205
G01 X67.4515 Y11.1313
G01 X67.4481 Y11.1424
G01 X67.4280 Y11.2138
G01 X67.4244 Y11.2308
G01 X67.4220 Y11.2480
G01 X67.4211 Y11.2595
G01 X67.4208 Y11.2711
G01 X67.4209 Y12.4323
G01 X67.4214 Y12.4432
G01 X67.4224 Y12.4541
G01 X67.4249 Y12.4703
G01 X67.4424 Y12.5439
G01 X67.4457 Y12.5549
G01 X67.4516 Y12.5711
G01 X67.4586 Y12.5869
G01 X67.4640 Y12.5971
G01 X67.4698 Y12.6070
G01 X67.4795 Y12.6212
G01 X67.4903 Y12.6348
G01 X67.4980 Y12.6433
G01 X67.5549 Y12.7031
G01 X67.5634 Y12.7108
G01 X67.5723 Y12.7181
G01 X67.5815 Y12.7250
G01 X67.5910 Y12.7314
G01 X67.6060 Y12.7401
G01 X67.6162 Y12.7452
G01 X67.6268 Y12.7499
G01 X67.6430 Y12.7559
G01 X67.6595 Y12.7606
G01 X67.7285 Y12.7777
G01 X67.7454 Y12.7812
G01 X67.7625 Y12.7834
G01 X67.7740 Y12.7842
G01 X67.7855 Y12.7844
G01 X67.7970 Y12.7840
G01 X67.8084 Y12.7831
G01 X67.8199 Y12.7816
G01 X67.8368 Y12.7783
G01 X67.8479 Y12.7754
G01 X67.8589 Y12.7720
G01 X67.9315 Y12.7471
G01 X67.9422 Y12.7428
G01 X67.9527 Y12.7381
G01 X67.9679 Y12.7299
G01 X67.9825 Y12.7207
G01 X67.9963 Y12.7104
G01 X68.0051 Y12.7030
G01 X68.0135 Y12.6951
G01 X68.0215 Y12.6868
G01 X68.0291 Y12.6782
G01 X68.0802 Y12.6137
G01 X68.0866 Y12.6048
G01 X68.0926 Y12.5956
G01 X68.1008 Y12.5812
G01 X68.1079 Y12.5663
G01 X68.1394 Y12.4887
G01 X68.2551 Y12.2895
G01 X68.3977 Y12.1086
G01 X68.5644 Y11.9496
G01 X68.7518 Y11.8156
G01 X68.9563 Y11.7094
G01 X69.1737 Y11.6331
G01 X69.3996 Y11.5882
G01 X69.6296 Y11.5755
G01 X69.8592 Y11.5954
G01 X70.0836 Y11.6474
G01 X70.2985 Y11.7305
G01 X70.4995 Y11.8431
G01 X70.6826 Y11.9829
G01 X70.8442 Y12.1470
G01 X70.9811 Y12.3324
G01 X71.0905 Y12.5351
G01 X71.1702 Y12.7512
G01 X71.2187 Y12.9765
G01 X71.2353 Y13.2108
G01 X71.2324 Y13.3042
G01 X71.2011 Y13.5370
G01 X71.1386 Y13.7587
G01 X71.1123 Y13.8182
G01 X71.0454 Y13.9695
G01 X70.9235 Y14.1649
G01 X70.7753 Y14.3413
G01 X70.6037 Y14.4950
G01 X70.4121 Y14.6230
G01 X70.2044 Y14.7227
G01 X69.9848 Y14.7922
G01 X69.7575 Y14.8300
G01 X69.5272 Y14.8354
G01 X69.2984 Y14.8084
G01 X69.0757 Y14.7493
G01 X68.8636 Y14.6595
G01 X68.6662 Y14.5407
G01 X68.4876 Y14.3952
G01 X68.3312 Y14.2260
G01 X68.2002 Y14.0365
G01 X68.0985 Y13.8330
G01 X68.0903 Y13.8180
G01 X68.0842 Y13.8084
G01 X68.0743 Y13.7945
G01 X68.0441 Y13.7556
G01 X68.0370 Y13.7469
G01 X68.0295 Y13.7386
G01 X68.0176 Y13.7269
G01 X68.0048 Y13.7160
G01 X67.9959 Y13.7093
G01 X67.9819 Y13.7000
G01 X67.9723 Y13.6944
G01 X67.9623 Y13.6893
G01 X67.8927 Y13.6574
G01 X67.8768 Y13.6508
G01 X67.8604 Y13.6455
G01 X67.8492 Y13.6426
G01 X67.8380 Y13.6402
G01 X67.8209 Y13.6378
G01 X67.8094 Y13.6368
G01 X67.7979 Y13.6365
G01 X67.7864 Y13.6367
G01 X67.7749 Y13.6375
G01 X67.7635 Y13.6388
G01 X67.6932 Y13.6489
G01 X67.6762 Y13.6520
G01 X67.6595 Y13.6564
G01 X67.6486 Y13.6600
G01 X67.6378 Y13.6641
G01 X67.6221 Y13.6713
G01 X67.6120 Y13.6767
G01 X67.6021 Y13.6826
G01 X67.5926 Y13.6890
G01 X67.5833 Y13.6959
G01 X67.5208 Y13.7497
G01 X67.5123 Y13.7574
G01 X67.5042 Y13.7656
G01 X67.4965 Y13.7741
G01 X67.4892 Y13.7831
G01 X67.4824 Y13.7923
G01 X67.4761 Y13.8019
G01 X67.4702 Y13.8118
G01 X67.4649 Y13.8220
G01 X67.4600 Y13.8325
G01 X67.4557 Y13.8431
G01 X67.4502 Y13.8595
G01 X67.4274 Y13.9383
G01 X67.4250 Y13.9490
G01 X67.4232 Y13.9599
G01 X67.4214 Y13.9764
G01 X67.4209 Y13.9874
G01 X67.4208 Y16.9280
G01 X67.4145 Y16.9641
G01 X67.4124 Y16.9800
G01 X67.4085 Y17.0215
G01 X67.3991 Y17.0569
G01 X67.3956 Y17.0725
G01 X67.3881 Y17.1135
G01 X67.3756 Y17.1480
G01 X67.3708 Y17.1632
G01 X67.3598 Y17.2035
G01 X67.3443 Y17.2367
G01 X67.3381 Y17.2515
G01 X67.3237 Y17.2906
G01 X67.3054 Y17.3223
G01 X67.2979 Y17.3365
G01 X67.2801 Y17.3742
