(G-CODE GENERATED BY FLATCAM v8.994 - www.flatcam.org - Version Date: 2020/11/7)

(Name: pet_puller_shield-F_Cu.gbr_iso_combined_cnc)
(Type: G-code from Geometry)
(Units: MM)

(Created on Friday, 14 February 2025 at 21:36)

(This preprocessor is the default preprocessor used by FlatCAM.)
(It is made to work with MACH3 compatible motion controllers.)

(TOOL DIAMETER: 0.1482 mm)
(Feedrate_XY: 60.0 mm/min)
(Feedrate_Z: 30.0 mm/min)
(Feedrate rapids 1500.0 mm/min)

(Z_Cut: -0.0899 mm)
(Z_Move: 2.0 mm)
(Z Start: None mm)
(Z End: 15.0 mm)
(X,Y End: None mm)
(Steps per circle: 64)
(Preprocessor Geometry: default)

(X range:   -0.0491 ...   75.5871  mm)
(Y range:   -0.0491 ...   53.9971  mm)

(Spindle Speed: 20000.0 RPM)
G21
G90
G94

G01 F60.00

M5
G00 Z15.0000
G00 X0.0000 Y0.0000
T1
M6    
(MSG, Change to Tool Dia = 0.1482)
M0
G00 Z15.0000

M03 S20000.0
G01 F60.00
G00 X8.1056 Y4.3243
G01 F30.00
G01 Z-0.0899
G01 F60.00
G01 X8.1082 Y4.2973
G01 X8.1114 Y4.2368
G01 X8.1139 Y4.2269
G01 X8.1179 Y4.2056
G01 X8.1194 Y4.1936
G01 X8.1405 Y4.1278
G01 X8.1568 Y4.0674
G01 X8.1613 Y4.0583
G01 X8.1696 Y4.0382
G01 X8.1736 Y4.0268
G01 X8.2080 Y3.9668
G01 X8.2364 Y3.9111
G01 X8.2438 Y3.9015
G01 X8.2561 Y3.8836
G01 X8.2613 Y3.8749
G01 X8.3031 Y3.8284
G01 X8.3191 Y3.8089
G01 X8.3381 Y3.7896
G01 X8.3786 Y3.7445
G01 X8.3868 Y3.7385
G01 X8.4076 Y3.7204
G01 X9.6084 Y2.5196
G01 X9.6265 Y2.4988
G01 X9.6325 Y2.4906
G01 X9.6776 Y2.4501
G01 X9.6969 Y2.4311
G01 X9.7164 Y2.4151
G01 X9.7629 Y2.3733
G01 X9.7716 Y2.3681
G01 X9.7895 Y2.3558
G01 X9.7991 Y2.3484
G01 X9.8548 Y2.3200
G01 X9.9148 Y2.2856
G01 X9.9244 Y2.2823
G01 X9.9445 Y2.2740
G01 X9.9554 Y2.2688
G01 X10.0158 Y2.2525
G01 X10.0816 Y2.2314
G01 X10.0936 Y2.2299
G01 X10.1149 Y2.2259
G01 X10.1248 Y2.2234
G01 X10.1853 Y2.2202
G01 X10.2123 Y2.2176
G01 X10.2394 Y2.2174
G01 X10.3000 Y2.2142
G01 X10.3104 Y2.2149
G01 X10.3192 Y2.2144
G01 X10.3279 Y2.2129
G01 X10.3987 Y2.1961
G01 X10.4092 Y2.1925
G01 X10.4141 Y2.1901
G01 X10.4205 Y2.1864
G01 X10.4278 Y2.1808
G01 X10.4332 Y2.1758
G01 X10.4837 Y2.1233
G01 X10.4883 Y2.1178
G01 X10.4923 Y2.1118
G01 X10.4965 Y2.1039
G01 X10.5065 Y2.0802
G01 X10.5300 Y2.0097
G01 X10.6140 Y1.8740
G01 X10.7270 Y1.7613
G01 X10.8628 Y1.6775
G01 X11.0148 Y1.6271
G01 X11.1074 Y1.6176
G01 X12.4006 Y1.6176
G01 X12.4945 Y1.6274
G01 X12.6463 Y1.6780
G01 X12.7820 Y1.7620
G01 X12.8948 Y1.8750
G01 X12.9803 Y2.0137
G01 X12.9843 Y2.0195
G01 X12.9876 Y2.0236
G01 X12.9925 Y2.0287
G01 X13.0466 Y2.0774
G01 X13.0538 Y2.0831
G01 X13.0616 Y2.0879
G01 X13.0700 Y2.0916
G01 X13.0788 Y2.0943
G01 X13.1543 Y2.1069
G01 X13.1616 Y2.1077
G01 X13.1671 Y2.1078
G01 X13.1745 Y2.1074
G01 X13.1799 Y2.1065
G01 X13.1871 Y2.1048
G01 X13.1940 Y2.1024
G01 X13.2625 Y2.0727
G01 X13.2689 Y2.0693
G01 X13.2750 Y2.0653
G01 X13.2806 Y2.0608
G01 X13.2954 Y2.0468
G01 X13.3987 Y1.9385
G01 X13.4020 Y1.9357
G01 X13.5733 Y1.8082
G01 X13.5770 Y1.8059
G01 X13.7673 Y1.7091
G01 X13.7713 Y1.7075
G01 X13.9259 Y1.6595
G01 X13.9259 Y2.0390
G01 X13.8987 Y2.0490
G01 X13.8168 Y2.0879
G01 X13.7406 Y2.1337
G01 X13.6692 Y2.1865
G01 X13.6032 Y2.2461
G01 X13.5981 Y2.2512
G01 X13.5397 Y2.3158
G01 X13.4867 Y2.3871
G01 X13.4408 Y2.4632
G01 X13.4374 Y2.4697
G01 X13.4003 Y2.5484
G01 X13.3697 Y2.6338
G01 X13.3477 Y2.7217
G01 X13.3348 Y2.8078
G01 X13.3341 Y2.8151
G01 X13.3299 Y2.9020
G01 X13.3299 Y3.2020
G01 X13.3344 Y3.2926
G01 X13.3471 Y3.3787
G01 X13.3485 Y3.3859
G01 X13.3697 Y3.4703
G01 X13.3996 Y3.5540
G01 X13.4390 Y3.6376
G01 X13.4857 Y3.7154
G01 X13.5397 Y3.7883
G01 X13.6019 Y3.8567
G01 X13.6678 Y3.9164
G01 X13.7421 Y3.9714
G01 X13.8200 Y4.0178
G01 X13.8987 Y4.0551
G01 X13.9259 Y4.0650
G01 X13.9259 Y4.4451
G01 X13.8859 Y4.4367
G01 X13.8817 Y4.4354
G01 X13.6831 Y4.3570
G01 X13.6792 Y4.3551
G01 X13.4967 Y4.2443
G01 X13.4932 Y4.2417
G01 X13.3319 Y4.1018
G01 X13.3289 Y4.0987
G01 X13.3038 Y4.0681
G01 X13.2990 Y4.0630
G01 X13.2936 Y4.0584
G01 X13.2260 Y4.0123
G01 X13.2195 Y4.0089
G01 X13.2109 Y4.0057
G01 X13.2020 Y4.0035
G01 X13.1947 Y4.0026
G01 X13.1182 Y4.0004
G01 X13.1090 Y4.0010
G01 X13.0982 Y4.0031
G01 X13.0895 Y4.0061
G01 X13.0812 Y4.0102
G01 X13.0189 Y4.0479
G01 X13.0127 Y4.0521
G01 X13.0056 Y4.0582
G01 X13.0005 Y4.0636
G01 X12.9810 Y4.0896
G01 X12.8940 Y4.2300
G01 X12.7811 Y4.3428
G01 X12.6452 Y4.4265
G01 X12.4933 Y4.4769
G01 X12.4006 Y4.4864
G01 X11.1075 Y4.4864
G01 X11.0136 Y4.4767
G01 X10.8617 Y4.4260
G01 X10.7260 Y4.3420
G01 X10.6133 Y4.2291
G01 X10.6070 Y4.2196
G01 X10.6000 Y4.2116
G01 X10.5433 Y4.1605
G01 X10.5390 Y4.1571
G01 X10.5329 Y4.1530
G01 X10.5264 Y4.1496
G01 X10.5213 Y4.1475
G01 X10.5160 Y4.1457
G01 X10.5089 Y4.1440
G01 X10.4352 Y4.1320
G01 X10.4278 Y4.1313
G01 X10.4205 Y4.1314
G01 X10.4096 Y4.1329
G01 X10.3990 Y4.1360
G01 X10.3287 Y4.1664
G01 X10.3221 Y4.1700
G01 X10.3158 Y4.1741
G01 X10.3114 Y4.1777
G01 X10.3004 Y4.1877
G01 X9.8306 Y4.6576
G01 X9.8251 Y4.6645
G01 X9.8213 Y4.6704
G01 X9.7864 Y4.7342
G01 X9.7819 Y4.7442
G01 X9.7793 Y4.7529
G01 X9.7777 Y4.7618
G01 X9.7748 Y4.7886
G01 X9.7744 Y4.7965
G01 X9.7744 Y6.8173
G01 X9.7752 Y6.8261
G01 X9.7769 Y6.8347
G01 X9.7974 Y6.9045
G01 X9.7998 Y6.9115
G01 X9.8021 Y6.9165
G01 X9.8077 Y6.9260
G01 X9.8134 Y6.9332
G01 X9.8186 Y6.9384
G01 X9.8737 Y6.9861
G01 X9.8825 Y6.9927
G01 X9.8906 Y6.9971
G01 X9.9009 Y7.0011
G01 X9.9098 Y7.0032
G01 X9.9837 Y7.0138
G01 X9.9892 Y7.0143
G01 X9.9965 Y7.0142
G01 X10.0074 Y7.0128
G01 X10.0163 Y7.0104
G01 X10.0788 Y6.9855
G01 X10.0879 Y6.9804
G01 X10.1487 Y6.9379
G01 X10.3286 Y6.8540
G01 X10.5203 Y6.8026
G01 X10.7180 Y6.7853
G01 X10.9158 Y6.8026
G01 X11.1075 Y6.8540
G01 X11.2874 Y6.9379
G01 X11.4500 Y7.0517
G01 X11.5903 Y7.1921
G01 X11.7042 Y7.3547
G01 X11.7297 Y7.4094
G01 X11.7881 Y7.5346
G01 X11.8395 Y7.7263
G01 X11.8568 Y7.9240
G01 X11.8395 Y8.1218
G01 X11.7881 Y8.3135
G01 X11.7042 Y8.4934
G01 X11.5886 Y8.6585
G01 X11.5837 Y8.6665
G01 X11.5792 Y8.6769
G01 X11.5559 Y8.7510
G01 X11.5536 Y8.7601
G01 X11.5525 Y8.7695
G01 X11.5524 Y11.5613
G01 X11.5532 Y11.5701
G01 X11.5549 Y11.5787
G01 X11.5754 Y11.6485
G01 X11.5778 Y11.6554
G01 X11.5809 Y11.6620
G01 X11.5856 Y11.6698
G01 X11.6070 Y11.6966
G01 X14.5610 Y14.6510
G01 X14.5676 Y14.6569
G01 X14.5764 Y14.6628
G01 X14.6435 Y14.6993
G01 X14.6536 Y14.7034
G01 X14.6624 Y14.7055
G01 X14.6946 Y14.7092
G01 X14.7025 Y14.7096
G01 X17.6946 Y14.7096
G01 X17.7051 Y14.7089
G01 X17.7138 Y14.7071
G01 X17.7871 Y14.6855
G01 X17.7939 Y14.6827
G01 X17.8020 Y14.6784
G01 X17.8080 Y14.6741
G01 X17.8150 Y14.6681
G01 X17.8676 Y14.6076
G01 X17.8737 Y14.5984
G01 X17.8770 Y14.5918
G01 X17.8790 Y14.5867
G01 X17.8807 Y14.5814
G01 X17.8823 Y14.5742
G01 X17.8931 Y14.4985
G01 X17.8934 Y14.4911
G01 X17.8928 Y14.4820
G01 X17.8910 Y14.4729
G01 X17.8888 Y14.4659
G01 X17.8565 Y14.3946
G01 X17.8510 Y14.3852
G01 X17.8455 Y14.3781
G01 X17.8391 Y14.3717
G01 X17.8239 Y14.3593
G01 X17.8187 Y14.3537
G01 X17.8132 Y14.3490
G01 X17.7037 Y14.2669
G01 X17.6291 Y14.1673
G01 X17.5849 Y14.0496
G01 X17.5809 Y14.0134
G01 X17.5795 Y14.0065
G01 X17.5768 Y13.9981
G01 X17.5466 Y13.9259
G01 X17.5430 Y13.9195
G01 X17.5387 Y13.9135
G01 X17.5351 Y13.9093
G01 X17.5299 Y13.9041
G01 X17.5227 Y13.8984
G01 X17.4643 Y13.8580
G01 X17.4597 Y13.8551
G01 X17.4532 Y13.8517
G01 X17.4464 Y13.8489
G01 X17.4375 Y13.8465
G01 X17.3892 Y13.8387
G01 X17.3825 Y13.8384
G01 X16.8954 Y13.8384
G01 X16.8680 Y13.8404
G01 X16.8579 Y13.8419
G01 X16.7974 Y13.8387
G01 X16.7703 Y13.8384
G01 X16.7433 Y13.8359
G01 X16.6828 Y13.8327
G01 X16.6729 Y13.8302
G01 X16.6516 Y13.8262
G01 X16.6396 Y13.8247
G01 X16.5738 Y13.8035
G01 X16.5134 Y13.7873
G01 X16.5025 Y13.7820
G01 X16.4824 Y13.7737
G01 X16.4728 Y13.7705
G01 X16.4128 Y13.7361
G01 X16.3571 Y13.7077
G01 X16.3475 Y13.7002
G01 X16.3296 Y13.6880
G01 X16.3209 Y13.6828
G01 X16.2744 Y13.6410
G01 X16.2549 Y13.6250
G01 X16.2356 Y13.6060
G01 X16.1905 Y13.5654
G01 X16.1845 Y13.5573
G01 X16.1664 Y13.5365
G01 X15.2656 Y12.6356
G01 X15.2448 Y12.6176
G01 X15.2366 Y12.6115
G01 X15.1961 Y12.5665
G01 X15.1771 Y12.5471
G01 X15.1611 Y12.5277
G01 X15.1193 Y12.4812
G01 X15.1141 Y12.4724
G01 X15.1018 Y12.4545
G01 X15.0944 Y12.4450
G01 X15.0660 Y12.3892
G01 X15.0316 Y12.3293
G01 X15.0283 Y12.3196
G01 X15.0200 Y12.2996
G01 X15.0148 Y12.2887
G01 X14.9985 Y12.2283
G01 X14.9774 Y12.1625
G01 X14.9759 Y12.1504
G01 X14.9719 Y12.1291
G01 X14.9694 Y12.1193
G01 X14.9662 Y12.0588
G01 X14.9636 Y12.0318
G01 X14.9634 Y12.0046
G01 X14.9602 Y11.9441
G01 X14.9618 Y11.9321
G01 X14.9636 Y11.9066
G01 X14.9634 Y8.7676
G01 X14.9625 Y8.7601
G01 X14.9602 Y8.7510
G01 X14.9368 Y8.6769
G01 X14.9323 Y8.6665
G01 X14.9274 Y8.6585
G01 X14.8119 Y8.4934
G01 X14.7280 Y8.3135
G01 X14.6766 Y8.1218
G01 X14.6593 Y7.9240
G01 X14.6766 Y7.7263
G01 X14.7280 Y7.5346
G01 X14.8119 Y7.3547
G01 X14.9257 Y7.1921
G01 X15.0661 Y7.0517
G01 X15.2287 Y6.9379
G01 X15.4006 Y6.8577
G01 X15.4086 Y6.8540
G01 X15.6003 Y6.8026
G01 X15.7980 Y6.7853
G01 X15.9958 Y6.8026
G01 X16.1875 Y6.8540
G01 X16.3674 Y6.9379
G01 X16.5300 Y7.0517
G01 X16.6703 Y7.1921
G01 X16.7842 Y7.3547
G01 X16.8681 Y7.5346
G01 X16.9138 Y7.7053
G01 X16.9195 Y7.7263
G01 X16.9368 Y7.9240
G01 X16.9195 Y8.1218
G01 X16.8681 Y8.3135
G01 X16.7842 Y8.4934
G01 X16.6686 Y8.6585
G01 X16.6637 Y8.6665
G01 X16.6592 Y8.6769
G01 X16.6359 Y8.7510
G01 X16.6336 Y8.7601
G01 X16.6326 Y8.7676
G01 X16.6324 Y11.5613
G01 X16.6332 Y11.5701
G01 X16.6349 Y11.5787
G01 X16.6554 Y11.6485
G01 X16.6578 Y11.6554
G01 X16.6617 Y11.6636
G01 X16.6666 Y11.6713
G01 X16.6896 Y11.6996
G01 X17.1010 Y12.1110
G01 X17.1063 Y12.1158
G01 X17.1119 Y12.1200
G01 X17.1179 Y12.1237
G01 X17.1818 Y12.1585
G01 X17.1919 Y12.1628
G01 X17.2024 Y12.1655
G01 X17.2405 Y12.1696
G01 X17.3842 Y12.1696
G01 X17.3948 Y12.1686
G01 X17.4033 Y12.1666
G01 X17.4732 Y12.1461
G01 X17.4818 Y12.1427
G01 X17.4883 Y12.1393
G01 X17.4973 Y12.1330
G01 X17.5054 Y12.1254
G01 X17.5565 Y12.0661
G01 X17.5624 Y12.0568
G01 X17.5669 Y12.0468
G01 X17.5792 Y12.0028
G01 X17.5812 Y11.9928
G01 X17.5849 Y11.9585
G01 X17.6291 Y11.8408
G01 X17.7037 Y11.7412
G01 X17.8033 Y11.6666
G01 X17.9210 Y11.6224
G01 X17.9699 Y11.6171
G01 X20.0581 Y11.6171
G01 X20.1071 Y11.6224
G01 X20.2248 Y11.6666
G01 X20.3244 Y11.7412
G01 X20.3990 Y11.8408
G01 X20.4431 Y11.9585
G01 X20.4469 Y11.9929
G01 X20.4481 Y11.9998
G01 X20.4500 Y12.0066
G01 X20.4791 Y12.0771
G01 X20.4841 Y12.0870
G01 X20.4882 Y12.0931
G01 X20.4917 Y12.0974
G01 X20.4968 Y12.1027
G01 X20.5024 Y12.1074
G01 X20.5653 Y12.1511
G01 X20.5700 Y12.1539
G01 X20.5765 Y12.1571
G01 X20.5834 Y12.1597
G01 X20.5923 Y12.1620
G01 X20.6355 Y12.1689
G01 X20.6439 Y12.1696
G01 X21.1776 Y12.1696
G01 X21.2051 Y12.1677
G01 X21.2151 Y12.1662
G01 X21.2756 Y12.1694
G01 X21.3028 Y12.1696
G01 X21.3298 Y12.1722
G01 X21.3903 Y12.1754
G01 X21.4001 Y12.1779
G01 X21.4214 Y12.1819
G01 X21.4335 Y12.1834
G01 X21.4993 Y12.2045
G01 X21.5597 Y12.2208
G01 X21.5706 Y12.2260
G01 X21.5906 Y12.2343
G01 X21.6003 Y12.2376
G01 X21.6602 Y12.2720
G01 X21.7160 Y12.3004
G01 X21.7255 Y12.3078
G01 X21.7434 Y12.3201
G01 X21.7522 Y12.3253
G01 X21.7987 Y12.3671
G01 X21.8181 Y12.3831
G01 X21.8375 Y12.4021
G01 X21.8825 Y12.4426
G01 X21.8886 Y12.4508
G01 X21.9066 Y12.4716
G01 X28.1415 Y18.7064
G01 X28.1623 Y18.7245
G01 X28.1704 Y18.7305
G01 X28.2110 Y18.7756
G01 X28.2300 Y18.7949
G01 X28.2460 Y18.8144
G01 X28.2878 Y18.8609
G01 X28.2930 Y18.8696
G01 X28.3052 Y18.8875
G01 X28.3127 Y18.8971
G01 X28.3411 Y18.9528
G01 X28.3755 Y19.0128
G01 X28.3794 Y19.0242
G01 X28.3878 Y19.0443
G01 X28.3923 Y19.0534
G01 X28.4104 Y19.1201
G01 X28.4297 Y19.1796
G01 X28.4308 Y19.1897
G01 X28.4348 Y19.2110
G01 X28.4377 Y19.2228
G01 X28.4410 Y19.2852
G01 X28.4434 Y19.3103
G01 X28.4437 Y19.3374
G01 X28.4469 Y19.3979
G01 X28.4454 Y19.4080
G01 X28.4434 Y19.4354
G01 X28.4435 Y20.7440
G01 X28.4445 Y20.7528
G01 X28.4459 Y20.7597
G01 X28.4664 Y20.8295
G01 X28.4688 Y20.8364
G01 X28.4727 Y20.8446
G01 X28.4776 Y20.8523
G01 X28.4993 Y20.8791
G01 X33.6544 Y26.0344
G01 X33.6611 Y26.0400
G01 X33.6685 Y26.0449
G01 X33.7323 Y26.0798
G01 X33.7423 Y26.0843
G01 X33.7511 Y26.0869
G01 X33.7633 Y26.0892
G01 X33.8276 Y26.0986
G01 X34.0128 Y26.1615
G01 X34.1835 Y26.2571
G01 X34.3339 Y26.3822
G01 X34.4590 Y26.5326
G01 X34.5546 Y26.7032
G01 X34.6175 Y26.8885
G01 X34.6267 Y26.9519
G01 X34.6277 Y26.9571
G01 X34.6297 Y26.9638
G01 X34.6324 Y26.9704
G01 X34.6627 Y27.0366
G01 X34.6672 Y27.0445
G01 X34.6727 Y27.0518
G01 X34.6829 Y27.0629
G01 X36.1944 Y28.5744
G01 X36.2011 Y28.5800
G01 X36.2085 Y28.5849
G01 X36.2723 Y28.6198
G01 X36.2823 Y28.6243
G01 X36.2911 Y28.6269
G01 X36.3033 Y28.6292
G01 X36.3676 Y28.6386
G01 X36.5528 Y28.7015
G01 X36.7235 Y28.7971
G01 X36.8739 Y28.9222
G01 X36.9990 Y29.0726
G01 X37.0946 Y29.2432
G01 X37.1575 Y29.4285
G01 X37.1859 Y29.6245
G01 X37.1872 Y29.6756
G01 X37.1691 Y29.8728
G01 X37.1160 Y30.0611
G01 X37.0295 Y30.2366
G01 X36.9124 Y30.3933
G01 X36.7688 Y30.5261
G01 X36.6033 Y30.6305
G01 X36.4216 Y30.7030
G01 X36.2298 Y30.7411
G01 X36.0342 Y30.7437
G01 X35.8414 Y30.7106
G01 X35.6578 Y30.6429
G01 X35.4897 Y30.5428
G01 X35.3426 Y30.4139
G01 X35.2215 Y30.2602
G01 X35.1304 Y30.0871
G01 X35.0724 Y29.9003
G01 X35.0683 Y29.8661
G01 X35.0668 Y29.8592
G01 X35.0653 Y29.8541
G01 X35.0332 Y29.7791
G01 X35.0297 Y29.7730
G01 X35.0256 Y29.7672
G01 X35.0128 Y29.7529
G01 X33.4985 Y28.2387
G01 X33.4915 Y28.2334
G01 X33.4855 Y28.2297
G01 X33.4162 Y28.1938
G01 X33.4066 Y28.1897
G01 X33.3947 Y28.1866
G01 X33.3014 Y28.1706
G01 X33.1178 Y28.1029
G01 X32.9497 Y28.0028
G01 X32.8026 Y27.8739
G01 X32.6815 Y27.7202
G01 X32.5904 Y27.5471
G01 X32.5324 Y27.3603
G01 X32.5283 Y27.3261
G01 X32.5272 Y27.3209
G01 X32.5253 Y27.3141
G01 X32.4932 Y27.2391
G01 X32.4897 Y27.2330
G01 X32.4856 Y27.2272
G01 X32.4728 Y27.2129
G01 X27.3253 Y22.0654
G01 X27.3165 Y22.0578
G01 X27.2770 Y22.0307
G01 X27.2354 Y22.0069
G01 X27.2219 Y22.0001
G01 X27.1895 Y21.9856
G01 X27.1608 Y21.9648
G01 X27.1482 Y21.9566
G01 X27.1159 Y21.9378
G01 X27.0895 Y21.9141
G01 X27.0778 Y21.9046
G01 X27.0476 Y21.8825
G01 X27.0239 Y21.8562
G01 X27.0132 Y21.8455
G01 X26.9855 Y21.8204
G01 X26.9635 Y21.7902
G01 X26.9539 Y21.7785
G01 X26.9303 Y21.7522
G01 X26.9115 Y21.7199
G01 X26.9032 Y21.7072
G01 X26.8824 Y21.6785
G01 X26.8671 Y21.6444
G01 X26.8602 Y21.6310
G01 X26.8426 Y21.6003
G01 X26.8316 Y21.5666
G01 X26.8262 Y21.5525
G01 X26.8111 Y21.5183
G01 X26.8032 Y21.4818
G01 X26.7993 Y21.4672
G01 X26.7884 Y21.4335
G01 X26.7844 Y21.3963
G01 X26.7820 Y21.3814
G01 X26.7746 Y21.3467
G01 X26.7746 Y19.7808
G01 X26.7739 Y19.7720
G01 X26.7721 Y19.7633
G01 X26.7516 Y19.6935
G01 X26.7492 Y19.6867
G01 X26.7453 Y19.6785
G01 X26.7404 Y19.6708
G01 X26.7187 Y19.6439
G01 X20.9708 Y13.8958
G01 X20.9640 Y13.8901
G01 X20.9567 Y13.8853
G01 X20.8928 Y13.8504
G01 X20.8863 Y13.8472
G01 X20.8794 Y13.8447
G01 X20.8706 Y13.8425
G01 X20.8365 Y13.8387
G01 X20.6456 Y13.8384
G01 X20.6385 Y13.8388
G01 X20.6316 Y13.8398
G01 X20.6264 Y13.8409
G01 X20.5566 Y13.8614
G01 X20.5496 Y13.8638
G01 X20.5430 Y13.8669
G01 X20.5382 Y13.8697
G01 X20.5321 Y13.8739
G01 X20.5266 Y13.8787
G01 X20.5227 Y13.8826
G01 X20.4738 Y13.9391
G01 X20.4684 Y13.9465
G01 X20.4640 Y13.9545
G01 X20.4600 Y13.9648
G01 X20.4481 Y14.0086
G01 X20.4469 Y14.0152
G01 X20.4431 Y14.0496
G01 X20.3990 Y14.1673
G01 X20.3244 Y14.2669
G01 X20.2248 Y14.3415
G01 X20.2083 Y14.3480
G01 X20.2022 Y14.3514
G01 X20.1978 Y14.3543
G01 X20.1381 Y14.3991
G01 X20.1339 Y14.4027
G01 X20.1287 Y14.4079
G01 X20.1241 Y14.4137
G01 X20.1211 Y14.4183
G01 X20.1183 Y14.4231
G01 X20.1153 Y14.4297
G01 X20.0893 Y14.4998
G01 X20.0865 Y14.5104
G01 X20.0854 Y14.5196
G01 X20.0856 Y14.5306
G01 X20.0870 Y14.5397
G01 X20.1026 Y14.6108
G01 X20.1047 Y14.6178
G01 X20.1075 Y14.6245
G01 X20.1118 Y14.6325
G01 X20.1268 Y14.6550
G01 X20.2207 Y14.7739
G01 X20.3309 Y14.9736
G01 X20.4070 Y15.1885
G01 X20.4470 Y15.4131
G01 X20.4498 Y15.6411
G01 X20.4153 Y15.8665
G01 X20.3444 Y16.0833
G01 X20.2391 Y16.2856
G01 X20.1022 Y16.4680
G01 X19.9373 Y16.6255
G01 X19.9039 Y16.6484
G01 X19.8958 Y16.6551
G01 X19.8898 Y16.6616
G01 X19.8437 Y16.7179
G01 X19.8394 Y16.7240
G01 X19.8350 Y16.7320
G01 X19.8322 Y16.7388
G01 X19.8297 Y16.7477
G01 X19.8285 Y16.7549
G01 X19.8199 Y16.8310
G01 X19.8200 Y16.8383
G01 X19.8211 Y16.8475
G01 X19.8233 Y16.8564
G01 X19.8259 Y16.8633
G01 X19.8595 Y16.9320
G01 X19.8641 Y16.9397
G01 X19.8685 Y16.9454
G01 X19.8721 Y16.9494
G01 X19.8774 Y16.9543
G01 X19.9033 Y16.9762
G01 X19.9106 Y16.9814
G01 X20.0793 Y17.1349
G01 X20.2207 Y17.3139
G01 X20.3309 Y17.5136
G01 X20.4070 Y17.7285
G01 X20.4470 Y17.9531
G01 X20.4498 Y18.1811
G01 X20.4153 Y18.4065
G01 X20.3444 Y18.6233
G01 X20.2710 Y18.7643
G01 X20.2674 Y18.7724
G01 X20.2648 Y18.7809
G01 X20.2501 Y18.8408
G01 X20.2490 Y18.8479
G01 X20.2484 Y18.8549
G01 X20.2484 Y22.4838
G01 X20.2489 Y22.4926
G01 X20.2509 Y22.5030
G01 X20.2714 Y22.5728
G01 X20.2732 Y22.5780
G01 X20.2760 Y22.5847
G01 X20.2786 Y22.5895
G01 X20.2826 Y22.5956
G01 X20.3017 Y22.6194
G01 X20.3070 Y22.6253
G01 X20.8253 Y23.1435
G01 X20.8321 Y23.1490
G01 X20.8381 Y23.1528
G01 X20.9019 Y23.1877
G01 X20.9101 Y23.1915
G01 X20.9170 Y23.1939
G01 X20.9259 Y23.1958
G01 X20.9622 Y23.1996
G01 X22.8363 Y23.1996
G01 X22.8451 Y23.1989
G01 X22.8537 Y23.1971
G01 X22.9253 Y23.1761
G01 X22.9338 Y23.1727
G01 X22.9435 Y23.1674
G01 X22.9508 Y23.1618
G01 X22.9574 Y23.1554
G01 X23.0086 Y23.0961
G01 X23.0118 Y23.0915
G01 X23.0154 Y23.0850
G01 X23.0184 Y23.0783
G01 X23.0202 Y23.0730
G01 X23.0329 Y23.0153
G01 X23.0339 Y23.0101
G01 X23.0345 Y23.0031
G01 X23.0346 Y22.7899
G01 X23.0399 Y22.7410
G01 X23.0841 Y22.6233
G01 X23.1587 Y22.5237
G01 X23.2583 Y22.4491
G01 X23.3760 Y22.4049
G01 X23.4249 Y22.3996
G01 X26.7131 Y22.3996
G01 X26.7621 Y22.4049
G01 X26.8798 Y22.4491
G01 X26.9794 Y22.5237
G01 X27.0540 Y22.6233
G01 X27.0981 Y22.7410
G01 X27.1034 Y22.7899
G01 X27.1034 Y26.0781
G01 X27.0981 Y26.1271
G01 X27.0540 Y26.2448
G01 X26.9794 Y26.3444
G01 X26.8798 Y26.4190
G01 X26.7621 Y26.4631
G01 X26.7131 Y26.4684
G01 X26.5035 Y26.4684
G01 X26.4947 Y26.4689
G01 X26.4843 Y26.4709
G01 X26.4128 Y26.4920
G01 X26.4025 Y26.4961
G01 X26.3946 Y26.5007
G01 X26.3872 Y26.5062
G01 X26.3806 Y26.5126
G01 X26.3294 Y26.5720
G01 X26.3253 Y26.5781
G01 X26.3218 Y26.5847
G01 X26.3197 Y26.5898
G01 X26.3174 Y26.5968
G01 X26.3048 Y26.6545
G01 X26.3035 Y26.6650
G01 X26.3034 Y27.2090
G01 X26.2955 Y27.2537
G01 X26.2936 Y27.2678
G01 X26.2893 Y27.3162
G01 X26.2776 Y27.3600
G01 X26.2744 Y27.3739
G01 X26.2659 Y27.4217
G01 X26.2494 Y27.4674
G01 X26.2452 Y27.4810
G01 X26.2334 Y27.5248
G01 X26.2129 Y27.5689
G01 X26.2076 Y27.5821
G01 X26.1920 Y27.6247
G01 X26.1694 Y27.6640
G01 X26.1627 Y27.6766
G01 X26.1421 Y27.7206
G01 X26.1143 Y27.7604
G01 X26.1067 Y27.7725
G01 X26.0841 Y27.8117
G01 X26.0549 Y27.8465
G01 X26.0462 Y27.8577
G01 X26.0182 Y27.8975
G01 X25.0353 Y28.8806
G01 X25.0298 Y28.8874
G01 X25.0260 Y28.8934
G01 X24.9911 Y28.9572
G01 X24.9872 Y28.9654
G01 X24.9844 Y28.9741
G01 X24.9829 Y28.9812
G01 X24.9791 Y29.0175
G01 X24.9792 Y30.6622
G01 X24.9799 Y30.6692
G01 X24.9816 Y30.6779
G01 X25.0039 Y30.7529
G01 X25.0068 Y30.7596
G01 X25.0104 Y30.7660
G01 X25.0175 Y30.7765
G01 X25.0270 Y30.7893
G01 X25.0712 Y30.9070
G01 X25.0765 Y30.9559
G01 X25.0765 Y32.6441
G01 X25.0712 Y32.6931
G01 X25.0270 Y32.8108
G01 X25.0161 Y32.8257
G01 X25.0126 Y32.8318
G01 X25.0103 Y32.8366
G01 X24.9841 Y32.9064
G01 X24.9811 Y32.9169
G01 X24.9797 Y32.9260
G01 X24.9791 Y32.9414
G01 X24.9791 Y33.0565
G01 X24.9799 Y33.0671
G01 X24.9821 Y33.0774
G01 X25.0021 Y33.1455
G01 X25.0060 Y33.1557
G01 X25.0093 Y33.1622
G01 X25.0133 Y33.1683
G01 X25.0363 Y33.1966
G01 X26.6647 Y34.8250
G01 X26.6713 Y34.8309
G01 X26.6756 Y34.8340
G01 X26.6816 Y34.8377
G01 X26.7439 Y34.8717
G01 X26.7521 Y34.8755
G01 X26.7590 Y34.8779
G01 X26.7679 Y34.8798
G01 X26.7983 Y34.8832
G01 X26.8062 Y34.8836
G01 X47.9100 Y34.8836
G01 X47.9547 Y34.8915
G01 X47.9688 Y34.8934
G01 X48.0172 Y34.8977
G01 X48.0610 Y34.9095
G01 X48.0749 Y34.9126
G01 X48.1227 Y34.9211
G01 X48.1654 Y34.9367
G01 X48.1789 Y34.9410
G01 X48.2258 Y34.9536
G01 X48.2669 Y34.9728
G01 X48.2801 Y34.9783
G01 X48.3257 Y34.9950
G01 X48.3650 Y35.0177
G01 X48.3776 Y35.0243
G01 X48.4216 Y35.0449
G01 X48.4614 Y35.0727
G01 X48.4735 Y35.0803
G01 X48.5127 Y35.1030
G01 X48.5475 Y35.1322
G01 X48.5587 Y35.1409
G01 X48.5985 Y35.1688
G01 X52.8982 Y39.4685
G01 X52.9048 Y39.4744
G01 X52.9136 Y39.4803
G01 X52.9774 Y39.5152
G01 X52.9840 Y39.5183
G01 X52.9925 Y39.5214
G01 X53.0014 Y39.5233
G01 X53.0357 Y39.5270
G01 X57.0756 Y39.5271
G01 X57.0861 Y39.5264
G01 X57.0965 Y39.5241
G01 X57.1664 Y39.5036
G01 X57.1715 Y39.5017
G01 X57.1782 Y39.4986
G01 X57.1876 Y39.4928
G01 X57.1933 Y39.4881
G01 X57.1985 Y39.4829
G01 X57.2486 Y39.4251
G01 X57.2528 Y39.4190
G01 X57.2572 Y39.4110
G01 X57.2606 Y39.4024
G01 X57.2626 Y39.3953
G01 X57.2742 Y39.3141
G01 X57.2744 Y39.3068
G01 X57.2735 Y39.2976
G01 X57.2720 Y39.2904
G01 X57.2698 Y39.2834
G01 X57.2374 Y39.2121
G01 X57.2339 Y39.2056
G01 X57.2297 Y39.1996
G01 X57.2237 Y39.1926
G01 X57.2169 Y39.1865
G01 X57.1705 Y39.1515
G01 X57.4449 Y38.8771
G01 X57.4851 Y38.8913
G01 X57.5588 Y38.9096
G01 X57.6321 Y38.9204
G01 X57.7080 Y38.9241
G01 X57.7839 Y38.9204
G01 X57.8573 Y38.9096
G01 X57.9310 Y38.8913
G01 X57.9711 Y38.8771
G01 X58.2455 Y39.1516
G01 X58.2382 Y39.1572
G01 X58.1836 Y39.2054
G01 X58.1797 Y39.2093
G01 X58.1749 Y39.2149
G01 X58.1689 Y39.2241
G01 X58.1657 Y39.2308
G01 X58.1632 Y39.2377
G01 X58.1423 Y39.3113
G01 X58.1408 Y39.3203
G01 X58.1404 Y39.3277
G01 X58.1407 Y39.3350
G01 X58.1421 Y39.3441
G01 X58.1659 Y39.4226
G01 X58.1688 Y39.4294
G01 X58.1735 Y39.4373
G01 X58.1791 Y39.4446
G01 X58.1842 Y39.4499
G01 X58.2424 Y39.4996
G01 X58.2483 Y39.5039
G01 X58.2546 Y39.5077
G01 X58.2630 Y39.5114
G01 X58.2718 Y39.5141
G01 X58.3250 Y39.5255
G01 X58.3318 Y39.5266
G01 X58.3405 Y39.5271
G01 X62.1544 Y39.5271
G01 X62.1650 Y39.5264
G01 X62.1736 Y39.5246
G01 X62.2469 Y39.5030
G01 X62.2537 Y39.5002
G01 X62.2618 Y39.4959
G01 X62.2679 Y39.4916
G01 X62.2734 Y39.4869
G01 X62.2785 Y39.4815
G01 X62.3250 Y39.4279
G01 X62.3296 Y39.4221
G01 X62.3335 Y39.4159
G01 X62.3375 Y39.4076
G01 X62.3400 Y39.4007
G01 X62.3421 Y39.3917
G01 X62.3527 Y39.3178
G01 X62.3532 Y39.3086
G01 X62.3526 Y39.2995
G01 X62.3508 Y39.2904
G01 X62.3473 Y39.2800
G01 X62.3170 Y39.2137
G01 X62.3137 Y39.2072
G01 X62.3097 Y39.2011
G01 X62.3051 Y39.1953
G01 X62.2999 Y39.1901
G01 X62.2943 Y39.1854
G01 X62.2509 Y39.1527
G01 X62.2421 Y39.1472
G01 X62.2187 Y39.1362
G01 X62.0561 Y39.0223
G01 X61.9157 Y38.8820
G01 X61.8019 Y38.7194
G01 X61.7180 Y38.5395
G01 X61.6734 Y38.3733
G01 X61.6666 Y38.3478
G01 X61.6493 Y38.1500
G01 X61.6666 Y37.9523
G01 X61.7180 Y37.7606
G01 X61.8019 Y37.5807
G01 X61.9174 Y37.4156
G01 X61.9223 Y37.4075
G01 X61.9268 Y37.3972
G01 X61.9502 Y37.3231
G01 X61.9525 Y37.3139
G01 X61.9535 Y37.3046
G01 X61.9536 Y32.1964
G01 X61.9517 Y32.1690
G01 X61.9502 Y32.1589
G01 X61.9534 Y32.0984
G01 X61.9536 Y32.0713
G01 X61.9562 Y32.0443
G01 X61.9594 Y31.9838
G01 X61.9619 Y31.9739
G01 X61.9659 Y31.9526
G01 X61.9674 Y31.9406
G01 X61.9885 Y31.8748
G01 X62.0048 Y31.8144
G01 X62.0093 Y31.8053
G01 X62.0176 Y31.7852
G01 X62.0216 Y31.7738
G01 X62.0560 Y31.7138
G01 X62.0844 Y31.6581
G01 X62.0918 Y31.6485
G01 X62.1041 Y31.6306
G01 X62.1093 Y31.6219
G01 X62.1511 Y31.5754
G01 X62.1671 Y31.5559
G01 X62.1861 Y31.5366
G01 X62.2266 Y31.4915
G01 X62.2348 Y31.4855
G01 X62.2556 Y31.4674
G01 X68.1142 Y25.6088
G01 X68.1199 Y25.6020
G01 X68.1248 Y25.5947
G01 X68.1597 Y25.5308
G01 X68.1642 Y25.5208
G01 X68.1672 Y25.5102
G01 X68.1685 Y25.5011
G01 X68.1686 Y25.4900
G01 X68.1633 Y25.4174
G01 X68.1619 Y25.4083
G01 X68.1593 Y25.3995
G01 X68.1548 Y25.3894
G01 X68.1489 Y25.3801
G01 X68.1052 Y25.3218
G01 X68.0991 Y25.3149
G01 X68.0922 Y25.3089
G01 X68.0829 Y25.3028
G01 X68.0729 Y25.2982
G01 X68.0047 Y25.2728
G01 X67.9959 Y25.2704
G01 X67.9886 Y25.2692
G01 X67.9715 Y25.2684
G01 X66.9334 Y25.2684
G01 X66.9060 Y25.2704
G01 X66.8959 Y25.2719
G01 X66.8354 Y25.2687
G01 X66.8083 Y25.2684
G01 X66.7813 Y25.2659
G01 X66.7208 Y25.2627
G01 X66.7109 Y25.2602
G01 X66.6896 Y25.2562
G01 X66.6776 Y25.2547
G01 X66.6118 Y25.2335
G01 X66.5514 Y25.2173
G01 X66.5405 Y25.2120
G01 X66.5204 Y25.2037
G01 X66.5108 Y25.2005
G01 X66.4508 Y25.1661
G01 X66.3951 Y25.1377
G01 X66.3855 Y25.1302
G01 X66.3676 Y25.1180
G01 X66.3589 Y25.1128
G01 X66.3124 Y25.0710
G01 X66.2929 Y25.0550
G01 X66.2736 Y25.0360
G01 X66.2285 Y24.9954
G01 X66.2225 Y24.9873
G01 X66.2044 Y24.9665
G01 X65.3792 Y24.1412
G01 X65.3726 Y24.1354
G01 X65.3654 Y24.1303
G01 X65.2968 Y24.0929
G01 X65.2920 Y24.0908
G01 X65.2852 Y24.0884
G01 X65.2748 Y24.0862
G01 X65.2328 Y24.0832
G01 X65.2238 Y24.0831
G01 X65.0740 Y24.0949
G01 X64.8489 Y24.0771
G01 X64.6294 Y24.0244
G01 X64.4208 Y23.9380
G01 X64.2283 Y23.8201
G01 X64.0566 Y23.6734
G01 X63.9100 Y23.5017
G01 X63.7920 Y23.3092
G01 X63.7056 Y23.1007
G01 X63.6529 Y22.8811
G01 X63.6352 Y22.6560
G01 X63.6529 Y22.4309
G01 X63.7056 Y22.2114
G01 X63.7937 Y21.9988
G01 X63.7965 Y21.9905
G01 X63.7981 Y21.9836
G01 X63.7989 Y21.9784
G01 X63.8065 Y21.9078
G01 X63.8068 Y21.8968
G01 X63.8061 Y21.8895
G01 X63.8048 Y21.8822
G01 X63.8026 Y21.8752
G01 X63.7999 Y21.8684
G01 X63.7664 Y21.8016
G01 X63.7626 Y21.7953
G01 X63.7571 Y21.7880
G01 X63.7493 Y21.7802
G01 X63.7404 Y21.7736
G01 X63.6762 Y21.7355
G01 X63.6696 Y21.7323
G01 X63.6644 Y21.7302
G01 X63.6592 Y21.7286
G01 X63.6520 Y21.7271
G01 X63.6410 Y21.7261
G01 X63.5664 Y21.7287
G01 X63.5573 Y21.7295
G01 X63.5501 Y21.7311
G01 X63.5432 Y21.7333
G01 X63.5364 Y21.7361
G01 X63.5301 Y21.7397
G01 X63.4807 Y21.7701
G01 X63.4715 Y21.7769
G01 X63.4539 Y21.7943
G01 X63.4386 Y21.8123
G01 X63.4325 Y21.8204
G01 X63.3875 Y21.8610
G01 X63.3681 Y21.8800
G01 X63.3487 Y21.8960
G01 X63.3022 Y21.9378
G01 X63.2934 Y21.9430
G01 X63.2755 Y21.9552
G01 X63.2660 Y21.9627
G01 X63.2102 Y21.9911
G01 X63.1503 Y22.0255
G01 X63.1406 Y22.0287
G01 X63.1206 Y22.0370
G01 X63.1097 Y22.0423
G01 X63.0493 Y22.0585
G01 X62.9835 Y22.0797
G01 X62.9714 Y22.0812
G01 X62.9501 Y22.0852
G01 X62.9403 Y22.0877
G01 X62.8798 Y22.0909
G01 X62.8528 Y22.0934
G01 X62.8256 Y22.0937
G01 X62.7651 Y22.0969
G01 X62.7551 Y22.0954
G01 X62.7276 Y22.0934
G01 X58.5175 Y22.0934
G01 X58.5087 Y22.0939
G01 X58.5001 Y22.0955
G01 X58.4285 Y22.1164
G01 X58.4183 Y22.1203
G01 X58.4119 Y22.1236
G01 X58.4043 Y22.1287
G01 X58.3819 Y22.1467
G01 X58.3760 Y22.1520
G01 X55.0450 Y25.4830
G01 X55.0381 Y25.4910
G01 X55.0333 Y25.4984
G01 X54.9984 Y25.5622
G01 X54.9952 Y25.5688
G01 X54.9922 Y25.5773
G01 X54.9902 Y25.5862
G01 X54.9868 Y25.6166
G01 X54.9864 Y25.6245
G01 X54.9864 Y28.1606
G01 X54.9872 Y28.1711
G01 X54.9894 Y28.1814
G01 X55.0105 Y28.2529
G01 X55.0147 Y28.2627
G01 X55.0183 Y28.2689
G01 X55.0213 Y28.2733
G01 X55.0489 Y28.3051
G01 X55.0552 Y28.3115
G01 X55.1694 Y28.4091
G01 X55.3161 Y28.5808
G01 X55.4340 Y28.7733
G01 X55.5204 Y28.9819
G01 X55.5731 Y29.2014
G01 X55.5909 Y29.4265
G01 X55.5731 Y29.6516
G01 X55.5710 Y29.6607
G01 X55.5204 Y29.8712
G01 X55.4340 Y30.0797
G01 X55.3161 Y30.2722
G01 X55.1752 Y30.4372
G01 X55.1694 Y30.4439
G01 X54.9978 Y30.5906
G01 X54.8052 Y30.7085
G01 X54.5967 Y30.7949
G01 X54.3771 Y30.8476
G01 X54.1520 Y30.8654
G01 X53.9269 Y30.8476
G01 X53.7074 Y30.7949
G01 X53.4988 Y30.7085
G01 X53.3063 Y30.5906
G01 X53.1346 Y30.4439
G01 X53.0330 Y30.3250
G01 X53.0268 Y30.3188
G01 X53.0198 Y30.3134
G01 X52.9573 Y30.2726
G01 X52.9475 Y30.2675
G01 X52.9389 Y30.2645
G01 X52.9299 Y30.2625
G01 X52.9208 Y30.2616
G01 X52.8479 Y30.2611
G01 X52.8408 Y30.2613
G01 X52.8337 Y30.2623
G01 X52.8268 Y30.2640
G01 X52.8200 Y30.2663
G01 X52.8119 Y30.2701
G01 X52.7462 Y30.3121
G01 X52.7375 Y30.3186
G01 X52.7299 Y30.3263
G01 X52.6294 Y30.4439
G01 X52.4578 Y30.5906
G01 X52.2652 Y30.7085
G01 X52.0567 Y30.7949
G01 X51.8371 Y30.8476
G01 X51.6120 Y30.8654
G01 X51.3869 Y30.8476
G01 X51.1674 Y30.7949
G01 X50.9588 Y30.7085
G01 X50.7663 Y30.5906
G01 X50.5946 Y30.4439
G01 X50.4930 Y30.3250
G01 X50.4868 Y30.3188
G01 X50.4798 Y30.3134
G01 X50.4173 Y30.2726
G01 X50.4075 Y30.2675
G01 X50.3989 Y30.2645
G01 X50.3899 Y30.2625
G01 X50.3808 Y30.2616
G01 X50.3043 Y30.2611
G01 X50.2955 Y30.2620
G01 X50.2868 Y30.2640
G01 X50.2800 Y30.2663
G01 X50.2719 Y30.2701
G01 X50.2062 Y30.3121
G01 X50.1975 Y30.3186
G01 X50.1899 Y30.3263
G01 X50.0894 Y30.4439
G01 X49.9178 Y30.5906
G01 X49.7252 Y30.7085
G01 X49.5167 Y30.7949
G01 X49.2971 Y30.8476
G01 X49.0720 Y30.8654
G01 X48.8469 Y30.8476
G01 X48.6274 Y30.7949
G01 X48.4188 Y30.7085
G01 X48.2263 Y30.5906
G01 X48.0546 Y30.4439
G01 X47.9530 Y30.3250
G01 X47.9468 Y30.3188
G01 X47.9398 Y30.3134
G01 X47.8773 Y30.2726
G01 X47.8675 Y30.2675
G01 X47.8589 Y30.2645
G01 X47.8499 Y30.2625
G01 X47.8408 Y30.2616
G01 X47.7661 Y30.2611
G01 X47.7572 Y30.2618
G01 X47.7485 Y30.2635
G01 X47.7417 Y30.2657
G01 X47.7335 Y30.2692
G01 X47.7273 Y30.2728
G01 X47.6662 Y30.3121
G01 X47.6589 Y30.3175
G01 X47.6535 Y30.3224
G01 X47.6499 Y30.3263
G01 X47.5494 Y30.4439
G01 X47.3778 Y30.5906
G01 X47.1852 Y30.7085
G01 X46.9767 Y30.7949
G01 X46.7571 Y30.8476
G01 X46.5320 Y30.8654
G01 X46.3069 Y30.8476
G01 X46.0874 Y30.7949
G01 X45.8788 Y30.7085
G01 X45.6863 Y30.5906
G01 X45.5146 Y30.4439
G01 X45.3680 Y30.2723
G01 X45.2500 Y30.0797
G01 X45.1636 Y29.8712
G01 X45.1109 Y29.6516
G01 X45.0932 Y29.4265
G01 X45.1109 Y29.2014
G01 X45.1636 Y28.9819
G01 X45.2500 Y28.7733
G01 X45.3680 Y28.5808
G01 X45.5146 Y28.4091
G01 X45.6288 Y28.3116
G01 X45.6338 Y28.3066
G01 X45.6394 Y28.2998
G01 X45.6802 Y28.2374
G01 X45.6838 Y28.2313
G01 X45.6861 Y28.2265
G01 X45.6892 Y28.2181
G01 X45.6909 Y28.2112
G01 X45.6974 Y28.1660
G01 X45.6976 Y20.1974
G01 X45.6957 Y20.1700
G01 X45.6942 Y20.1599
G01 X45.6974 Y20.0994
G01 X45.6976 Y20.0723
G01 X45.7002 Y20.0453
G01 X45.7034 Y19.9848
G01 X45.7059 Y19.9749
G01 X45.7099 Y19.9536
G01 X45.7114 Y19.9416
G01 X45.7325 Y19.8758
G01 X45.7488 Y19.8154
G01 X45.7533 Y19.8063
G01 X45.7616 Y19.7862
G01 X45.7656 Y19.7748
G01 X45.8000 Y19.7148
G01 X45.8284 Y19.6591
G01 X45.8358 Y19.6495
G01 X45.8481 Y19.6316
G01 X45.8533 Y19.6229
G01 X45.8951 Y19.5764
G01 X45.9111 Y19.5569
G01 X45.9301 Y19.5376
G01 X45.9706 Y19.4925
G01 X45.9788 Y19.4865
G01 X45.9996 Y19.4684
G01 X47.9164 Y17.5516
G01 X47.9345 Y17.5308
G01 X47.9405 Y17.5226
G01 X47.9856 Y17.4821
G01 X48.0049 Y17.4631
G01 X48.0244 Y17.4471
G01 X48.0709 Y17.4053
G01 X48.0796 Y17.4001
G01 X48.0975 Y17.3878
G01 X48.1071 Y17.3804
G01 X48.1628 Y17.3520
G01 X48.2228 Y17.3176
G01 X48.2324 Y17.3143
G01 X48.2525 Y17.3060
G01 X48.2634 Y17.3008
G01 X48.3238 Y17.2845
G01 X48.3896 Y17.2634
G01 X48.4016 Y17.2619
G01 X48.4229 Y17.2579
G01 X48.4328 Y17.2554
G01 X48.4933 Y17.2522
G01 X48.5203 Y17.2496
G01 X48.5474 Y17.2494
G01 X48.6079 Y17.2462
G01 X48.6180 Y17.2477
G01 X48.6454 Y17.2496
G01 X53.8505 Y17.2496
G01 X53.8611 Y17.2489
G01 X53.8714 Y17.2466
G01 X53.9395 Y17.2266
G01 X53.9481 Y17.2235
G01 X53.9546 Y17.2203
G01 X53.9623 Y17.2154
G01 X53.9906 Y17.1924
G01 X55.5364 Y15.6466
G01 X55.5545 Y15.6258
G01 X55.5605 Y15.6176
G01 X55.6056 Y15.5771
G01 X55.6249 Y15.5581
G01 X55.6444 Y15.5421
G01 X55.6909 Y15.5003
G01 X55.6996 Y15.4951
G01 X55.7175 Y15.4828
G01 X55.7271 Y15.4754
G01 X55.7828 Y15.4470
G01 X55.8428 Y15.4126
G01 X55.8524 Y15.4093
G01 X55.8725 Y15.4010
G01 X55.8834 Y15.3958
G01 X55.9438 Y15.3795
G01 X56.0096 Y15.3584
G01 X56.0216 Y15.3569
G01 X56.0429 Y15.3529
G01 X56.0528 Y15.3504
G01 X56.1133 Y15.3472
G01 X56.1403 Y15.3446
G01 X56.1674 Y15.3444
G01 X56.2279 Y15.3412
G01 X56.2380 Y15.3427
G01 X56.2654 Y15.3446
G01 X61.4723 Y15.3446
G01 X61.4811 Y15.3439
G01 X61.4897 Y15.3421
G01 X61.5595 Y15.3216
G01 X61.5664 Y15.3192
G01 X61.5746 Y15.3153
G01 X61.5808 Y15.3115
G01 X61.6076 Y15.2901
G01 X63.2147 Y13.6833
G01 X63.2204 Y13.6765
G01 X63.2253 Y13.6692
G01 X63.2626 Y13.6004
G01 X63.2659 Y13.5918
G01 X63.2677 Y13.5847
G01 X63.2690 Y13.5756
G01 X63.2692 Y13.5664
G01 X63.2638 Y13.4919
G01 X63.2624 Y13.4828
G01 X63.2592 Y13.4722
G01 X63.2553 Y13.4639
G01 X63.2505 Y13.4561
G01 X63.2057 Y13.3963
G01 X63.1996 Y13.3894
G01 X63.1927 Y13.3834
G01 X63.1850 Y13.3783
G01 X63.1785 Y13.3748
G01 X63.1052 Y13.3473
G01 X63.0982 Y13.3453
G01 X63.0910 Y13.3439
G01 X63.0720 Y13.3429
G01 X61.6009 Y13.3429
G01 X61.5520 Y13.3376
G01 X61.4343 Y13.2935
G01 X61.3347 Y13.2189
G01 X61.2601 Y13.1193
G01 X61.2159 Y13.0016
G01 X61.2106 Y12.9526
G01 X61.2106 Y10.3404
G01 X61.2159 Y10.2915
G01 X61.2601 Y10.1738
G01 X61.3347 Y10.0742
G01 X61.4343 Y9.9996
G01 X61.4492 Y9.9936
G01 X61.4554 Y9.9902
G01 X61.4613 Y9.9862
G01 X61.5209 Y9.9413
G01 X61.5288 Y9.9337
G01 X61.5356 Y9.9249
G01 X61.5393 Y9.9185
G01 X61.5430 Y9.9101
G01 X61.5683 Y9.8419
G01 X61.5711 Y9.8313
G01 X61.5722 Y9.8222
G01 X61.5726 Y9.8090
G01 X61.5726 Y9.7495
G01 X61.5719 Y9.7390
G01 X61.5696 Y9.7287
G01 X61.5496 Y9.6605
G01 X61.5465 Y9.6520
G01 X61.5424 Y9.6439
G01 X61.5384 Y9.6378
G01 X61.5193 Y9.6139
G01 X61.5140 Y9.6080
G01 X61.3666 Y9.4606
G01 X61.3458 Y9.4426
G01 X61.3376 Y9.4365
G01 X61.2971 Y9.3915
G01 X61.2781 Y9.3721
G01 X61.2621 Y9.3527
G01 X61.2203 Y9.3062
G01 X61.2151 Y9.2974
G01 X61.2028 Y9.2795
G01 X61.1954 Y9.2700
G01 X61.1629 Y9.2068
G01 X61.1413 Y9.1694
G01 X61.1371 Y9.1633
G01 X61.1324 Y9.1577
G01 X61.0838 Y9.1081
G01 X61.0750 Y9.1014
G01 X61.0533 Y9.0881
G01 X60.8816 Y8.9414
G01 X60.7350 Y8.7697
G01 X60.6170 Y8.5772
G01 X60.5306 Y8.3687
G01 X60.4779 Y8.1491
G01 X60.4602 Y7.9240
G01 X60.4779 Y7.6989
G01 X60.5306 Y7.4794
G01 X60.6170 Y7.2708
G01 X60.7350 Y7.0783
G01 X60.8816 Y6.9066
G01 X61.0533 Y6.7600
G01 X61.2458 Y6.6420
G01 X61.4544 Y6.5556
G01 X61.6739 Y6.5029
G01 X61.8990 Y6.4852
G01 X62.1241 Y6.5029
G01 X62.3437 Y6.5556
G01 X62.5522 Y6.6420
G01 X62.7447 Y6.7600
G01 X62.9164 Y6.9066
G01 X63.0631 Y7.0783
G01 X63.1810 Y7.2708
G01 X63.2674 Y7.4794
G01 X63.3201 Y7.6989
G01 X63.3379 Y7.9240
G01 X63.3201 Y8.1491
G01 X63.2674 Y8.3687
G01 X63.1810 Y8.5772
G01 X63.1214 Y8.6746
G01 X63.1165 Y8.6840
G01 X63.1130 Y8.6940
G01 X63.0945 Y8.7625
G01 X63.0929 Y8.7696
G01 X63.0920 Y8.7785
G01 X63.0921 Y8.7875
G01 X63.0937 Y8.7982
G01 X63.1079 Y8.8544
G01 X63.1114 Y8.8650
G01 X63.1391 Y8.9198
G01 X63.1735 Y8.9798
G01 X63.1774 Y8.9912
G01 X63.1858 Y9.0113
G01 X63.1903 Y9.0204
G01 X63.2084 Y9.0871
G01 X63.2277 Y9.1466
G01 X63.2288 Y9.1567
G01 X63.2328 Y9.1780
G01 X63.2357 Y9.1898
G01 X63.2390 Y9.2522
G01 X63.2414 Y9.2773
G01 X63.2417 Y9.3044
G01 X63.2449 Y9.3649
G01 X63.2434 Y9.3750
G01 X63.2414 Y9.4024
G01 X63.2414 Y9.8090
G01 X63.2416 Y9.8143
G01 X63.2425 Y9.8213
G01 X63.2444 Y9.8299
G01 X63.2650 Y9.8998
G01 X63.2683 Y9.9083
G01 X63.2727 Y9.9164
G01 X63.2792 Y9.9253
G01 X63.2856 Y9.9319
G01 X63.3407 Y9.9796
G01 X63.3479 Y9.9852
G01 X63.3558 Y9.9898
G01 X63.3689 Y9.9954
G01 X63.3798 Y9.9996
G01 X63.4512 Y10.0531
G01 X63.4571 Y10.0571
G01 X63.4617 Y10.0597
G01 X63.4697 Y10.0632
G01 X63.5380 Y10.0887
G01 X63.5486 Y10.0915
G01 X63.5596 Y10.0927
G01 X63.5688 Y10.0925
G01 X63.5779 Y10.0911
G01 X63.6490 Y10.0756
G01 X63.6559 Y10.0736
G01 X63.6609 Y10.0716
G01 X63.6689 Y10.0676
G01 X63.6778 Y10.0615
G01 X63.7144 Y10.0279
G01 X63.7189 Y10.0246
G01 X63.7243 Y10.0198
G01 X63.7293 Y10.0145
G01 X63.7417 Y9.9991
G01 X63.7551 Y9.9796
G01 X63.7603 Y9.9709
G01 X63.8021 Y9.9244
G01 X63.8181 Y9.9049
G01 X63.8371 Y9.8856
G01 X63.8776 Y9.8405
G01 X63.8858 Y9.8345
G01 X63.9066 Y9.8164
G01 X66.2714 Y7.4516
G01 X66.2895 Y7.4308
G01 X66.2955 Y7.4226
G01 X66.3406 Y7.3821
G01 X66.3599 Y7.3631
G01 X66.3794 Y7.3471
G01 X66.4259 Y7.3053
G01 X66.4346 Y7.3001
G01 X66.4525 Y7.2878
G01 X66.4621 Y7.2804
G01 X66.5178 Y7.2520
G01 X66.5778 Y7.2176
G01 X66.5874 Y7.2143
G01 X66.6075 Y7.2060
G01 X66.6184 Y7.2008
G01 X66.6788 Y7.1845
G01 X66.7446 Y7.1634
G01 X66.7566 Y7.1619
G01 X66.7779 Y7.1579
G01 X66.7878 Y7.1554
G01 X66.8483 Y7.1522
G01 X66.8753 Y7.1496
G01 X66.9024 Y7.1494
G01 X66.9629 Y7.1462
G01 X66.9730 Y7.1477
G01 X67.0004 Y7.1496
G01 X67.3912 Y7.1496
G01 X67.4017 Y7.1489
G01 X67.4121 Y7.1466
G01 X67.4820 Y7.1261
G01 X67.4906 Y7.1227
G01 X67.5004 Y7.1172
G01 X67.5078 Y7.1115
G01 X67.5375 Y7.0858
G01 X67.5423 Y7.0807
G01 X67.5603 Y7.0599
G01 X67.7289 Y6.9217
G01 X67.9183 Y6.8139
G01 X68.1232 Y6.7395
G01 X68.3391 Y6.7005
G01 X68.3566 Y6.6996
G01 X68.7638 Y6.6996
G01 X68.9262 Y6.7134
G01 X69.1372 Y6.7682
G01 X69.3359 Y6.8577
G01 X69.5167 Y6.9794
G01 X69.6745 Y7.1299
G01 X69.8046 Y7.3048
G01 X69.8157 Y7.3265
G01 X69.9034 Y7.4991
G01 X69.9680 Y7.7072
G01 X69.9966 Y7.9233
G01 X69.9885 Y8.1411
G01 X69.9437 Y8.3544
G01 X69.8636 Y8.5572
G01 X69.7506 Y8.7435
G01 X69.6077 Y8.9082
G01 X69.4392 Y9.0464
G01 X69.4116 Y9.0621
G01 X69.4057 Y9.0660
G01 X69.4016 Y9.0693
G01 X69.3965 Y9.0741
G01 X69.3472 Y9.1252
G01 X69.3423 Y9.1307
G01 X69.3380 Y9.1367
G01 X69.3336 Y9.1448
G01 X69.3307 Y9.1516
G01 X69.3286 Y9.1586
G01 X69.3136 Y9.2336
G01 X69.3129 Y9.2391
G01 X69.3125 Y9.2464
G01 X69.3127 Y9.2520
G01 X69.3137 Y9.2593
G01 X69.3153 Y9.2664
G01 X69.3176 Y9.2734
G01 X69.3451 Y9.3428
G01 X69.3503 Y9.3525
G01 X69.3569 Y9.3612
G01 X69.3620 Y9.3665
G01 X69.3911 Y9.3937
G01 X69.3972 Y9.3988
G01 X69.5167 Y9.4794
G01 X69.6745 Y9.6299
G01 X69.8046 Y9.8048
G01 X69.9034 Y9.9991
G01 X69.9680 Y10.2072
G01 X69.9966 Y10.4233
G01 X69.9885 Y10.6411
G01 X69.9437 Y10.8544
G01 X69.8636 Y11.0572
G01 X69.7506 Y11.2435
G01 X69.6077 Y11.4082
G01 X69.4392 Y11.5464
G01 X69.4116 Y11.5621
G01 X69.4057 Y11.5660
G01 X69.4016 Y11.5693
G01 X69.3965 Y11.5741
G01 X69.3472 Y11.6252
G01 X69.3423 Y11.6307
G01 X69.3380 Y11.6367
G01 X69.3336 Y11.6448
G01 X69.3307 Y11.6516
G01 X69.3286 Y11.6586
G01 X69.3139 Y11.7318
G01 X69.3131 Y11.7373
G01 X69.3125 Y11.7446
G01 X69.3127 Y11.7520
G01 X69.3137 Y11.7593
G01 X69.3153 Y11.7664
G01 X69.3176 Y11.7734
G01 X69.3451 Y11.8428
G01 X69.3503 Y11.8525
G01 X69.3569 Y11.8612
G01 X69.3620 Y11.8665
G01 X69.3911 Y11.8937
G01 X69.3972 Y11.8988
G01 X69.5167 Y11.9794
G01 X69.6745 Y12.1299
G01 X69.8046 Y12.3048
G01 X69.9034 Y12.4991
G01 X69.9680 Y12.7072
G01 X69.9966 Y12.9233
G01 X69.9961 Y12.9372
G01 X69.9885 Y13.1411
G01 X69.9437 Y13.3544
G01 X69.8636 Y13.5572
G01 X69.7506 Y13.7435
G01 X69.6077 Y13.9082
G01 X69.5756 Y13.9345
G01 X69.5681 Y13.9420
G01 X69.5627 Y13.9490
G01 X69.5197 Y14.0123
G01 X69.5164 Y14.0188
G01 X69.5137 Y14.0257
G01 X69.5117 Y14.0328
G01 X69.5102 Y14.0418
G01 X69.5079 Y14.1201
G01 X69.5082 Y14.1275
G01 X69.5097 Y14.1366
G01 X69.5123 Y14.1454
G01 X69.5159 Y14.1538
G01 X69.5563 Y14.2210
G01 X69.5618 Y14.2286
G01 X69.5669 Y14.2341
G01 X69.5740 Y14.2402
G01 X69.5970 Y14.2574
G01 X69.7370 Y14.3440
G01 X69.8498 Y14.4570
G01 X69.9335 Y14.5928
G01 X69.9839 Y14.7448
G01 X69.9934 Y14.8374
G01 X69.9934 Y16.1306
G01 X69.9837 Y16.2245
G01 X69.9330 Y16.3763
G01 X69.8490 Y16.5120
G01 X69.7361 Y16.6248
G01 X69.6002 Y16.7085
G01 X69.4483 Y16.7589
G01 X69.3556 Y16.7684
G01 X68.5572 Y16.7686
G01 X68.5502 Y16.7695
G01 X68.5433 Y16.7709
G01 X68.4735 Y16.7914
G01 X68.4667 Y16.7938
G01 X68.4585 Y16.7977
G01 X68.4523 Y16.8016
G01 X68.4254 Y16.8230
G01 X64.1975 Y21.0506
G01 X64.1919 Y21.0573
G01 X64.1861 Y21.0662
G01 X64.1512 Y21.1301
G01 X64.1476 Y21.1385
G01 X64.1454 Y21.1456
G01 X64.1436 Y21.1546
G01 X64.1431 Y21.1656
G01 X64.1485 Y21.2419
G01 X64.1499 Y21.2510
G01 X64.1525 Y21.2599
G01 X64.1561 Y21.2683
G01 X64.1597 Y21.2747
G01 X64.2066 Y21.3375
G01 X64.2127 Y21.3444
G01 X64.2182 Y21.3493
G01 X64.2257 Y21.3546
G01 X64.2354 Y21.3597
G01 X64.3054 Y21.3859
G01 X64.3123 Y21.3881
G01 X64.3195 Y21.3896
G01 X64.3249 Y21.3903
G01 X64.3322 Y21.3906
G01 X64.3431 Y21.3896
G01 X64.4003 Y21.3803
G01 X64.4078 Y21.3787
G01 X64.4133 Y21.3770
G01 X64.6294 Y21.2876
G01 X64.8489 Y21.2349
G01 X65.0740 Y21.2172
G01 X65.2991 Y21.2349
G01 X65.5187 Y21.2876
G01 X65.7272 Y21.3740
G01 X65.9197 Y21.4920
G01 X66.0914 Y21.6386
G01 X66.2381 Y21.8103
G01 X66.3560 Y22.0028
G01 X66.4424 Y22.2114
G01 X66.4951 Y22.4309
G01 X66.5129 Y22.6560
G01 X66.5012 Y22.8040
G01 X66.5011 Y22.8146
G01 X66.5026 Y22.8250
G01 X66.5180 Y22.8980
G01 X66.5195 Y22.9031
G01 X66.5221 Y22.9097
G01 X66.5272 Y22.9191
G01 X66.5521 Y22.9530
G01 X66.5592 Y22.9612
G01 X67.1403 Y23.5422
G01 X67.1470 Y23.5479
G01 X67.1544 Y23.5528
G01 X67.2198 Y23.5885
G01 X67.2299 Y23.5928
G01 X67.2369 Y23.5948
G01 X67.2422 Y23.5958
G01 X67.2726 Y23.5992
G01 X67.2805 Y23.5996
G01 X68.9553 Y23.5996
G01 X68.9624 Y23.5993
G01 X68.9694 Y23.5983
G01 X68.9762 Y23.5966
G01 X69.0478 Y23.5755
G01 X69.0528 Y23.5736
G01 X69.0592 Y23.5704
G01 X69.0653 Y23.5667
G01 X69.0710 Y23.5623
G01 X69.0763 Y23.5575
G01 X69.1153 Y23.5178
G01 X69.1224 Y23.5094
G01 X69.1990 Y23.3860
G01 X69.3120 Y23.2733
G01 X69.4502 Y23.1880
G01 X69.4575 Y23.1830
G01 X69.4640 Y23.1771
G01 X69.5163 Y23.1189
G01 X69.5197 Y23.1145
G01 X69.5236 Y23.1083
G01 X69.5282 Y23.0983
G01 X69.5304 Y23.0913
G01 X69.5317 Y23.0859
G01 X69.5441 Y23.0085
G01 X69.5443 Y22.9994
G01 X69.5437 Y22.9920
G01 X69.5419 Y22.9830
G01 X69.5396 Y22.9760
G01 X69.5092 Y22.9058
G01 X69.5049 Y22.8978
G01 X69.5008 Y22.8919
G01 X69.4961 Y22.8864
G01 X69.4834 Y22.8729
G01 X69.3736 Y22.7682
G01 X69.2435 Y22.5933
G01 X69.1447 Y22.3990
G01 X69.0800 Y22.1908
G01 X69.0514 Y21.9747
G01 X69.0596 Y21.7569
G01 X69.1043 Y21.5436
G01 X69.1844 Y21.3409
G01 X69.2975 Y21.1545
G01 X69.4403 Y20.9899
G01 X69.6089 Y20.8517
G01 X69.7983 Y20.7439
G01 X70.0032 Y20.6695
G01 X70.2191 Y20.6305
G01 X70.2366 Y20.6296
G01 X70.6938 Y20.6296
G01 X70.8562 Y20.6434
G01 X71.0672 Y20.6982
G01 X71.2659 Y20.7877
G01 X71.4467 Y20.9094
G01 X71.5672 Y21.0243
G01 X71.5753 Y21.0310
G01 X71.5844 Y21.0365
G01 X71.6475 Y21.0691
G01 X71.6572 Y21.0733
G01 X71.6639 Y21.0753
G01 X71.6709 Y21.0766
G01 X71.6982 Y21.0793
G01 X71.7053 Y21.0796
G01 X71.9976 Y21.0796
G01 X72.0251 Y21.0777
G01 X72.0351 Y21.0762
G01 X72.0956 Y21.0794
G01 X72.1228 Y21.0796
G01 X72.1498 Y21.0822
G01 X72.2103 Y21.0854
G01 X72.2201 Y21.0879
G01 X72.2414 Y21.0919
G01 X72.2535 Y21.0934
G01 X72.3193 Y21.1145
G01 X72.3797 Y21.1308
G01 X72.3906 Y21.1360
G01 X72.4106 Y21.1443
G01 X72.4203 Y21.1476
G01 X72.4802 Y21.1820
G01 X72.5360 Y21.2104
G01 X72.5455 Y21.2178
G01 X72.5634 Y21.2301
G01 X72.5722 Y21.2353
G01 X72.6187 Y21.2771
G01 X72.6381 Y21.2931
G01 X72.6575 Y21.3121
G01 X72.7025 Y21.3526
G01 X72.7086 Y21.3608
G01 X72.7266 Y21.3816
G01 X73.8615 Y22.5164
G01 X73.8823 Y22.5345
G01 X73.8904 Y22.5405
G01 X73.9310 Y22.5856
G01 X73.9500 Y22.6049
G01 X73.9660 Y22.6244
G01 X74.0078 Y22.6709
G01 X74.0130 Y22.6796
G01 X74.0252 Y22.6975
G01 X74.0327 Y22.7071
G01 X74.0611 Y22.7628
G01 X74.0955 Y22.8228
G01 X74.0987 Y22.8324
G01 X74.1070 Y22.8525
G01 X74.1123 Y22.8634
G01 X74.1285 Y22.9238
G01 X74.1497 Y22.9896
G01 X74.1512 Y23.0016
G01 X74.1552 Y23.0229
G01 X74.1577 Y23.0328
G01 X74.1609 Y23.0933
G01 X74.1634 Y23.1203
G01 X74.1637 Y23.1474
G01 X74.1669 Y23.2079
G01 X74.1654 Y23.2180
G01 X74.1634 Y23.2454
G01 X74.1634 Y28.5176
G01 X74.1654 Y28.5451
G01 X74.1669 Y28.5551
G01 X74.1637 Y28.6156
G01 X74.1634 Y28.6428
G01 X74.1609 Y28.6698
G01 X74.1577 Y28.7303
G01 X74.1552 Y28.7401
G01 X74.1512 Y28.7614
G01 X74.1497 Y28.7735
G01 X74.1285 Y28.8393
G01 X74.1123 Y28.8997
G01 X74.1070 Y28.9106
G01 X74.0987 Y28.9306
G01 X74.0955 Y28.9403
G01 X74.0611 Y29.0002
G01 X74.0327 Y29.0560
G01 X74.0252 Y29.0655
G01 X74.0130 Y29.0834
G01 X74.0078 Y29.0922
G01 X73.9660 Y29.1387
G01 X73.9500 Y29.1581
G01 X73.9310 Y29.1775
G01 X73.8904 Y29.2225
G01 X73.8823 Y29.2286
G01 X73.8615 Y29.2466
G01 X71.9735 Y31.1346
G01 X71.9687 Y31.1398
G01 X71.9655 Y31.1440
G01 X71.9608 Y31.1515
G01 X71.9252 Y31.2170
G01 X71.9230 Y31.2219
G01 X71.9207 Y31.2287
G01 X71.9184 Y31.2391
G01 X71.9178 Y31.2463
G01 X71.9160 Y31.2896
G01 X71.9161 Y31.2969
G01 X71.9266 Y31.3783
G01 X71.9185 Y31.5961
G01 X71.8737 Y31.8094
G01 X71.7936 Y32.0122
G01 X71.6806 Y32.1985
G01 X71.5377 Y32.3632
G01 X71.5056 Y32.3895
G01 X71.4981 Y32.3970
G01 X71.4927 Y32.4040
G01 X71.4497 Y32.4673
G01 X71.4464 Y32.4738
G01 X71.4437 Y32.4807
G01 X71.4413 Y32.4896
G01 X71.4402 Y32.4968
G01 X71.4379 Y32.5733
G01 X71.4382 Y32.5825
G01 X71.4397 Y32.5916
G01 X71.4423 Y32.6004
G01 X71.4459 Y32.6088
G01 X71.4863 Y32.6760
G01 X71.4918 Y32.6836
G01 X71.4969 Y32.6891
G01 X71.5040 Y32.6952
G01 X71.5270 Y32.7124
G01 X71.6670 Y32.7990
G01 X71.7798 Y32.9120
G01 X71.8635 Y33.0478
G01 X71.9139 Y33.1998
G01 X71.9234 Y33.2924
G01 X71.9235 Y34.1140
G01 X71.9242 Y34.1211
G01 X71.9259 Y34.1297
G01 X71.9464 Y34.1995
G01 X71.9495 Y34.2081
G01 X71.9546 Y34.2177
G01 X71.9598 Y34.2251
G01 X71.9767 Y34.2461
G01 X71.9820 Y34.2520
G01 X73.2265 Y35.4964
G01 X73.2473 Y35.5145
G01 X73.2554 Y35.5205
G01 X73.2960 Y35.5656
G01 X73.3150 Y35.5849
G01 X73.3310 Y35.6044
G01 X73.3728 Y35.6509
G01 X73.3780 Y35.6596
G01 X73.3902 Y35.6775
G01 X73.3977 Y35.6871
G01 X73.4261 Y35.7428
G01 X73.4605 Y35.8028
G01 X73.4637 Y35.8124
G01 X73.4720 Y35.8325
G01 X73.4773 Y35.8434
G01 X73.4935 Y35.9038
G01 X73.5147 Y35.9696
G01 X73.5162 Y35.9816
G01 X73.5202 Y36.0029
G01 X73.5227 Y36.0128
G01 X73.5259 Y36.0733
G01 X73.5284 Y36.1003
G01 X73.5287 Y36.1274
G01 X73.5319 Y36.1879
G01 X73.5304 Y36.1980
G01 X73.5284 Y36.2254
G01 X73.5284 Y47.2126
G01 X73.5302 Y47.2381
G01 X73.5319 Y47.2501
G01 X73.5287 Y47.3106
G01 X73.5284 Y47.3378
G01 X73.5260 Y47.3628
G01 X73.5227 Y47.4253
G01 X73.5198 Y47.4370
G01 X73.5158 Y47.4584
G01 X73.5147 Y47.4685
G01 X73.4954 Y47.5280
G01 X73.4773 Y47.5947
G01 X73.4720 Y47.6056
G01 X73.4637 Y47.6256
G01 X73.4605 Y47.6353
G01 X73.4261 Y47.6952
G01 X73.3977 Y47.7510
G01 X73.3902 Y47.7605
G01 X73.3780 Y47.7784
G01 X73.3728 Y47.7872
G01 X73.3310 Y47.8337
G01 X73.3150 Y47.8531
G01 X73.2960 Y47.8725
G01 X73.2554 Y47.9175
G01 X73.2473 Y47.9236
G01 X73.2265 Y47.9416
G01 X72.0716 Y49.0965
G01 X72.0536 Y49.1173
G01 X72.0475 Y49.1254
G01 X72.0025 Y49.1660
G01 X71.9831 Y49.1850
G01 X71.9637 Y49.2010
G01 X71.9172 Y49.2428
G01 X71.9084 Y49.2480
G01 X71.8905 Y49.2602
G01 X71.8810 Y49.2677
G01 X71.8252 Y49.2961
G01 X71.7653 Y49.3305
G01 X71.7556 Y49.3337
G01 X71.7356 Y49.3420
G01 X71.7247 Y49.3473
G01 X71.6643 Y49.3635
G01 X71.5985 Y49.3847
G01 X71.5864 Y49.3862
G01 X71.5651 Y49.3902
G01 X71.5553 Y49.3927
G01 X71.4948 Y49.3959
G01 X71.4678 Y49.3984
G01 X71.4406 Y49.3987
G01 X71.3801 Y49.4019
G01 X71.3701 Y49.4004
G01 X71.3426 Y49.3984
G01 X66.6794 Y49.3984
G01 X66.6520 Y49.4004
G01 X66.6419 Y49.4019
G01 X66.5814 Y49.3987
G01 X66.5543 Y49.3984
G01 X66.5273 Y49.3959
G01 X66.4668 Y49.3927
G01 X66.4569 Y49.3902
G01 X66.4356 Y49.3862
G01 X66.4236 Y49.3847
G01 X66.3578 Y49.3635
G01 X66.2974 Y49.3473
G01 X66.2865 Y49.3420
G01 X66.2664 Y49.3337
G01 X66.2568 Y49.3305
G01 X66.1968 Y49.2961
G01 X66.1411 Y49.2677
G01 X66.1315 Y49.2602
G01 X66.1136 Y49.2480
G01 X66.1049 Y49.2428
G01 X66.0584 Y49.2010
G01 X66.0389 Y49.1850
G01 X66.0196 Y49.1660
G01 X65.9745 Y49.1254
G01 X65.9685 Y49.1173
G01 X65.9504 Y49.0965
G01 X63.7088 Y46.8548
G01 X63.7020 Y46.8491
G01 X63.6947 Y46.8443
G01 X63.6308 Y46.8094
G01 X63.6208 Y46.8048
G01 X63.6120 Y46.8022
G01 X63.6029 Y46.8007
G01 X63.5919 Y46.8004
G01 X63.5192 Y46.8056
G01 X63.5083 Y46.8072
G01 X63.5030 Y46.8086
G01 X63.4960 Y46.8111
G01 X63.4910 Y46.8134
G01 X63.4846 Y46.8170
G01 X63.4233 Y46.8627
G01 X63.4162 Y46.8687
G01 X63.4112 Y46.8740
G01 X63.4067 Y46.8799
G01 X63.4020 Y46.8877
G01 X63.3982 Y46.8961
G01 X63.3734 Y46.9626
G01 X63.3712 Y46.9696
G01 X63.3700 Y46.9750
G01 X63.3690 Y46.9822
G01 X63.3685 Y46.9949
G01 X63.3684 Y47.0441
G01 X63.3689 Y47.0529
G01 X63.3709 Y47.0632
G01 X63.3925 Y47.1364
G01 X63.3952 Y47.1430
G01 X63.3976 Y47.1478
G01 X63.4013 Y47.1539
G01 X63.4055 Y47.1596
G01 X63.4309 Y47.1886
G01 X63.4372 Y47.1950
G01 X63.5514 Y47.2926
G01 X63.6981 Y47.4643
G01 X63.8160 Y47.6568
G01 X63.9024 Y47.8654
G01 X63.9551 Y48.0849
G01 X63.9729 Y48.3100
G01 X63.9551 Y48.5351
G01 X63.9024 Y48.7547
G01 X63.8160 Y48.9632
G01 X63.6981 Y49.1557
G01 X63.5514 Y49.3274
G01 X63.3797 Y49.4741
G01 X63.1872 Y49.5920
G01 X63.0911 Y49.6318
G01 X63.0817 Y49.6366
G01 X63.0730 Y49.6426
G01 X63.0149 Y49.6895
G01 X63.0097 Y49.6947
G01 X63.0039 Y49.7018
G01 X62.9990 Y49.7096
G01 X62.9951 Y49.7180
G01 X62.9704 Y49.7923
G01 X62.9682 Y49.8032
G01 X62.9677 Y49.8142
G01 X62.9683 Y49.8215
G01 X62.9696 Y49.8288
G01 X62.9891 Y49.9045
G01 X62.9925 Y49.9129
G01 X62.9968 Y49.9208
G01 X63.0021 Y49.9281
G01 X63.0070 Y49.9335
G01 X63.0647 Y49.9858
G01 X63.0719 Y49.9916
G01 X63.0766 Y49.9946
G01 X63.0831 Y49.9981
G01 X63.1536 Y50.0309
G01 X63.3305 Y50.1548
G01 X63.4832 Y50.3075
G01 X63.6071 Y50.4845
G01 X63.6234 Y50.5194
G01 X63.6269 Y50.5255
G01 X63.6298 Y50.5299
G01 X63.6342 Y50.5354
G01 X63.6811 Y50.5887
G01 X63.6876 Y50.5952
G01 X63.6934 Y50.5998
G01 X63.6995 Y50.6038
G01 X63.7061 Y50.6072
G01 X63.7147 Y50.6105
G01 X63.7865 Y50.6310
G01 X63.7955 Y50.6327
G01 X63.8047 Y50.6333
G01 X63.8157 Y50.6326
G01 X63.8247 Y50.6307
G01 X63.8979 Y50.6085
G01 X63.9062 Y50.6049
G01 X63.9125 Y50.6014
G01 X63.9199 Y50.5961
G01 X63.9253 Y50.5912
G01 X63.9742 Y50.5350
G01 X63.9788 Y50.5291
G01 X63.9846 Y50.5195
G01 X64.0009 Y50.4845
G01 X64.1248 Y50.3075
G01 X64.2775 Y50.1548
G01 X64.4545 Y50.0309
G01 X64.6502 Y49.9396
G01 X64.8589 Y49.8837
G01 X65.0740 Y49.8649
G01 X65.2892 Y49.8837
G01 X65.4978 Y49.9396
G01 X65.6936 Y50.0309
G01 X65.8705 Y50.1548
G01 X66.0232 Y50.3075
G01 X66.1471 Y50.4845
G01 X66.1634 Y50.5194
G01 X66.1669 Y50.5255
G01 X66.1698 Y50.5299
G01 X66.1742 Y50.5354
G01 X66.2211 Y50.5887
G01 X66.2263 Y50.5940
G01 X66.2319 Y50.5987
G01 X66.2380 Y50.6029
G01 X66.2444 Y50.6064
G01 X66.2529 Y50.6099
G01 X66.3265 Y50.6310
G01 X66.3355 Y50.6327
G01 X66.3447 Y50.6333
G01 X66.3557 Y50.6326
G01 X66.3647 Y50.6307
G01 X66.4362 Y50.6091
G01 X66.4446 Y50.6057
G01 X66.4510 Y50.6023
G01 X66.4570 Y50.5983
G01 X66.4640 Y50.5925
G01 X66.4690 Y50.5872
G01 X66.5142 Y50.5350
G01 X66.5188 Y50.5291
G01 X66.5246 Y50.5195
G01 X66.5409 Y50.4845
G01 X66.6648 Y50.3075
G01 X66.8175 Y50.1548
G01 X66.9945 Y50.0309
G01 X67.1902 Y49.9396
G01 X67.3989 Y49.8837
G01 X67.6140 Y49.8649
G01 X67.8292 Y49.8837
G01 X68.0378 Y49.9396
G01 X68.2336 Y50.0309
G01 X68.4105 Y50.1548
G01 X68.5632 Y50.3075
G01 X68.6871 Y50.4845
G01 X68.7034 Y50.5194
G01 X68.7088 Y50.5285
G01 X68.7142 Y50.5354
G01 X68.7636 Y50.5914
G01 X68.7704 Y50.5976
G01 X68.7780 Y50.6029
G01 X68.7844 Y50.6064
G01 X68.7929 Y50.6099
G01 X68.8665 Y50.6310
G01 X68.8755 Y50.6327
G01 X68.8847 Y50.6333
G01 X68.8957 Y50.6326
G01 X68.9047 Y50.6307
G01 X68.9762 Y50.6091
G01 X68.9846 Y50.6057
G01 X68.9910 Y50.6023
G01 X68.9970 Y50.5983
G01 X69.0040 Y50.5925
G01 X69.0090 Y50.5872
G01 X69.0542 Y50.5350
G01 X69.0588 Y50.5291
G01 X69.0646 Y50.5195
G01 X69.0809 Y50.4845
G01 X69.2048 Y50.3075
G01 X69.3575 Y50.1548
G01 X69.5345 Y50.0309
G01 X69.7302 Y49.9396
G01 X69.9389 Y49.8837
G01 X70.1540 Y49.8649
G01 X70.3692 Y49.8837
G01 X70.5778 Y49.9396
G01 X70.7736 Y50.0309
G01 X70.9505 Y50.1548
G01 X71.1032 Y50.3075
G01 X71.2271 Y50.4845
G01 X71.3184 Y50.6802
G01 X71.3743 Y50.8889
G01 X71.3931 Y51.1040
G01 X71.3743 Y51.3192
G01 X71.3184 Y51.5278
G01 X71.2271 Y51.7236
G01 X71.1032 Y51.9005
G01 X70.9505 Y52.0532
G01 X70.8731 Y52.1074
G01 X70.7736 Y52.1771
G01 X70.5778 Y52.2684
G01 X70.3692 Y52.3243
G01 X70.1540 Y52.3431
G01 X69.9389 Y52.3243
G01 X69.7302 Y52.2684
G01 X69.5345 Y52.1771
G01 X69.3575 Y52.0532
G01 X69.2048 Y51.9005
G01 X69.0809 Y51.7236
G01 X69.0646 Y51.6887
G01 X69.0612 Y51.6825
G01 X69.0582 Y51.6781
G01 X69.0538 Y51.6726
G01 X69.0031 Y51.6153
G01 X68.9962 Y51.6093
G01 X68.9901 Y51.6051
G01 X68.9820 Y51.6008
G01 X68.9734 Y51.5975
G01 X68.8998 Y51.5766
G01 X68.8944 Y51.5756
G01 X68.8870 Y51.5748
G01 X68.8815 Y51.5747
G01 X68.8742 Y51.5753
G01 X68.8687 Y51.5761
G01 X68.8616 Y51.5779
G01 X68.7902 Y51.5996
G01 X68.7835 Y51.6023
G01 X68.7771 Y51.6057
G01 X68.7710 Y51.6098
G01 X68.7641 Y51.6156
G01 X68.7591 Y51.6208
G01 X68.7138 Y51.6730
G01 X68.7092 Y51.6789
G01 X68.7035 Y51.6886
G01 X68.6871 Y51.7236
G01 X68.5632 Y51.9005
G01 X68.4105 Y52.0532
G01 X68.2336 Y52.1771
G01 X68.0378 Y52.2684
G01 X67.8292 Y52.3243
G01 X67.6140 Y52.3431
G01 X67.3989 Y52.3243
G01 X67.1902 Y52.2684
G01 X66.9945 Y52.1771
G01 X66.8175 Y52.0532
G01 X66.6648 Y51.9005
G01 X66.5409 Y51.7236
G01 X66.5246 Y51.6887
G01 X66.5212 Y51.6825
G01 X66.5182 Y51.6781
G01 X66.5138 Y51.6726
G01 X66.4669 Y51.6193
G01 X66.4618 Y51.6140
G01 X66.4547 Y51.6082
G01 X66.4485 Y51.6042
G01 X66.4403 Y51.6001
G01 X66.4334 Y51.5975
G01 X66.3598 Y51.5766
G01 X66.3489 Y51.5750
G01 X66.3378 Y51.5749
G01 X66.3305 Y51.5758
G01 X66.3234 Y51.5774
G01 X66.2502 Y51.5996
G01 X66.2435 Y51.6023
G01 X66.2371 Y51.6057
G01 X66.2310 Y51.6098
G01 X66.2241 Y51.6156
G01 X66.2191 Y51.6208
G01 X66.1738 Y51.6730
G01 X66.1692 Y51.6789
G01 X66.1635 Y51.6886
G01 X66.1471 Y51.7236
G01 X66.0232 Y51.9005
G01 X65.8705 Y52.0532
G01 X65.6936 Y52.1771
G01 X65.4978 Y52.2684
G01 X65.2892 Y52.3243
G01 X65.0740 Y52.3431
G01 X64.8589 Y52.3243
G01 X64.6502 Y52.2684
G01 X64.4545 Y52.1771
G01 X64.2775 Y52.0532
G01 X64.1248 Y51.9005
G01 X64.0009 Y51.7236
G01 X63.9846 Y51.6887
G01 X63.9812 Y51.6825
G01 X63.9782 Y51.6781
G01 X63.9738 Y51.6726
G01 X63.9269 Y51.6193
G01 X63.9218 Y51.6140
G01 X63.9147 Y51.6082
G01 X63.9085 Y51.6042
G01 X63.9020 Y51.6008
G01 X63.8934 Y51.5975
G01 X63.8198 Y51.5766
G01 X63.8089 Y51.5750
G01 X63.7997 Y51.5748
G01 X63.7924 Y51.5755
G01 X63.7834 Y51.5774
G01 X63.7102 Y51.5996
G01 X63.7018 Y51.6031
G01 X63.6955 Y51.6067
G01 X63.6896 Y51.6109
G01 X63.6841 Y51.6156
G01 X63.6791 Y51.6208
G01 X63.6338 Y51.6730
G01 X63.6292 Y51.6789
G01 X63.6235 Y51.6886
G01 X63.6071 Y51.7236
G01 X63.4832 Y51.9005
G01 X63.3305 Y52.0532
G01 X63.1536 Y52.1771
G01 X62.9578 Y52.2684
G01 X62.7492 Y52.3243
G01 X62.5340 Y52.3431
G01 X62.3189 Y52.3243
G01 X62.1102 Y52.2684
G01 X61.9145 Y52.1771
G01 X61.7375 Y52.0532
G01 X61.5848 Y51.9005
G01 X61.4609 Y51.7236
G01 X61.4446 Y51.6887
G01 X61.4421 Y51.6840
G01 X61.4382 Y51.6781
G01 X61.4338 Y51.6726
G01 X61.3869 Y51.6193
G01 X61.3818 Y51.6140
G01 X61.3747 Y51.6082
G01 X61.3685 Y51.6042
G01 X61.3603 Y51.6001
G01 X61.3534 Y51.5975
G01 X61.2798 Y51.5766
G01 X61.2689 Y51.5750
G01 X61.2597 Y51.5748
G01 X61.2524 Y51.5755
G01 X61.2434 Y51.5774
G01 X61.1702 Y51.5996
G01 X61.1618 Y51.6031
G01 X61.1555 Y51.6067
G01 X61.1496 Y51.6109
G01 X61.1441 Y51.6156
G01 X61.1391 Y51.6208
G01 X61.0938 Y51.6730
G01 X61.0892 Y51.6789
G01 X61.0835 Y51.6886
G01 X61.0671 Y51.7236
G01 X60.9432 Y51.9005
G01 X60.7905 Y52.0532
G01 X60.6136 Y52.1771
G01 X60.4178 Y52.2684
G01 X60.2092 Y52.3243
G01 X59.9940 Y52.3431
G01 X59.7789 Y52.3243
G01 X59.5702 Y52.2684
G01 X59.3745 Y52.1771
G01 X59.1975 Y52.0532
G01 X59.0448 Y51.9005
G01 X58.9209 Y51.7236
G01 X58.9046 Y51.6887
G01 X58.9021 Y51.6840
G01 X58.8982 Y51.6781
G01 X58.8938 Y51.6726
G01 X58.8469 Y51.6193
G01 X58.8418 Y51.6140
G01 X58.8347 Y51.6082
G01 X58.8285 Y51.6042
G01 X58.8220 Y51.6008
G01 X58.8151 Y51.5981
G01 X58.7416 Y51.5771
G01 X58.7307 Y51.5751
G01 X58.7215 Y51.5747
G01 X58.7124 Y51.5755
G01 X58.7034 Y51.5774
G01 X58.6302 Y51.5996
G01 X58.6235 Y51.6023
G01 X58.6171 Y51.6057
G01 X58.6096 Y51.6109
G01 X58.6041 Y51.6156
G01 X58.5991 Y51.6208
G01 X58.5538 Y51.6730
G01 X58.5492 Y51.6789
G01 X58.5435 Y51.6886
G01 X58.5271 Y51.7236
G01 X58.4032 Y51.9005
G01 X58.2505 Y52.0532
G01 X58.0736 Y52.1771
G01 X57.8778 Y52.2684
G01 X57.6692 Y52.3243
G01 X57.4540 Y52.3431
G01 X57.2389 Y52.3243
G01 X57.0302 Y52.2684
G01 X56.8345 Y52.1771
G01 X56.6575 Y52.0532
G01 X56.5048 Y51.9005
G01 X56.3809 Y51.7236
G01 X56.2896 Y51.5278
G01 X56.2337 Y51.3192
G01 X56.2149 Y51.1040
G01 X56.2337 Y50.8889
G01 X56.2896 Y50.6802
G01 X56.3809 Y50.4845
G01 X56.5048 Y50.3075
G01 X56.6575 Y50.1548
G01 X56.8345 Y50.0309
G01 X57.0302 Y49.9396
G01 X57.2389 Y49.8837
G01 X57.4540 Y49.8649
G01 X57.6692 Y49.8837
G01 X57.8778 Y49.9396
G01 X58.0736 Y50.0309
G01 X58.2505 Y50.1548
G01 X58.4032 Y50.3075
G01 X58.5271 Y50.4845
G01 X58.5434 Y50.5194
G01 X58.5488 Y50.5285
G01 X58.5542 Y50.5354
G01 X58.6036 Y50.5914
G01 X58.6090 Y50.5964
G01 X58.6164 Y50.6019
G01 X58.6244 Y50.6064
G01 X58.6329 Y50.6099
G01 X58.7065 Y50.6310
G01 X58.7173 Y50.6329
G01 X58.7265 Y50.6333
G01 X58.7357 Y50.6326
G01 X58.7447 Y50.6307
G01 X58.8179 Y50.6085
G01 X58.8246 Y50.6057
G01 X58.8310 Y50.6023
G01 X58.8385 Y50.5972
G01 X58.8440 Y50.5925
G01 X58.8490 Y50.5872
G01 X58.8942 Y50.5350
G01 X58.8988 Y50.5291
G01 X58.9046 Y50.5195
G01 X58.9209 Y50.4845
G01 X59.0448 Y50.3075
G01 X59.1975 Y50.1548
G01 X59.3745 Y50.0309
G01 X59.5702 Y49.9396
G01 X59.7789 Y49.8837
G01 X59.9940 Y49.8649
G01 X60.2092 Y49.8837
G01 X60.4178 Y49.9396
G01 X60.6136 Y50.0309
G01 X60.7905 Y50.1548
G01 X60.9432 Y50.3075
G01 X61.0671 Y50.4845
G01 X61.0834 Y50.5194
G01 X61.0888 Y50.5285
G01 X61.0942 Y50.5354
G01 X61.1436 Y50.5914
G01 X61.1490 Y50.5964
G01 X61.1564 Y50.6019
G01 X61.1644 Y50.6064
G01 X61.1729 Y50.6099
G01 X61.2465 Y50.6310
G01 X61.2555 Y50.6327
G01 X61.2647 Y50.6333
G01 X61.2757 Y50.6326
G01 X61.2847 Y50.6307
G01 X61.3562 Y50.6091
G01 X61.3629 Y50.6065
G01 X61.3694 Y50.6032
G01 X61.3755 Y50.5993
G01 X61.3813 Y50.5949
G01 X61.3890 Y50.5872
G01 X61.4342 Y50.5350
G01 X61.4388 Y50.5291
G01 X61.4446 Y50.5195
G01 X61.4609 Y50.4845
G01 X61.5848 Y50.3075
G01 X61.7375 Y50.1548
G01 X61.9145 Y50.0309
G01 X61.9849 Y49.9981
G01 X61.9896 Y49.9957
G01 X61.9956 Y49.9919
G01 X62.0026 Y49.9865
G01 X62.0572 Y49.9384
G01 X62.0624 Y49.9331
G01 X62.0680 Y49.9259
G01 X62.0719 Y49.9196
G01 X62.0743 Y49.9147
G01 X62.0781 Y49.9043
G01 X62.0981 Y49.8343
G01 X62.1000 Y49.8234
G01 X62.1004 Y49.8142
G01 X62.0997 Y49.8050
G01 X62.0978 Y49.7960
G01 X62.0762 Y49.7246
G01 X62.0736 Y49.7179
G01 X62.0704 Y49.7114
G01 X62.0665 Y49.7053
G01 X62.0621 Y49.6996
G01 X62.0584 Y49.6956
G01 X62.0531 Y49.6907
G01 X61.9959 Y49.6433
G01 X61.9868 Y49.6368
G01 X61.9769 Y49.6318
G01 X61.8808 Y49.5920
G01 X61.6883 Y49.4741
G01 X61.5166 Y49.3274
G01 X61.3700 Y49.1557
G01 X61.2520 Y48.9632
G01 X61.1656 Y48.7547
G01 X61.1129 Y48.5351
G01 X61.0952 Y48.3100
G01 X61.1129 Y48.0849
G01 X61.1656 Y47.8654
G01 X61.2520 Y47.6568
G01 X61.3700 Y47.4643
G01 X61.5166 Y47.2926
G01 X61.6308 Y47.1951
G01 X61.6370 Y47.1888
G01 X61.6414 Y47.1833
G01 X61.6822 Y47.1209
G01 X61.6858 Y47.1148
G01 X61.6881 Y47.1100
G01 X61.6912 Y47.1016
G01 X61.6929 Y47.0947
G01 X61.6994 Y47.0495
G01 X61.6996 Y45.0952
G01 X61.6992 Y45.0877
G01 X61.6981 Y45.0803
G01 X61.6962 Y45.0730
G01 X61.6728 Y44.9989
G01 X61.6683 Y44.9885
G01 X61.6634 Y44.9805
G01 X61.5479 Y44.8154
G01 X61.4640 Y44.6355
G01 X61.4126 Y44.4438
G01 X61.3953 Y44.2460
G01 X61.4126 Y44.0483
G01 X61.4640 Y43.8566
G01 X61.5479 Y43.6767
G01 X61.6617 Y43.5141
G01 X61.8021 Y43.3737
G01 X61.9647 Y43.2599
G01 X62.1446 Y43.1760
G01 X62.3363 Y43.1246
G01 X62.5340 Y43.1073
G01 X62.7318 Y43.1246
G01 X62.9235 Y43.1760
G01 X63.1034 Y43.2599
G01 X63.2660 Y43.3737
G01 X63.4063 Y43.5141
G01 X63.5202 Y43.6767
G01 X63.6041 Y43.8566
G01 X63.6555 Y44.0483
G01 X63.6728 Y44.2460
G01 X63.6636 Y44.3504
G01 X63.6636 Y44.3592
G01 X63.6646 Y44.3680
G01 X63.6793 Y44.4411
G01 X63.6824 Y44.4514
G01 X63.6854 Y44.4580
G01 X63.6899 Y44.4657
G01 X63.7178 Y44.5035
G01 X66.8850 Y47.6710
G01 X66.8930 Y47.6779
G01 X66.9019 Y47.6837
G01 X66.9642 Y47.7177
G01 X66.9725 Y47.7215
G01 X66.9793 Y47.7239
G01 X66.9882 Y47.7258
G01 X67.0186 Y47.7292
G01 X67.0265 Y47.7296
G01 X67.9246 Y47.7295
G01 X67.9333 Y47.7286
G01 X67.9402 Y47.7271
G01 X68.0153 Y47.7049
G01 X68.0237 Y47.7011
G01 X68.0300 Y47.6974
G01 X68.0373 Y47.6918
G01 X68.0439 Y47.6854
G01 X68.0940 Y47.6276
G01 X68.1001 Y47.6184
G01 X68.1027 Y47.6135
G01 X68.1055 Y47.6067
G01 X68.1071 Y47.6014
G01 X68.1087 Y47.5942
G01 X68.1195 Y47.5185
G01 X68.1199 Y47.5111
G01 X68.1192 Y47.5020
G01 X68.1175 Y47.4929
G01 X68.1153 Y47.4859
G01 X68.0837 Y47.4162
G01 X68.0803 Y47.4097
G01 X68.0774 Y47.4051
G01 X68.0718 Y47.3979
G01 X68.0627 Y47.3882
G01 X67.9633 Y47.2886
G01 X67.8795 Y47.1527
G01 X67.8718 Y47.1297
G01 X67.8689 Y47.1233
G01 X67.8655 Y47.1171
G01 X67.8221 Y47.0543
G01 X67.8162 Y47.0472
G01 X67.8109 Y47.0421
G01 X67.8051 Y47.0376
G01 X67.8005 Y47.0345
G01 X67.7906 Y47.0296
G01 X67.7234 Y47.0017
G01 X67.7131 Y46.9985
G01 X67.7042 Y46.9971
G01 X67.6831 Y46.9959
G01 X67.2435 Y46.9959
G01 X67.1989 Y46.9880
G01 X67.1848 Y46.9861
G01 X67.1364 Y46.9818
G01 X67.0925 Y46.9701
G01 X67.0787 Y46.9669
G01 X67.0308 Y46.9584
G01 X66.9882 Y46.9429
G01 X66.9747 Y46.9386
G01 X66.9277 Y46.9259
G01 X66.8836 Y46.9054
G01 X66.8705 Y46.9001
G01 X66.8279 Y46.8845
G01 X66.7886 Y46.8619
G01 X66.7760 Y46.8552
G01 X66.7320 Y46.8346
G01 X66.6921 Y46.8068
G01 X66.6801 Y46.7992
G01 X66.6408 Y46.7766
G01 X66.6060 Y46.7474
G01 X66.5948 Y46.7387
G01 X66.5550 Y46.7107
G01 X65.3948 Y45.5505
G01 X65.3669 Y45.5107
G01 X65.3582 Y45.4995
G01 X65.3290 Y45.4648
G01 X65.3063 Y45.4255
G01 X65.2987 Y45.4134
G01 X65.2709 Y45.3736
G01 X65.2503 Y45.3296
G01 X65.2437 Y45.3170
G01 X65.2210 Y45.2777
G01 X65.2043 Y45.2321
G01 X65.1988 Y45.2189
G01 X65.1796 Y45.1778
G01 X65.1670 Y45.1309
G01 X65.1627 Y45.1174
G01 X65.1471 Y45.0747
G01 X65.1386 Y45.0269
G01 X65.1355 Y45.0130
G01 X65.1237 Y44.9692
G01 X65.1194 Y44.9208
G01 X65.1175 Y44.9067
G01 X65.1096 Y44.8620
G01 X65.1096 Y44.2714
G01 X65.1093 Y44.2640
G01 X65.1085 Y44.2585
G01 X65.1068 Y44.2513
G01 X65.0883 Y44.1854
G01 X65.0859 Y44.1784
G01 X65.0811 Y44.1684
G01 X65.0620 Y44.1372
G01 X64.9756 Y43.9287
G01 X64.9229 Y43.7091
G01 X64.9052 Y43.4840
G01 X64.9229 Y43.2589
G01 X64.9346 Y43.2104
G01 X64.9756 Y43.0394
G01 X65.0620 Y42.8308
G01 X65.1800 Y42.6383
G01 X65.3266 Y42.4666
G01 X65.4653 Y42.3482
G01 X65.4716 Y42.3421
G01 X65.4751 Y42.3381
G01 X65.4792 Y42.3323
G01 X65.5190 Y42.2713
G01 X65.5233 Y42.2632
G01 X65.5266 Y42.2546
G01 X65.5289 Y42.2457
G01 X65.5300 Y42.2348
G01 X65.5305 Y42.1582
G01 X65.5295 Y42.1491
G01 X65.5275 Y42.1401
G01 X65.5243 Y42.1315
G01 X65.5201 Y42.1233
G01 X65.4801 Y42.0602
G01 X65.4746 Y42.0529
G01 X65.4667 Y42.0451
G01 X65.4594 Y42.0396
G01 X65.4514 Y42.0350
G01 X65.3854 Y42.0043
G01 X65.3754 Y42.0005
G01 X65.3685 Y41.9987
G01 X65.3632 Y41.9979
G01 X65.3353 Y41.9959
G01 X53.6771 Y41.9959
G01 X53.6683 Y41.9967
G01 X53.6580 Y41.9989
G01 X53.5881 Y42.0195
G01 X53.5811 Y42.0221
G01 X53.5728 Y42.0264
G01 X53.5666 Y42.0305
G01 X53.5502 Y42.0428
G01 X53.4738 Y42.1081
G01 X53.2812 Y42.2260
G01 X53.0727 Y42.3124
G01 X52.8531 Y42.3651
G01 X52.6280 Y42.3829
G01 X52.4029 Y42.3651
G01 X52.1834 Y42.3124
G01 X51.9748 Y42.2260
G01 X51.7823 Y42.1081
G01 X51.6106 Y41.9614
G01 X51.4640 Y41.7897
G01 X51.3460 Y41.5972
G01 X51.2596 Y41.3887
G01 X51.2511 Y41.3531
G01 X51.2474 Y41.3426
G01 X51.2441 Y41.3360
G01 X51.2098 Y41.2747
G01 X51.2046 Y41.2671
G01 X51.1997 Y41.2615
G01 X47.3493 Y37.4110
G01 X47.3413 Y37.4041
G01 X47.3340 Y37.3993
G01 X47.2685 Y37.3635
G01 X47.2619 Y37.3605
G01 X47.2550 Y37.3582
G01 X47.2479 Y37.3565
G01 X47.2425 Y37.3557
G01 X47.2158 Y37.3528
G01 X47.2078 Y37.3524
G01 X26.1040 Y37.3524
G01 X26.0594 Y37.3445
G01 X26.0453 Y37.3426
G01 X25.9969 Y37.3383
G01 X25.9530 Y37.3266
G01 X25.9392 Y37.3234
G01 X25.8913 Y37.3149
G01 X25.8487 Y37.2994
G01 X25.8352 Y37.2951
G01 X25.7882 Y37.2824
G01 X25.7441 Y37.2619
G01 X25.7310 Y37.2566
G01 X25.6884 Y37.2410
G01 X25.6491 Y37.2184
G01 X25.6365 Y37.2117
G01 X25.5925 Y37.1911
G01 X25.5526 Y37.1633
G01 X25.5406 Y37.1557
G01 X25.5013 Y37.1331
G01 X25.4665 Y37.1039
G01 X25.4553 Y37.0952
G01 X25.4155 Y37.0672
G01 X22.7955 Y34.4472
G01 X22.7676 Y34.4074
G01 X22.7589 Y34.3962
G01 X22.7297 Y34.3615
G01 X22.7070 Y34.3222
G01 X22.6994 Y34.3101
G01 X22.6716 Y34.2703
G01 X22.6510 Y34.2263
G01 X22.6444 Y34.2137
G01 X22.6217 Y34.1744
G01 X22.6050 Y34.1288
G01 X22.5995 Y34.1156
G01 X22.5803 Y34.0745
G01 X22.5677 Y34.0276
G01 X22.5634 Y34.0141
G01 X22.5478 Y33.9714
G01 X22.5393 Y33.9236
G01 X22.5362 Y33.9097
G01 X22.5244 Y33.8659
G01 X22.5201 Y33.8175
G01 X22.5182 Y33.8034
G01 X22.5103 Y33.7587
G01 X22.5103 Y33.6665
G01 X22.5096 Y33.6560
G01 X22.5073 Y33.6456
G01 X22.4873 Y33.5775
G01 X22.4849 Y33.5706
G01 X22.4826 Y33.5655
G01 X22.4791 Y33.5591
G01 X22.4760 Y33.5545
G01 X22.4713 Y33.5488
G01 X22.4661 Y33.5436
G01 X22.4097 Y33.4947
G01 X22.4038 Y33.4903
G01 X22.3975 Y33.4865
G01 X22.3874 Y33.4821
G01 X22.3767 Y33.4792
G01 X22.3028 Y33.4685
G01 X22.2937 Y33.4677
G01 X22.2845 Y33.4681
G01 X22.2754 Y33.4696
G01 X22.2666 Y33.4723
G01 X22.1953 Y33.5047
G01 X22.1873 Y33.5092
G01 X22.1814 Y33.5135
G01 X22.1687 Y33.5250
G01 X21.6745 Y34.0192
G01 X21.6347 Y34.0472
G01 X21.6235 Y34.0559
G01 X21.5888 Y34.0850
G01 X21.5495 Y34.1077
G01 X21.5374 Y34.1153
G01 X21.4976 Y34.1431
G01 X21.4536 Y34.1637
G01 X21.4410 Y34.1704
G01 X21.4017 Y34.1930
G01 X21.3591 Y34.2086
G01 X21.3459 Y34.2139
G01 X21.3018 Y34.2344
G01 X21.2549 Y34.2471
G01 X21.2414 Y34.2514
G01 X21.1987 Y34.2669
G01 X21.1509 Y34.2754
G01 X21.1370 Y34.2786
G01 X21.0932 Y34.2903
G01 X21.0448 Y34.2946
G01 X21.0307 Y34.2965
G01 X20.9860 Y34.3044
G01 X20.3500 Y34.3045
G01 X20.3412 Y34.3055
G01 X20.3343 Y34.3069
G01 X20.2610 Y34.3286
G01 X20.2542 Y34.3313
G01 X20.2461 Y34.3357
G01 X20.2401 Y34.3399
G01 X20.2345 Y34.3447
G01 X20.2294 Y34.3500
G01 X20.1817 Y34.4051
G01 X20.1773 Y34.4110
G01 X20.1735 Y34.4174
G01 X20.1697 Y34.4258
G01 X20.1669 Y34.4346
G01 X20.1551 Y34.4888
G01 X20.1536 Y34.4992
G01 X20.1534 Y35.4141
G01 X20.1481 Y35.4631
G01 X20.1040 Y35.5808
G01 X20.0294 Y35.6804
G01 X19.9298 Y35.7550
G01 X19.8121 Y35.7991
G01 X19.7631 Y35.8044
G01 X17.6749 Y35.8044
G01 X17.6260 Y35.7991
G01 X17.5083 Y35.7550
G01 X17.4087 Y35.6804
G01 X17.3341 Y35.5808
G01 X17.2899 Y35.4631
G01 X17.2846 Y35.4141
G01 X17.2846 Y30.7259
G01 X17.2899 Y30.6770
G01 X17.3341 Y30.5593
G01 X17.4087 Y30.4597
G01 X17.5083 Y30.3851
G01 X17.6260 Y30.3409
G01 X17.6749 Y30.3356
G01 X19.7631 Y30.3356
G01 X19.8121 Y30.3409
G01 X19.9298 Y30.3851
G01 X20.0294 Y30.4597
G01 X20.1040 Y30.5593
G01 X20.1481 Y30.6770
G01 X20.1534 Y30.7259
G01 X20.1534 Y31.5676
G01 X20.1542 Y31.5764
G01 X20.1559 Y31.5850
G01 X20.1770 Y31.6566
G01 X20.1803 Y31.6652
G01 X20.1837 Y31.6717
G01 X20.1889 Y31.6793
G01 X20.1950 Y31.6862
G01 X20.2541 Y31.7376
G01 X20.2600 Y31.7420
G01 X20.2647 Y31.7449
G01 X20.2696 Y31.7475
G01 X20.2764 Y31.7503
G01 X20.2870 Y31.7532
G01 X20.3609 Y31.7639
G01 X20.3719 Y31.7647
G01 X20.3793 Y31.7642
G01 X20.3865 Y31.7631
G01 X20.3937 Y31.7613
G01 X20.4006 Y31.7587
G01 X20.4685 Y31.7277
G01 X20.4764 Y31.7232
G01 X20.4852 Y31.7165
G01 X20.4950 Y31.7073
G01 X21.3515 Y30.8508
G01 X21.3913 Y30.8229
G01 X21.4025 Y30.8142
G01 X21.4373 Y30.7850
G01 X21.4766 Y30.7623
G01 X21.4886 Y30.7547
G01 X21.5285 Y30.7269
G01 X21.5725 Y30.7063
G01 X21.5851 Y30.6997
G01 X21.6244 Y30.6770
G01 X21.6700 Y30.6603
G01 X21.6831 Y30.6548
G01 X21.7242 Y30.6356
G01 X21.7712 Y30.6230
G01 X21.7847 Y30.6187
G01 X21.8273 Y30.6031
G01 X21.8752 Y30.5946
G01 X21.8890 Y30.5915
G01 X21.9329 Y30.5797
G01 X21.9813 Y30.5754
G01 X21.9954 Y30.5735
G01 X22.0400 Y30.5656
G01 X22.3102 Y30.5656
G01 X22.3173 Y30.5653
G01 X22.3225 Y30.5646
G01 X22.3294 Y30.5631
G01 X22.4010 Y30.5421
G01 X22.4095 Y30.5387
G01 X22.4176 Y30.5344
G01 X22.4265 Y30.5278
G01 X22.4331 Y30.5214
G01 X22.4820 Y30.4650
G01 X22.4854 Y30.4606
G01 X22.4894 Y30.4543
G01 X22.4934 Y30.4460
G01 X22.4968 Y30.4354
G01 X22.5086 Y30.3813
G01 X22.5101 Y30.3708
G01 X22.5103 Y28.3173
G01 X22.5182 Y28.2727
G01 X22.5201 Y28.2586
G01 X22.5244 Y28.2102
G01 X22.5362 Y28.1663
G01 X22.5393 Y28.1525
G01 X22.5478 Y28.1046
G01 X22.5634 Y28.0620
G01 X22.5677 Y28.0485
G01 X22.5803 Y28.0015
G01 X22.5995 Y27.9604
G01 X22.6050 Y27.9473
G01 X22.6217 Y27.9017
G01 X22.6444 Y27.8624
G01 X22.6510 Y27.8498
G01 X22.6716 Y27.8058
G01 X22.6994 Y27.7659
G01 X22.7070 Y27.7539
G01 X22.7297 Y27.7146
G01 X22.7589 Y27.6798
G01 X22.7676 Y27.6686
G01 X22.7955 Y27.6288
G01 X23.6143 Y26.8100
G01 X23.6202 Y26.8034
G01 X23.6233 Y26.7992
G01 X23.6270 Y26.7931
G01 X23.6619 Y26.7292
G01 X23.6662 Y26.7190
G01 X23.6686 Y26.7102
G01 X23.6698 Y26.7011
G01 X23.6699 Y26.6900
G01 X23.6646 Y26.6174
G01 X23.6636 Y26.6101
G01 X23.6618 Y26.6030
G01 X23.6578 Y26.5927
G01 X23.6523 Y26.5831
G01 X23.6065 Y26.5218
G01 X23.6017 Y26.5162
G01 X23.5949 Y26.5100
G01 X23.5890 Y26.5057
G01 X23.5826 Y26.5020
G01 X23.5742 Y26.4982
G01 X23.5077 Y26.4734
G01 X23.5007 Y26.4712
G01 X23.4954 Y26.4700
G01 X23.4881 Y26.4690
G01 X23.4755 Y26.4685
G01 X23.4249 Y26.4684
G01 X23.3760 Y26.4631
G01 X23.2583 Y26.4190
G01 X23.1587 Y26.3444
G01 X23.0841 Y26.2448
G01 X23.0399 Y26.1271
G01 X23.0346 Y26.0781
G01 X23.0346 Y25.8685
G01 X23.0343 Y25.8615
G01 X23.0333 Y25.8545
G01 X23.0321 Y25.8493
G01 X23.0099 Y25.7743
G01 X23.0061 Y25.7659
G01 X23.0013 Y25.7580
G01 X22.9956 Y25.7508
G01 X22.9890 Y25.7444
G01 X22.9311 Y25.6944
G01 X22.9249 Y25.6903
G01 X22.9200 Y25.6876
G01 X22.9133 Y25.6847
G01 X22.9062 Y25.6824
G01 X22.8485 Y25.6698
G01 X22.8416 Y25.6688
G01 X22.8345 Y25.6684
G01 X20.2620 Y25.6684
G01 X20.2174 Y25.6605
G01 X20.2033 Y25.6586
G01 X20.1549 Y25.6543
G01 X20.1110 Y25.6426
G01 X20.0972 Y25.6394
G01 X20.0493 Y25.6309
G01 X20.0036 Y25.6144
G01 X19.9900 Y25.6102
G01 X19.9462 Y25.5984
G01 X19.9051 Y25.5792
G01 X19.8920 Y25.5737
G01 X19.8464 Y25.5570
G01 X19.8071 Y25.5344
G01 X19.7945 Y25.5277
G01 X19.7505 Y25.5071
G01 X19.7133 Y25.4811
G01 X19.7014 Y25.4734
G01 X19.6593 Y25.4491
G01 X19.6245 Y25.4199
G01 X19.6133 Y25.4112
G01 X19.5735 Y25.3832
G01 X18.0648 Y23.8745
G01 X18.0369 Y23.8347
G01 X18.0282 Y23.8235
G01 X17.9990 Y23.7888
G01 X17.9763 Y23.7495
G01 X17.9687 Y23.7374
G01 X17.9409 Y23.6976
G01 X17.9203 Y23.6536
G01 X17.9137 Y23.6410
G01 X17.8910 Y23.6017
G01 X17.8743 Y23.5561
G01 X17.8688 Y23.5429
G01 X17.8496 Y23.5018
G01 X17.8370 Y23.4549
G01 X17.8327 Y23.4414
G01 X17.8171 Y23.3987
G01 X17.8086 Y23.3509
G01 X17.8055 Y23.3370
G01 X17.7937 Y23.2932
G01 X17.7894 Y23.2448
G01 X17.7875 Y23.2307
G01 X17.7796 Y23.1860
G01 X17.7796 Y19.1185
G01 X17.7791 Y19.1097
G01 X17.7771 Y19.0993
G01 X17.7549 Y19.0243
G01 X17.7511 Y19.0159
G01 X17.7463 Y19.0080
G01 X17.7406 Y19.0008
G01 X17.7340 Y18.9944
G01 X17.6790 Y18.9467
G01 X17.6715 Y18.9413
G01 X17.6650 Y18.9376
G01 X17.6565 Y18.9340
G01 X17.6476 Y18.9315
G01 X17.5935 Y18.9198
G01 X17.5883 Y18.9189
G01 X17.5813 Y18.9184
G01 X14.3554 Y18.9184
G01 X14.3280 Y18.9204
G01 X14.3179 Y18.9219
G01 X14.2574 Y18.9187
G01 X14.2303 Y18.9184
G01 X14.2052 Y18.9160
G01 X14.1428 Y18.9127
G01 X14.1310 Y18.9098
G01 X14.1097 Y18.9058
G01 X14.0996 Y18.9047
G01 X14.0401 Y18.8854
G01 X13.9734 Y18.8673
G01 X13.9625 Y18.8620
G01 X13.9424 Y18.8537
G01 X13.9328 Y18.8505
G01 X13.8728 Y18.8161
G01 X13.8171 Y18.7877
G01 X13.8075 Y18.7802
G01 X13.7896 Y18.7680
G01 X13.7809 Y18.7628
G01 X13.7344 Y18.7210
G01 X13.7149 Y18.7050
G01 X13.6956 Y18.6860
G01 X13.6505 Y18.6454
G01 X13.6445 Y18.6373
G01 X13.6264 Y18.6165
G01 X8.4076 Y13.3976
G01 X8.3868 Y13.3796
G01 X8.3786 Y13.3735
G01 X8.3381 Y13.3285
G01 X8.3191 Y13.3091
G01 X8.3031 Y13.2897
G01 X8.2613 Y13.2432
G01 X8.2561 Y13.2344
G01 X8.2438 Y13.2165
G01 X8.2364 Y13.2070
G01 X8.2080 Y13.1512
G01 X8.1736 Y13.0913
G01 X8.1703 Y13.0816
G01 X8.1620 Y13.0616
G01 X8.1568 Y13.0507
G01 X8.1405 Y12.9903
G01 X8.1194 Y12.9245
G01 X8.1179 Y12.9124
G01 X8.1139 Y12.8911
G01 X8.1114 Y12.8813
G01 X8.1082 Y12.8208
G01 X8.1056 Y12.7938
G01 X8.1054 Y12.7666
G01 X8.1022 Y12.7061
G01 X8.1037 Y12.6961
G01 X8.1056 Y12.6686
G01 X8.1056 Y4.4494
G01 X8.1037 Y4.4220
G01 X8.1022 Y4.4119
G01 X8.1054 Y4.3514
G01 X8.1056 Y4.3243
G00 Z2.0000
G00 X8.2390 Y4.3313
G01 F30.00
G01 Z-0.0899
G01 F60.00
G01 X8.2414 Y4.3043
G01 X8.2439 Y4.2568
G01 X8.2503 Y4.2224
G01 X8.2684 Y4.1657
G01 X8.2822 Y4.1145
G01 X8.2956 Y4.0821
G01 X8.3252 Y4.0305
G01 X8.3493 Y3.9833
G01 X8.3691 Y3.9544
G01 X8.4009 Y3.9191
G01 X8.4184 Y3.8983
G01 X8.4372 Y3.8788
G01 X8.4690 Y3.8435
G01 X8.4900 Y3.8258
G01 X8.5019 Y3.8148
G01 X9.7028 Y2.6139
G01 X9.7138 Y2.6020
G01 X9.7315 Y2.5810
G01 X9.7668 Y2.5492
G01 X9.7863 Y2.5304
G01 X9.8071 Y2.5129
G01 X9.8424 Y2.4811
G01 X9.8713 Y2.4613
G01 X9.9184 Y2.4372
G01 X9.9701 Y2.4076
G01 X10.0025 Y2.3942
G01 X10.0537 Y2.3804
G01 X10.1104 Y2.3623
G01 X10.1448 Y2.3559
G01 X10.1923 Y2.3534
G01 X10.2193 Y2.3510
G01 X10.2464 Y2.3505
G01 X10.2975 Y2.3479
G01 X10.3098 Y2.3483
G01 X10.3197 Y2.3481
G01 X10.3344 Y2.3469
G01 X10.3491 Y2.3447
G01 X10.4278 Y2.3263
G01 X10.4427 Y2.3221
G01 X10.4572 Y2.3169
G01 X10.4713 Y2.3106
G01 X10.4849 Y2.3033
G01 X10.4937 Y2.2979
G01 X10.5022 Y2.2920
G01 X10.5103 Y2.2857
G01 X10.5182 Y2.2790
G01 X10.5257 Y2.2720
G01 X10.5820 Y2.2135
G01 X10.5918 Y2.2019
G01 X10.6008 Y2.1897
G01 X10.6088 Y2.1769
G01 X10.6136 Y2.1680
G01 X10.6180 Y2.1589
G01 X10.6278 Y2.1359
G01 X10.6337 Y2.1205
G01 X10.6516 Y2.0667
G01 X10.7192 Y1.9574
G01 X10.8102 Y1.8666
G01 X10.9196 Y1.7992
G01 X11.0429 Y1.7583
G01 X11.1142 Y1.7510
G01 X12.3937 Y1.7510
G01 X12.4661 Y1.7585
G01 X12.5894 Y1.7996
G01 X12.6986 Y1.8672
G01 X12.7894 Y1.9582
G01 X12.8694 Y2.0878
G01 X12.8779 Y2.1000
G01 X12.8873 Y2.1115
G01 X12.9010 Y2.1257
G01 X12.9574 Y2.1765
G01 X12.9652 Y2.1832
G01 X12.9775 Y2.1925
G01 X12.9861 Y2.1982
G01 X12.9950 Y2.2034
G01 X13.0088 Y2.2105
G01 X13.0182 Y2.2146
G01 X13.0278 Y2.2182
G01 X13.0426 Y2.2228
G01 X13.0526 Y2.2252
G01 X13.0628 Y2.2271
G01 X13.1328 Y2.2385
G01 X13.1482 Y2.2404
G01 X13.1636 Y2.2412
G01 X13.1791 Y2.2408
G01 X13.1893 Y2.2399
G01 X13.1995 Y2.2385
G01 X13.2097 Y2.2366
G01 X13.2197 Y2.2342
G01 X13.2345 Y2.2297
G01 X13.2488 Y2.2240
G01 X13.3186 Y2.1937
G01 X13.3277 Y2.1892
G01 X13.3409 Y2.1816
G01 X13.3494 Y2.1761
G01 X13.3616 Y2.1669
G01 X13.3693 Y2.1604
G01 X13.3878 Y2.1431
G01 X13.4889 Y2.0372
G01 X13.6456 Y1.9207
G01 X13.7925 Y1.8459
G01 X13.7925 Y1.9516
G01 X13.7646 Y1.9648
G01 X13.7511 Y1.9719
G01 X13.6751 Y2.0173
G01 X13.6623 Y2.0256
G01 X13.5832 Y2.0846
G01 X13.5099 Y2.1507
G01 X13.4993 Y2.1616
G01 X13.4432 Y2.2235
G01 X13.4303 Y2.2392
G01 X13.3748 Y2.3145
G01 X13.3239 Y2.3991
G01 X13.3168 Y2.4126
G01 X13.2770 Y2.4973
G01 X13.2453 Y2.5854
G01 X13.2394 Y2.6049
G01 X13.2169 Y2.6957
G01 X13.2029 Y2.7883
G01 X13.2009 Y2.8085
G01 X13.1965 Y2.9020
G01 X13.1966 Y3.2071
G01 X13.2009 Y3.2955
G01 X13.2022 Y3.3107
G01 X13.2169 Y3.4083
G01 X13.2394 Y3.4992
G01 X13.2453 Y3.5187
G01 X13.2734 Y3.5972
G01 X13.2790 Y3.6114
G01 X13.3214 Y3.7005
G01 X13.3748 Y3.7895
G01 X13.4366 Y3.8729
G01 X13.5027 Y3.9461
G01 X13.5136 Y3.9568
G01 X13.5832 Y4.0195
G01 X13.6623 Y4.0784
G01 X13.6751 Y4.0867
G01 X13.7511 Y4.1322
G01 X13.7646 Y4.1392
G01 X13.7925 Y4.1524
G01 X13.7925 Y4.2568
G01 X13.7406 Y4.2363
G01 X13.5737 Y4.1350
G01 X13.4262 Y4.0070
G01 X13.4016 Y3.9774
G01 X13.3913 Y3.9668
G01 X13.3840 Y3.9601
G01 X13.3686 Y3.9479
G01 X13.3016 Y3.9022
G01 X13.2928 Y3.8968
G01 X13.2791 Y3.8896
G01 X13.2697 Y3.8853
G01 X13.2553 Y3.8799
G01 X13.2405 Y3.8755
G01 X13.2304 Y3.8732
G01 X13.2203 Y3.8714
G01 X13.2049 Y3.8696
G01 X13.1185 Y3.8670
G01 X13.1031 Y3.8676
G01 X13.0877 Y3.8693
G01 X13.0775 Y3.8710
G01 X13.0675 Y3.8733
G01 X13.0576 Y3.8760
G01 X13.0478 Y3.8793
G01 X13.0382 Y3.8830
G01 X13.0288 Y3.8872
G01 X13.0196 Y3.8919
G01 X13.0106 Y3.8970
G01 X12.9410 Y3.9394
G01 X12.9284 Y3.9487
G01 X12.9203 Y3.9554
G01 X12.9126 Y3.9625
G01 X12.9053 Y3.9700
G01 X12.8983 Y3.9779
G01 X12.8918 Y3.9861
G01 X12.8747 Y4.0088
G01 X12.8692 Y4.0168
G01 X12.7888 Y4.1466
G01 X12.6979 Y4.2374
G01 X12.5885 Y4.3048
G01 X12.4651 Y4.3457
G01 X12.3938 Y4.3530
G01 X11.1144 Y4.3530
G01 X11.0419 Y4.3455
G01 X10.9187 Y4.3044
G01 X10.8094 Y4.2368
G01 X10.7174 Y4.1446
G01 X10.7104 Y4.1352
G01 X10.7040 Y4.1276
G01 X10.6903 Y4.1134
G01 X10.6261 Y4.0559
G01 X10.6180 Y4.0496
G01 X10.6095 Y4.0437
G01 X10.6008 Y4.0382
G01 X10.5918 Y4.0332
G01 X10.5778 Y4.0265
G01 X10.5635 Y4.0209
G01 X10.5487 Y4.0163
G01 X10.5336 Y4.0129
G01 X10.4483 Y3.9992
G01 X10.4380 Y3.9983
G01 X10.4225 Y3.9979
G01 X10.4122 Y3.9983
G01 X10.4020 Y3.9992
G01 X10.3867 Y4.0015
G01 X10.3766 Y4.0036
G01 X10.3667 Y4.0063
G01 X10.3569 Y4.0094
G01 X10.3425 Y4.0150
G01 X10.2725 Y4.0455
G01 X10.2584 Y4.0527
G01 X10.2493 Y4.0581
G01 X10.2406 Y4.0639
G01 X10.2280 Y4.0735
G01 X10.2082 Y4.0913
G01 X9.7387 Y4.5607
G01 X9.7286 Y4.5716
G01 X9.7164 Y4.5871
G01 X9.7083 Y4.5994
G01 X9.6669 Y4.6748
G01 X9.6625 Y4.6840
G01 X9.6567 Y4.6981
G01 X9.6519 Y4.7126
G01 X9.6494 Y4.7225
G01 X9.6464 Y4.7375
G01 X9.6451 Y4.7476
G01 X9.6417 Y4.7799
G01 X9.6410 Y4.7965
G01 X9.6411 Y6.8204
G01 X9.6416 Y6.8303
G01 X9.6432 Y6.8450
G01 X9.6469 Y6.8644
G01 X9.6710 Y6.9470
G01 X9.6762 Y6.9615
G01 X9.6826 Y6.9756
G01 X9.6899 Y6.9892
G01 X9.6983 Y7.0022
G01 X9.7076 Y7.0146
G01 X9.7143 Y7.0224
G01 X9.7250 Y7.0335
G01 X9.7327 Y7.0404
G01 X9.7943 Y7.0935
G01 X9.8025 Y7.0996
G01 X9.8111 Y7.1054
G01 X9.8199 Y7.1107
G01 X9.8290 Y7.1155
G01 X9.8431 Y7.1219
G01 X9.8576 Y7.1273
G01 X9.8674 Y7.1303
G01 X9.8825 Y7.1338
G01 X9.9680 Y7.1463
G01 X9.9782 Y7.1472
G01 X9.9936 Y7.1477
G01 X10.0090 Y7.1470
G01 X10.0192 Y7.1460
G01 X10.0344 Y7.1434
G01 X10.0494 Y7.1397
G01 X10.0592 Y7.1367
G01 X10.0688 Y7.1331
G01 X10.1321 Y7.1079
G01 X10.1451 Y7.1014
G01 X10.1577 Y7.0941
G01 X10.2156 Y7.0538
G01 X10.3743 Y6.9798
G01 X10.5435 Y6.9344
G01 X10.7180 Y6.9192
G01 X10.8925 Y6.9344
G01 X11.0617 Y6.9798
G01 X11.2204 Y7.0538
G01 X11.3639 Y7.1543
G01 X11.4878 Y7.2781
G01 X11.5882 Y7.4216
G01 X11.6089 Y7.4658
G01 X11.6623 Y7.5803
G01 X11.7076 Y7.7495
G01 X11.7229 Y7.9240
G01 X11.7076 Y8.0985
G01 X11.6623 Y8.2677
G01 X11.5882 Y8.4264
G01 X11.4794 Y8.5820
G01 X11.4708 Y8.5953
G01 X11.4632 Y8.6092
G01 X11.4568 Y8.6237
G01 X11.4531 Y8.6336
G01 X11.4271 Y8.7159
G01 X11.4245 Y8.7261
G01 X11.4223 Y8.7365
G01 X11.4201 Y8.7521
G01 X11.4193 Y8.7627
G01 X11.4190 Y8.7732
G01 X11.4191 Y11.5645
G01 X11.4196 Y11.5743
G01 X11.4212 Y11.5890
G01 X11.4249 Y11.6084
G01 X11.4475 Y11.6861
G01 X11.4541 Y11.7053
G01 X11.4627 Y11.7238
G01 X11.4730 Y11.7414
G01 X11.4818 Y11.7538
G01 X11.5054 Y11.7831
G01 X11.5167 Y11.7953
G01 X14.4667 Y14.7453
G01 X14.4776 Y14.7554
G01 X14.4852 Y14.7617
G01 X14.4971 Y14.7704
G01 X14.5054 Y14.7758
G01 X14.5763 Y14.8147
G01 X14.5900 Y14.8216
G01 X14.6041 Y14.8274
G01 X14.6137 Y14.8306
G01 X14.6235 Y14.8335
G01 X14.6385 Y14.8367
G01 X14.6485 Y14.8383
G01 X14.6804 Y14.8418
G01 X14.6914 Y14.8427
G01 X14.7025 Y14.8430
G01 X17.6995 Y14.8429
G01 X17.7192 Y14.8415
G01 X17.7290 Y14.8401
G01 X17.7435 Y14.8372
G01 X17.8212 Y14.8146
G01 X17.8358 Y14.8097
G01 X17.8454 Y14.8058
G01 X17.8547 Y14.8015
G01 X17.8638 Y14.7967
G01 X17.8727 Y14.7914
G01 X17.8813 Y14.7858
G01 X17.8937 Y14.7765
G01 X17.9015 Y14.7698
G01 X17.9090 Y14.7627
G01 X17.9195 Y14.7514
G01 X17.9660 Y14.6977
G01 X17.9726 Y14.6898
G01 X17.9787 Y14.6815
G01 X17.9872 Y14.6686
G01 X17.9946 Y14.6550
G01 X18.0010 Y14.6410
G01 X18.0064 Y14.6265
G01 X18.0106 Y14.6116
G01 X18.0138 Y14.5965
G01 X18.0247 Y14.5211
G01 X18.0263 Y14.5058
G01 X18.0268 Y14.4955
G01 X18.0267 Y14.4852
G01 X18.0256 Y14.4697
G01 X18.0243 Y14.4595
G01 X18.0225 Y14.4494
G01 X18.0188 Y14.4344
G01 X18.0157 Y14.4245
G01 X18.0101 Y14.4101
G01 X17.9764 Y14.3362
G01 X17.9693 Y14.3228
G01 X17.9640 Y14.3142
G01 X17.9553 Y14.3018
G01 X17.9490 Y14.2939
G01 X17.9388 Y14.2826
G01 X17.9316 Y14.2755
G01 X17.9150 Y14.2614
G01 X17.9074 Y14.2541
G01 X17.8997 Y14.2474
G01 X17.7990 Y14.1716
G01 X17.7473 Y14.1026
G01 X17.7157 Y14.0185
G01 X17.7134 Y13.9976
G01 X17.7119 Y13.9879
G01 X17.7087 Y13.9734
G01 X17.7045 Y13.9592
G01 X17.6993 Y13.9453
G01 X17.6721 Y13.8797
G01 X17.6679 Y13.8703
G01 X17.6632 Y13.8611
G01 X17.6581 Y13.8522
G01 X17.6526 Y13.8435
G01 X17.6466 Y13.8351
G01 X17.6369 Y13.8231
G01 X17.6300 Y13.8155
G01 X17.6226 Y13.8082
G01 X17.6110 Y13.7981
G01 X17.6028 Y13.7918
G01 X17.5403 Y13.7484
G01 X17.5273 Y13.7401
G01 X17.5137 Y13.7328
G01 X17.5044 Y13.7285
G01 X17.4949 Y13.7246
G01 X17.4802 Y13.7198
G01 X17.4703 Y13.7171
G01 X17.4603 Y13.7150
G01 X17.4108 Y13.7070
G01 X17.4014 Y13.7059
G01 X17.3872 Y13.7051
G01 X16.8954 Y13.7050
G01 X16.8792 Y13.7057
G01 X16.8519 Y13.7080
G01 X16.8044 Y13.7055
G01 X16.7773 Y13.7050
G01 X16.7503 Y13.7027
G01 X16.7028 Y13.7002
G01 X16.6684 Y13.6938
G01 X16.6117 Y13.6756
G01 X16.5605 Y13.6618
G01 X16.5281 Y13.6484
G01 X16.4765 Y13.6189
G01 X16.4293 Y13.5948
G01 X16.4004 Y13.5749
G01 X16.3651 Y13.5431
G01 X16.3443 Y13.5257
G01 X16.3248 Y13.5069
G01 X16.2895 Y13.4750
G01 X16.2718 Y13.4541
G01 X16.2608 Y13.4421
G01 X15.3599 Y12.5413
G01 X15.3480 Y12.5302
G01 X15.3270 Y12.5126
G01 X15.2952 Y12.4772
G01 X15.2764 Y12.4577
G01 X15.2589 Y12.4370
G01 X15.2271 Y12.4016
G01 X15.2073 Y12.3728
G01 X15.1832 Y12.3256
G01 X15.1536 Y12.2739
G01 X15.1402 Y12.2415
G01 X15.1264 Y12.1904
G01 X15.1083 Y12.1337
G01 X15.1019 Y12.0993
G01 X15.0994 Y12.0518
G01 X15.0970 Y12.0248
G01 X15.0965 Y11.9976
G01 X15.0941 Y11.9502
G01 X15.0964 Y11.9229
G01 X15.0970 Y11.9066
G01 X15.0970 Y8.7732
G01 X15.0964 Y8.7574
G01 X15.0953 Y8.7469
G01 X15.0937 Y8.7365
G01 X15.0916 Y8.7261
G01 X15.0889 Y8.7159
G01 X15.0630 Y8.6336
G01 X15.0593 Y8.6237
G01 X15.0528 Y8.6092
G01 X15.0453 Y8.5953
G01 X15.0367 Y8.5820
G01 X14.9278 Y8.4264
G01 X14.8538 Y8.2677
G01 X14.8084 Y8.0985
G01 X14.7932 Y7.9240
G01 X14.8084 Y7.7495
G01 X14.8538 Y7.5803
G01 X14.9278 Y7.4216
G01 X15.0283 Y7.2781
G01 X15.1521 Y7.1543
G01 X15.2956 Y7.0538
G01 X15.4543 Y6.9798
G01 X15.6235 Y6.9344
G01 X15.7980 Y6.9192
G01 X15.9725 Y6.9344
G01 X16.1417 Y6.9798
G01 X16.3004 Y7.0538
G01 X16.4439 Y7.1543
G01 X16.5678 Y7.2781
G01 X16.6682 Y7.4216
G01 X16.7423 Y7.5803
G01 X16.7850 Y7.7399
G01 X16.7876 Y7.7495
G01 X16.8029 Y7.9240
G01 X16.7876 Y8.0985
G01 X16.7423 Y8.2677
G01 X16.6682 Y8.4264
G01 X16.5594 Y8.5820
G01 X16.5508 Y8.5953
G01 X16.5432 Y8.6092
G01 X16.5388 Y8.6188
G01 X16.5331 Y8.6336
G01 X16.5071 Y8.7159
G01 X16.5045 Y8.7261
G01 X16.5023 Y8.7365
G01 X16.5001 Y8.7521
G01 X16.4993 Y8.7627
G01 X16.4990 Y8.7732
G01 X16.4991 Y11.5645
G01 X16.5005 Y11.5842
G01 X16.5019 Y11.5939
G01 X16.5049 Y11.6084
G01 X16.5275 Y11.6861
G01 X16.5341 Y11.7053
G01 X16.5404 Y11.7193
G01 X16.5451 Y11.7283
G01 X16.5558 Y11.7456
G01 X16.5618 Y11.7538
G01 X16.5819 Y11.7788
G01 X16.5928 Y11.7913
G01 X17.0067 Y12.2053
G01 X17.0213 Y12.2186
G01 X17.0291 Y12.2247
G01 X17.0413 Y12.2332
G01 X17.0540 Y12.2407
G01 X17.1254 Y12.2794
G01 X17.1346 Y12.2836
G01 X17.1489 Y12.2891
G01 X17.1586 Y12.2921
G01 X17.1735 Y12.2958
G01 X17.1936 Y12.2989
G01 X17.2259 Y12.3023
G01 X17.2370 Y12.3029
G01 X17.3825 Y12.3030
G01 X17.3923 Y12.3028
G01 X17.4071 Y12.3015
G01 X17.4169 Y12.3001
G01 X17.4314 Y12.2972
G01 X17.5090 Y12.2746
G01 X17.5237 Y12.2697
G01 X17.5332 Y12.2658
G01 X17.5426 Y12.2615
G01 X17.5517 Y12.2567
G01 X17.5606 Y12.2514
G01 X17.5692 Y12.2458
G01 X17.5775 Y12.2397
G01 X17.5855 Y12.2332
G01 X17.5931 Y12.2263
G01 X17.6004 Y12.2190
G01 X17.6074 Y12.2114
G01 X17.6572 Y12.1538
G01 X17.6635 Y12.1457
G01 X17.6695 Y12.1373
G01 X17.6750 Y12.1287
G01 X17.6800 Y12.1197
G01 X17.6847 Y12.1105
G01 X17.6888 Y12.1012
G01 X17.6942 Y12.0867
G01 X17.7078 Y12.0381
G01 X17.7111 Y12.0243
G01 X17.7128 Y12.0149
G01 X17.7157 Y11.9896
G01 X17.7473 Y11.9055
G01 X17.7990 Y11.8365
G01 X17.8680 Y11.7848
G01 X17.9521 Y11.7532
G01 X17.9771 Y11.7505
G01 X20.0509 Y11.7505
G01 X20.0760 Y11.7532
G01 X20.1601 Y11.7848
G01 X20.2291 Y11.8365
G01 X20.2808 Y11.9055
G01 X20.3123 Y11.9896
G01 X20.3146 Y12.0104
G01 X20.3171 Y12.0250
G01 X20.3206 Y12.0394
G01 X20.3252 Y12.0535
G01 X20.3580 Y12.1330
G01 X20.3648 Y12.1469
G01 X20.3699 Y12.1559
G01 X20.3754 Y12.1646
G01 X20.3814 Y12.1730
G01 X20.3878 Y12.1811
G01 X20.3981 Y12.1926
G01 X20.4092 Y12.2033
G01 X20.4211 Y12.2132
G01 X20.4920 Y12.2626
G01 X20.5008 Y12.2680
G01 X20.5098 Y12.2730
G01 X20.5237 Y12.2796
G01 X20.5332 Y12.2834
G01 X20.5429 Y12.2868
G01 X20.5528 Y12.2897
G01 X20.5678 Y12.2931
G01 X20.6172 Y12.3011
G01 X20.6314 Y12.3025
G01 X20.6408 Y12.3030
G01 X21.1776 Y12.3030
G01 X21.1939 Y12.3024
G01 X21.2212 Y12.3001
G01 X21.2686 Y12.3025
G01 X21.2958 Y12.3030
G01 X21.3228 Y12.3054
G01 X21.3702 Y12.3079
G01 X21.4047 Y12.3143
G01 X21.4614 Y12.3324
G01 X21.5125 Y12.3462
G01 X21.5449 Y12.3596
G01 X21.5966 Y12.3892
G01 X21.6438 Y12.4133
G01 X21.6726 Y12.4331
G01 X21.7080 Y12.4649
G01 X21.7287 Y12.4824
G01 X21.7482 Y12.5012
G01 X21.7836 Y12.5330
G01 X21.8012 Y12.5540
G01 X21.8123 Y12.5659
G01 X28.0471 Y18.8008
G01 X28.0591 Y18.8118
G01 X28.0800 Y18.8295
G01 X28.1119 Y18.8648
G01 X28.1307 Y18.8843
G01 X28.1481 Y18.9051
G01 X28.1799 Y18.9404
G01 X28.1998 Y18.9693
G01 X28.2239 Y19.0165
G01 X28.2534 Y19.0681
G01 X28.2668 Y19.1005
G01 X28.2825 Y19.1580
G01 X28.2988 Y19.2084
G01 X28.3052 Y19.2428
G01 X28.3077 Y19.2903
G01 X28.3100 Y19.3173
G01 X28.3105 Y19.3444
G01 X28.3130 Y19.3919
G01 X28.3107 Y19.4192
G01 X28.3100 Y19.4354
G01 X28.3103 Y20.7504
G01 X28.3122 Y20.7700
G01 X28.3138 Y20.7798
G01 X28.3171 Y20.7942
G01 X28.3385 Y20.8671
G01 X28.3451 Y20.8863
G01 X28.3537 Y20.9048
G01 X28.3640 Y20.9224
G01 X28.3760 Y20.9388
G01 X28.4001 Y20.9683
G01 X28.4077 Y20.9763
G01 X33.5624 Y26.1309
G01 X33.5734 Y26.1407
G01 X33.5812 Y26.1468
G01 X33.5975 Y26.1579
G01 X33.6729 Y26.1992
G01 X33.6821 Y26.2037
G01 X33.6916 Y26.2077
G01 X33.7012 Y26.2112
G01 X33.7110 Y26.2143
G01 X33.7259 Y26.2179
G01 X33.7468 Y26.2217
G01 X33.7963 Y26.2288
G01 X33.9583 Y26.2838
G01 X34.1076 Y26.3674
G01 X34.2392 Y26.4769
G01 X34.3486 Y26.6084
G01 X34.4322 Y26.7577
G01 X34.4872 Y26.9197
G01 X34.4960 Y26.9790
G01 X34.4994 Y26.9934
G01 X34.5054 Y27.0122
G01 X34.5111 Y27.0259
G01 X34.5452 Y27.0997
G01 X34.5501 Y27.1086
G01 X34.5555 Y27.1173
G01 X34.5613 Y27.1258
G01 X34.5707 Y27.1379
G01 X34.5886 Y27.1572
G01 X36.1024 Y28.6709
G01 X36.1173 Y28.6838
G01 X36.1252 Y28.6897
G01 X36.1375 Y28.6979
G01 X36.2084 Y28.7368
G01 X36.2175 Y28.7415
G01 X36.2268 Y28.7458
G01 X36.2364 Y28.7495
G01 X36.2461 Y28.7528
G01 X36.2559 Y28.7556
G01 X36.2659 Y28.7579
G01 X36.2868 Y28.7617
G01 X36.3363 Y28.7688
G01 X36.4983 Y28.8238
G01 X36.6476 Y28.9074
G01 X36.7792 Y29.0169
G01 X36.8886 Y29.1484
G01 X36.9722 Y29.2977
G01 X37.0272 Y29.4597
G01 X37.0527 Y29.6358
G01 X37.0537 Y29.6712
G01 X37.0374 Y29.8484
G01 X36.9909 Y30.0131
G01 X36.9153 Y30.1666
G01 X36.8129 Y30.3037
G01 X36.6872 Y30.4198
G01 X36.5425 Y30.5111
G01 X36.3836 Y30.5745
G01 X36.2158 Y30.6079
G01 X36.0447 Y30.6102
G01 X35.8760 Y30.5812
G01 X35.7155 Y30.5220
G01 X35.5684 Y30.4345
G01 X35.4398 Y30.3217
G01 X35.3338 Y30.1873
G01 X35.2542 Y30.0358
G01 X35.2034 Y29.8724
G01 X35.2006 Y29.8490
G01 X35.1980 Y29.8344
G01 X35.1943 Y29.8200
G01 X35.1879 Y29.8014
G01 X35.1582 Y29.7315
G01 X35.1495 Y29.7137
G01 X35.1420 Y29.7009
G01 X35.1335 Y29.6887
G01 X35.1242 Y29.6772
G01 X35.1094 Y29.6608
G01 X33.5966 Y28.1480
G01 X33.5858 Y28.1380
G01 X33.5783 Y28.1317
G01 X33.5664 Y28.1230
G01 X33.5496 Y28.1128
G01 X33.4732 Y28.0732
G01 X33.4551 Y28.0654
G01 X33.4412 Y28.0607
G01 X33.4221 Y28.0560
G01 X33.3360 Y28.0412
G01 X33.1755 Y27.9820
G01 X33.0284 Y27.8945
G01 X32.8998 Y27.7817
G01 X32.7938 Y27.6473
G01 X32.7142 Y27.4958
G01 X32.6634 Y27.3324
G01 X32.6606 Y27.3090
G01 X32.6580 Y27.2944
G01 X32.6543 Y27.2800
G01 X32.6479 Y27.2614
G01 X32.6182 Y27.1915
G01 X32.6095 Y27.1737
G01 X32.6020 Y27.1609
G01 X32.5935 Y27.1487
G01 X32.5842 Y27.1372
G01 X32.5694 Y27.1208
G01 X27.4196 Y21.9710
G01 X27.4077 Y21.9600
G01 X27.3949 Y21.9499
G01 X27.3473 Y21.9174
G01 X27.3007 Y21.8906
G01 X27.2793 Y21.8797
G01 X27.2566 Y21.8695
G01 X27.2364 Y21.8549
G01 X27.2208 Y21.8447
G01 X27.1947 Y21.8293
G01 X27.1762 Y21.8127
G01 X27.1618 Y21.8009
G01 X27.1374 Y21.7829
G01 X27.1207 Y21.7644
G01 X27.1075 Y21.7512
G01 X27.0852 Y21.7307
G01 X27.0671 Y21.7063
G01 X27.0554 Y21.6919
G01 X27.0388 Y21.6733
G01 X27.0233 Y21.6472
G01 X27.0132 Y21.6316
G01 X26.9986 Y21.6115
G01 X26.9860 Y21.5839
G01 X26.9775 Y21.5673
G01 X26.9651 Y21.5457
G01 X26.9573 Y21.5221
G01 X26.9507 Y21.5047
G01 X26.9386 Y21.4768
G01 X26.9321 Y21.4472
G01 X26.9272 Y21.4293
G01 X26.9195 Y21.4056
G01 X26.9161 Y21.3754
G01 X26.9131 Y21.3571
G01 X26.9080 Y21.3327
G01 X26.9078 Y19.7727
G01 X26.9059 Y19.7530
G01 X26.9033 Y19.7384
G01 X26.9009 Y19.7288
G01 X26.8796 Y19.6560
G01 X26.8729 Y19.6367
G01 X26.8644 Y19.6182
G01 X26.8541 Y19.6007
G01 X26.8421 Y19.5842
G01 X26.8180 Y19.5548
G01 X26.8103 Y19.5467
G01 X21.0592 Y13.7959
G01 X21.0479 Y13.7863
G01 X21.0400 Y13.7804
G01 X21.0234 Y13.7697
G01 X20.9567 Y13.7333
G01 X20.9384 Y13.7244
G01 X20.9193 Y13.7174
G01 X20.8996 Y13.7123
G01 X20.8845 Y13.7097
G01 X20.8472 Y13.7057
G01 X20.8305 Y13.7050
G01 X20.6456 Y13.7050
G01 X20.6308 Y13.7056
G01 X20.6210 Y13.7065
G01 X20.6063 Y13.7088
G01 X20.5919 Y13.7121
G01 X20.5141 Y13.7350
G01 X20.5044 Y13.7384
G01 X20.4948 Y13.7422
G01 X20.4855 Y13.7466
G01 X20.4763 Y13.7514
G01 X20.4631 Y13.7594
G01 X20.4506 Y13.7684
G01 X20.4387 Y13.7783
G01 X20.4276 Y13.7890
G01 X20.3709 Y13.8542
G01 X20.3615 Y13.8665
G01 X20.3531 Y13.8794
G01 X20.3480 Y13.8883
G01 X20.3434 Y13.8975
G01 X20.3373 Y13.9117
G01 X20.3339 Y13.9213
G01 X20.3180 Y13.9791
G01 X20.3146 Y13.9978
G01 X20.3123 Y14.0185
G01 X20.2808 Y14.1026
G01 X20.2291 Y14.1716
G01 X20.1595 Y14.2237
G01 X20.1499 Y14.2281
G01 X20.1411 Y14.2327
G01 X20.1243 Y14.2430
G01 X20.0554 Y14.2945
G01 X20.0436 Y14.3045
G01 X20.0326 Y14.3154
G01 X20.0225 Y14.3271
G01 X20.0133 Y14.3395
G01 X20.0076 Y14.3481
G01 X20.0024 Y14.3570
G01 X19.9977 Y14.3661
G01 X19.9934 Y14.3755
G01 X19.9649 Y14.4516
G01 X19.9600 Y14.4663
G01 X19.9574 Y14.4763
G01 X19.9544 Y14.4914
G01 X19.9526 Y14.5068
G01 X19.9520 Y14.5171
G01 X19.9521 Y14.5325
G01 X19.9533 Y14.5479
G01 X19.9557 Y14.5632
G01 X19.9743 Y14.6475
G01 X19.9789 Y14.6621
G01 X19.9825 Y14.6717
G01 X19.9866 Y14.6810
G01 X19.9912 Y14.6902
G01 X19.9988 Y14.7034
G01 X20.0198 Y14.7347
G01 X20.1092 Y14.8480
G01 X20.2088 Y15.0284
G01 X20.2776 Y15.2227
G01 X20.3138 Y15.4257
G01 X20.3163 Y15.6318
G01 X20.2851 Y15.8355
G01 X20.2211 Y16.0315
G01 X20.1259 Y16.2143
G01 X20.0021 Y16.3791
G01 X19.8531 Y16.5215
G01 X19.8222 Y16.5429
G01 X19.8107 Y16.5523
G01 X19.8034 Y16.5589
G01 X19.7964 Y16.5659
G01 X19.7866 Y16.5770
G01 X19.7416 Y16.6320
G01 X19.7323 Y16.6443
G01 X19.7266 Y16.6528
G01 X19.7213 Y16.6617
G01 X19.7142 Y16.6754
G01 X19.7101 Y16.6849
G01 X19.7064 Y16.6945
G01 X19.7033 Y16.7043
G01 X19.7006 Y16.7142
G01 X19.6984 Y16.7243
G01 X19.6960 Y16.7396
G01 X19.6878 Y16.8101
G01 X19.6866 Y16.8255
G01 X19.6865 Y16.8358
G01 X19.6868 Y16.8461
G01 X19.6877 Y16.8564
G01 X19.6890 Y16.8666
G01 X19.6920 Y16.8818
G01 X19.6947 Y16.8917
G01 X19.6978 Y16.9016
G01 X19.7014 Y16.9112
G01 X19.7054 Y16.9207
G01 X19.7389 Y16.9891
G01 X19.7461 Y17.0024
G01 X19.7542 Y17.0152
G01 X19.7601 Y17.0233
G01 X19.7697 Y17.0350
G01 X19.7837 Y17.0495
G01 X19.8157 Y17.0769
G01 X19.8275 Y17.0861
G01 X19.9814 Y17.2262
G01 X20.1092 Y17.3880
G01 X20.2088 Y17.5684
G01 X20.2776 Y17.7627
G01 X20.3138 Y17.9657
G01 X20.3163 Y18.1718
G01 X20.2851 Y18.3755
G01 X20.2211 Y18.5715
G01 X20.1505 Y18.7072
G01 X20.1444 Y18.7208
G01 X20.1409 Y18.7301
G01 X20.1352 Y18.7492
G01 X20.1199 Y18.8123
G01 X20.1165 Y18.8319
G01 X20.1151 Y18.8517
G01 X20.1151 Y22.4888
G01 X20.1165 Y22.5085
G01 X20.1179 Y22.5182
G01 X20.1209 Y22.5328
G01 X20.1449 Y22.6153
G01 X20.1521 Y22.6343
G01 X20.1587 Y22.6481
G01 X20.1663 Y22.6614
G01 X20.1748 Y22.6741
G01 X20.2014 Y22.7074
G01 X20.2127 Y22.7196
G01 X20.7284 Y23.2353
G01 X20.7430 Y23.2486
G01 X20.7548 Y23.2576
G01 X20.7714 Y23.2683
G01 X20.8425 Y23.3071
G01 X20.8610 Y23.3155
G01 X20.8803 Y23.3221
G01 X20.9001 Y23.3267
G01 X20.9102 Y23.3283
G01 X20.9420 Y23.3318
G01 X20.9587 Y23.3329
G01 X22.8395 Y23.3329
G01 X22.8542 Y23.3321
G01 X22.8641 Y23.3309
G01 X22.8834 Y23.3272
G01 X22.9660 Y23.3031
G01 X22.9758 Y23.2997
G01 X22.9900 Y23.2937
G01 X22.9992 Y23.2891
G01 X23.0126 Y23.2814
G01 X23.0212 Y23.2758
G01 X23.0336 Y23.2665
G01 X23.0414 Y23.2598
G01 X23.0489 Y23.2527
G01 X23.0594 Y23.2414
G01 X23.1059 Y23.1877
G01 X23.1157 Y23.1756
G01 X23.1245 Y23.1628
G01 X23.1323 Y23.1493
G01 X23.1369 Y23.1401
G01 X23.1430 Y23.1258
G01 X23.1480 Y23.1110
G01 X23.1519 Y23.0960
G01 X23.1643 Y23.0388
G01 X23.1665 Y23.0242
G01 X23.1675 Y23.0143
G01 X23.1680 Y22.9995
G01 X23.1680 Y22.7971
G01 X23.1707 Y22.7721
G01 X23.2023 Y22.6880
G01 X23.2540 Y22.6190
G01 X23.3230 Y22.5673
G01 X23.4071 Y22.5357
G01 X23.4321 Y22.5330
G01 X26.7059 Y22.5330
G01 X26.7310 Y22.5357
G01 X26.8151 Y22.5673
G01 X26.8841 Y22.6190
G01 X26.9358 Y22.6880
G01 X26.9673 Y22.7721
G01 X26.9700 Y22.7971
G01 X26.9700 Y26.0709
G01 X26.9673 Y26.0960
G01 X26.9358 Y26.1801
G01 X26.8841 Y26.2491
G01 X26.8151 Y26.3008
G01 X26.7310 Y26.3323
G01 X26.7059 Y26.3350
G01 X26.5035 Y26.3350
G01 X26.4838 Y26.3360
G01 X26.4643 Y26.3388
G01 X26.4498 Y26.3421
G01 X26.3720 Y26.3650
G01 X26.3623 Y26.3684
G01 X26.3527 Y26.3722
G01 X26.3434 Y26.3766
G01 X26.3343 Y26.3814
G01 X26.3254 Y26.3866
G01 X26.3168 Y26.3923
G01 X26.3085 Y26.3984
G01 X26.3005 Y26.4049
G01 X26.2928 Y26.4118
G01 X26.2820 Y26.4228
G01 X26.2321 Y26.4803
G01 X26.2224 Y26.4924
G01 X26.2136 Y26.5053
G01 X26.2058 Y26.5187
G01 X26.1990 Y26.5327
G01 X26.1950 Y26.5423
G01 X26.1916 Y26.5521
G01 X26.1873 Y26.5670
G01 X26.1748 Y26.6244
G01 X26.1722 Y26.6390
G01 X26.1706 Y26.6537
G01 X26.1700 Y26.6685
G01 X26.1700 Y27.1974
G01 X26.1635 Y27.2350
G01 X26.1614 Y27.2504
G01 X26.1575 Y27.2929
G01 X26.1476 Y27.3299
G01 X26.1442 Y27.3450
G01 X26.1366 Y27.3871
G01 X26.1222 Y27.4273
G01 X26.1175 Y27.4421
G01 X26.1076 Y27.4790
G01 X26.0897 Y27.5179
G01 X26.0838 Y27.5322
G01 X26.0707 Y27.5681
G01 X26.0516 Y27.6012
G01 X26.0444 Y27.6150
G01 X26.0262 Y27.6536
G01 X26.0018 Y27.6888
G01 X25.9935 Y27.7019
G01 X25.9744 Y27.7350
G01 X25.9498 Y27.7643
G01 X25.9404 Y27.7765
G01 X25.9157 Y27.8114
G01 X24.9434 Y28.7837
G01 X24.9333 Y28.7945
G01 X24.9211 Y28.8101
G01 X24.9104 Y28.8267
G01 X24.8716 Y28.8978
G01 X24.8632 Y28.9163
G01 X24.8566 Y28.9356
G01 X24.8520 Y28.9554
G01 X24.8504 Y28.9655
G01 X24.8469 Y28.9973
G01 X24.8458 Y29.0140
G01 X24.8460 Y30.6686
G01 X24.8479 Y30.6882
G01 X24.8516 Y30.7076
G01 X24.8757 Y30.7902
G01 X24.8790 Y30.7999
G01 X24.8829 Y30.8094
G01 X24.8895 Y30.8233
G01 X24.8972 Y30.8366
G01 X24.9087 Y30.8536
G01 X24.9404 Y30.9381
G01 X24.9431 Y30.9631
G01 X24.9431 Y32.6369
G01 X24.9404 Y32.6620
G01 X24.9087 Y32.7464
G01 X24.9013 Y32.7577
G01 X24.8940 Y32.7706
G01 X24.8877 Y32.7840
G01 X24.8840 Y32.7932
G01 X24.8558 Y32.8694
G01 X24.8517 Y32.8842
G01 X24.8496 Y32.8943
G01 X24.8480 Y32.9044
G01 X24.8465 Y32.9197
G01 X24.8457 Y32.9414
G01 X24.8457 Y33.0565
G01 X24.8467 Y33.0763
G01 X24.8486 Y33.0909
G01 X24.8528 Y33.1102
G01 X24.8741 Y33.1831
G01 X24.8790 Y33.1976
G01 X24.8828 Y33.2070
G01 X24.8894 Y33.2208
G01 X24.8970 Y33.2341
G01 X24.9055 Y33.2468
G01 X24.9117 Y33.2548
G01 X24.9321 Y33.2801
G01 X24.9434 Y33.2923
G01 X26.5704 Y34.9193
G01 X26.5776 Y34.9261
G01 X26.5889 Y34.9357
G01 X26.6049 Y34.9472
G01 X26.6177 Y34.9547
G01 X26.6845 Y34.9911
G01 X26.6937 Y34.9956
G01 X26.7078 Y35.0014
G01 X26.7272 Y35.0075
G01 X26.7472 Y35.0116
G01 X26.7896 Y35.0163
G01 X26.8062 Y35.0170
G01 X47.8984 Y35.0170
G01 X47.9360 Y35.0236
G01 X47.9514 Y35.0257
G01 X47.9939 Y35.0296
G01 X48.0309 Y35.0394
G01 X48.0460 Y35.0428
G01 X48.0881 Y35.0505
G01 X48.1240 Y35.0635
G01 X48.1388 Y35.0682
G01 X48.1800 Y35.0795
G01 X48.2147 Y35.0956
G01 X48.2290 Y35.1015
G01 X48.2691 Y35.1164
G01 X48.3022 Y35.1354
G01 X48.3160 Y35.1426
G01 X48.3546 Y35.1609
G01 X48.3898 Y35.1852
G01 X48.4029 Y35.1935
G01 X48.4360 Y35.2127
G01 X48.4653 Y35.2372
G01 X48.4775 Y35.2467
G01 X48.5124 Y35.2714
G01 X52.8074 Y39.5663
G01 X52.8224 Y39.5792
G01 X52.8303 Y39.5851
G01 X52.8426 Y39.5933
G01 X52.9135 Y39.6322
G01 X52.9318 Y39.6411
G01 X52.9509 Y39.6481
G01 X52.9706 Y39.6533
G01 X52.9908 Y39.6564
G01 X53.0286 Y39.6602
G01 X53.0397 Y39.6605
G01 X57.0756 Y39.6605
G01 X57.0904 Y39.6600
G01 X57.1051 Y39.6584
G01 X57.1197 Y39.6558
G01 X57.1293 Y39.6534
G01 X57.2120 Y39.6290
G01 X57.2216 Y39.6253
G01 X57.2357 Y39.6190
G01 X57.2448 Y39.6142
G01 X57.2580 Y39.6062
G01 X57.2706 Y39.5972
G01 X57.2786 Y39.5907
G01 X57.2900 Y39.5802
G01 X57.2971 Y39.5727
G01 X57.3503 Y39.5113
G01 X57.3597 Y39.4990
G01 X57.3682 Y39.4861
G01 X57.3732 Y39.4771
G01 X57.3779 Y39.4679
G01 X57.3839 Y39.4537
G01 X57.3889 Y39.4391
G01 X57.3928 Y39.4241
G01 X57.3956 Y39.4089
G01 X57.4064 Y39.3335
G01 X57.4076 Y39.3181
G01 X57.4077 Y39.3027
G01 X57.4066 Y39.2872
G01 X57.4044 Y39.2719
G01 X57.4011 Y39.2568
G01 X57.3967 Y39.2420
G01 X57.3931 Y39.2324
G01 X57.3890 Y39.2229
G01 X57.3572 Y39.1534
G01 X57.4825 Y39.0282
G01 X57.5210 Y39.0378
G01 X57.5360 Y39.0410
G01 X57.6140 Y39.0526
G01 X57.6292 Y39.0539
G01 X57.7080 Y39.0575
G01 X57.7868 Y39.0539
G01 X57.8020 Y39.0526
G01 X57.8801 Y39.0410
G01 X57.8950 Y39.0378
G01 X57.9335 Y39.0282
G01 X58.0569 Y39.1515
G01 X58.0495 Y39.1646
G01 X58.0450 Y39.1739
G01 X58.0410 Y39.1834
G01 X58.0375 Y39.1930
G01 X58.0149 Y39.2712
G01 X58.0112 Y39.2862
G01 X58.0094 Y39.2963
G01 X58.0076 Y39.3117
G01 X58.0070 Y39.3271
G01 X58.0072 Y39.3374
G01 X58.0085 Y39.3528
G01 X58.0109 Y39.3681
G01 X58.0144 Y39.3831
G01 X58.0396 Y39.4658
G01 X58.0433 Y39.4754
G01 X58.0475 Y39.4848
G01 X58.0521 Y39.4940
G01 X58.0572 Y39.5030
G01 X58.0628 Y39.5117
G01 X58.0719 Y39.5242
G01 X58.0819 Y39.5360
G01 X58.0927 Y39.5470
G01 X58.1584 Y39.6032
G01 X58.1707 Y39.6125
G01 X58.1837 Y39.6208
G01 X58.1927 Y39.6258
G01 X58.2066 Y39.6325
G01 X58.2210 Y39.6381
G01 X58.2308 Y39.6412
G01 X58.2457 Y39.6450
G01 X58.2972 Y39.6559
G01 X58.3163 Y39.6591
G01 X58.3308 Y39.6603
G01 X58.3405 Y39.6605
G01 X62.1594 Y39.6604
G01 X62.1741 Y39.6596
G01 X62.1839 Y39.6584
G01 X62.2033 Y39.6547
G01 X62.2810 Y39.6321
G01 X62.2956 Y39.6272
G01 X62.3052 Y39.6233
G01 X62.3145 Y39.6190
G01 X62.3237 Y39.6142
G01 X62.3325 Y39.6089
G01 X62.3411 Y39.6033
G01 X62.3494 Y39.5972
G01 X62.3574 Y39.5907
G01 X62.3651 Y39.5838
G01 X62.3724 Y39.5765
G01 X62.3793 Y39.5689
G01 X62.4258 Y39.5152
G01 X62.4324 Y39.5073
G01 X62.4385 Y39.4990
G01 X62.4470 Y39.4861
G01 X62.4544 Y39.4725
G01 X62.4608 Y39.4585
G01 X62.4645 Y39.4488
G01 X62.4677 Y39.4391
G01 X62.4716 Y39.4241
G01 X62.4744 Y39.4089
G01 X62.4852 Y39.3335
G01 X62.4861 Y39.3233
G01 X62.4866 Y39.3130
G01 X62.4865 Y39.3027
G01 X62.4859 Y39.2924
G01 X62.4849 Y39.2821
G01 X62.4833 Y39.2719
G01 X62.4812 Y39.2618
G01 X62.4786 Y39.2519
G01 X62.4755 Y39.2420
G01 X62.4719 Y39.2324
G01 X62.4384 Y39.1583
G01 X62.4314 Y39.1445
G01 X62.4235 Y39.1313
G01 X62.4177 Y39.1228
G01 X62.4114 Y39.1146
G01 X62.4014 Y39.1030
G01 X62.3904 Y39.0921
G01 X62.3787 Y39.0821
G01 X62.3288 Y39.0444
G01 X62.3208 Y39.0389
G01 X62.3083 Y39.0314
G01 X62.2997 Y39.0269
G01 X62.2856 Y39.0202
G01 X62.1421 Y38.9198
G01 X62.0183 Y38.7959
G01 X61.9178 Y38.6524
G01 X61.8438 Y38.4937
G01 X61.8023 Y38.3388
G01 X61.7984 Y38.3245
G01 X61.7832 Y38.1500
G01 X61.7984 Y37.9755
G01 X61.8438 Y37.8063
G01 X61.9178 Y37.6476
G01 X62.0267 Y37.4921
G01 X62.0353 Y37.4788
G01 X62.0428 Y37.4649
G01 X62.0493 Y37.4504
G01 X62.0530 Y37.4405
G01 X62.0789 Y37.3581
G01 X62.0827 Y37.3428
G01 X62.0846 Y37.3324
G01 X62.0859 Y37.3219
G01 X62.0867 Y37.3114
G01 X62.0870 Y37.3008
G01 X62.0870 Y32.1964
G01 X62.0864 Y32.1802
G01 X62.0841 Y32.1529
G01 X62.0865 Y32.1054
G01 X62.0870 Y32.0783
G01 X62.0894 Y32.0513
G01 X62.0919 Y32.0038
G01 X62.0983 Y31.9694
G01 X62.1164 Y31.9127
G01 X62.1302 Y31.8615
G01 X62.1436 Y31.8291
G01 X62.1732 Y31.7775
G01 X62.1973 Y31.7303
G01 X62.2171 Y31.7014
G01 X62.2489 Y31.6661
G01 X62.2664 Y31.6453
G01 X62.2852 Y31.6258
G01 X62.3170 Y31.5905
G01 X62.3380 Y31.5728
G01 X62.3499 Y31.5618
G01 X68.2108 Y25.7008
G01 X68.2237 Y25.6859
G01 X68.2296 Y25.6780
G01 X68.2378 Y25.6656
G01 X68.2767 Y25.5947
G01 X68.2836 Y25.5809
G01 X68.2895 Y25.5666
G01 X68.2943 Y25.5519
G01 X68.2979 Y25.5369
G01 X68.2997 Y25.5267
G01 X68.3015 Y25.5114
G01 X68.3021 Y25.4960
G01 X68.3016 Y25.4805
G01 X68.2955 Y25.3994
G01 X68.2940 Y25.3892
G01 X68.2920 Y25.3791
G01 X68.2895 Y25.3691
G01 X68.2849 Y25.3544
G01 X68.2791 Y25.3401
G01 X68.2747 Y25.3308
G01 X68.2672 Y25.3172
G01 X68.2587 Y25.3043
G01 X68.2067 Y25.2352
G01 X68.2000 Y25.2275
G01 X68.1928 Y25.2200
G01 X68.1853 Y25.2130
G01 X68.1775 Y25.2063
G01 X68.1651 Y25.1970
G01 X68.1521 Y25.1887
G01 X68.1385 Y25.1814
G01 X68.1291 Y25.1771
G01 X68.0482 Y25.1467
G01 X68.0335 Y25.1422
G01 X68.0235 Y25.1399
G01 X68.0134 Y25.1380
G01 X68.0033 Y25.1366
G01 X67.9930 Y25.1357
G01 X67.9715 Y25.1350
G01 X66.9334 Y25.1350
G01 X66.9172 Y25.1357
G01 X66.8899 Y25.1380
G01 X66.8424 Y25.1355
G01 X66.8153 Y25.1350
G01 X66.7883 Y25.1327
G01 X66.7408 Y25.1302
G01 X66.7064 Y25.1238
G01 X66.6497 Y25.1056
G01 X66.5985 Y25.0918
G01 X66.5661 Y25.0784
G01 X66.5145 Y25.0489
G01 X66.4673 Y25.0248
G01 X66.4384 Y25.0049
G01 X66.4031 Y24.9731
G01 X66.3823 Y24.9557
G01 X66.3628 Y24.9369
G01 X66.3275 Y24.9050
G01 X66.3098 Y24.8841
G01 X66.2988 Y24.8721
G01 X65.4735 Y24.0469
G01 X65.4664 Y24.0401
G01 X65.4550 Y24.0305
G01 X65.4431 Y24.0218
G01 X65.4348 Y24.0164
G01 X65.3639 Y23.9775
G01 X65.3506 Y23.9708
G01 X65.3368 Y23.9651
G01 X65.3226 Y23.9604
G01 X65.3081 Y23.9567
G01 X65.2983 Y23.9549
G01 X65.2835 Y23.9530
G01 X65.2419 Y23.9501
G01 X65.2216 Y23.9497
G01 X65.0740 Y23.9611
G01 X64.8699 Y23.9450
G01 X64.6707 Y23.8972
G01 X64.4815 Y23.8188
G01 X64.3069 Y23.7118
G01 X64.1512 Y23.5788
G01 X64.0182 Y23.4231
G01 X63.9112 Y23.2485
G01 X63.8329 Y23.0593
G01 X63.7850 Y22.8602
G01 X63.7690 Y22.6560
G01 X63.7850 Y22.4519
G01 X63.8329 Y22.2527
G01 X63.9169 Y22.0499
G01 X63.9204 Y22.0407
G01 X63.9250 Y22.0266
