(G-CODE GENERATED BY FLATCAM v8.994 - www.flatcam.org - Version Date: 2020/11/7)

(Name: pet_puller_shield-F_Cu.gbr_iso_combined_cnc)
(Type: G-code from Geometry)
(Units: MM)

(Created on Saturday, 08 February 2025 at 19:50)

(This preprocessor is the default preprocessor used by FlatCAM.)
(It is made to work with MACH3 compatible motion controllers.)

(TOOL DIAMETER: 0.1655 mm)
(Feedrate_XY: 60.0 mm/min)
(Feedrate_Z: 30.0 mm/min)
(Feedrate rapids 1500.0 mm/min)

(Z_Cut: -0.09 mm)
(Z_Move: 2.0 mm)
(Z Start: None mm)
(Z End: 15.0 mm)
(X,Y End: None mm)
(Steps per circle: 64)
(Preprocessor Geometry: default)

(X range:    0.4758 ...   75.0623  mm)
(Y range:    0.4758 ...   53.4920  mm)

(Spindle Speed: 10000.0 RPM)
G21
G90
G94

G01 F60.00

M5
G00 Z15.0000
G00 X0.0000 Y0.0000
T2
M6    
(MSG, Change to Tool Dia = 0.1655)
M0
G00 Z15.0000

M03 S10000.0
G01 F60.00
G00 X9.9512 Y7.0054
G01 F30.00
G01 Z-0.0900
G01 F60.00
G01 X9.9690 Y6.9348
G01 X9.9934 Y6.8663
G01 X9.9965 Y6.8588
G01 X10.0277 Y6.7930
G01 X10.0672 Y6.7272
G01 X10.1105 Y6.6687
G01 X10.1156 Y6.6624
G01 X10.1617 Y6.6115
G01 X10.1675 Y6.6057
G01 X10.2215 Y6.5570
G01 X10.2798 Y6.5135
G01 X10.2866 Y6.5090
G01 X10.3455 Y6.4737
G01 X10.3527 Y6.4699
G01 X10.4185 Y6.4389
G01 X10.4908 Y6.4130
G01 X10.5653 Y6.3943
G01 X10.6373 Y6.3835
G01 X10.6454 Y6.3827
G01 X10.7140 Y6.3794
G01 X10.7221 Y6.3794
G01 X10.7947 Y6.3830
G01 X10.8707 Y6.3943
G01 X10.9452 Y6.4130
G01 X11.0138 Y6.4374
G01 X11.0213 Y6.4405
G01 X11.0870 Y6.4717
G01 X11.1495 Y6.5090
G01 X11.1562 Y6.5135
G01 X11.2146 Y6.5570
G01 X11.2715 Y6.6085
G01 X11.3204 Y6.6624
G01 X11.3256 Y6.6687
G01 X11.3689 Y6.7272
G01 X11.4074 Y6.7913
G01 X11.4412 Y6.8625
G01 X11.4658 Y6.9309
G01 X11.4682 Y6.9387
G01 X11.4848 Y7.0054
G01 X11.4864 Y7.0133
G01 X11.4970 Y7.0853
G01 X11.5008 Y7.1620
G01 X11.4970 Y7.2387
G01 X11.4857 Y7.3147
G01 X11.4671 Y7.3892
G01 X11.4412 Y7.4616
G01 X11.4083 Y7.5310
G01 X11.3710 Y7.5935
G01 X11.3665 Y7.6002
G01 X11.3231 Y7.6586
G01 X11.2743 Y7.7126
G01 X11.2686 Y7.7183
G01 X11.2162 Y7.7658
G01 X11.2010 Y7.7773
G01 X11.2010 Y11.7880
G01 X14.4741 Y15.0611
G01 X18.0510 Y15.0611
G01 X18.0555 Y15.0525
G01 X18.1036 Y14.9723
G01 X18.1081 Y14.9656
G01 X18.1663 Y14.8873
G01 X18.2317 Y14.8149
G01 X18.2374 Y14.8092
G01 X18.3098 Y14.7438
G01 X18.3914 Y14.6832
G01 X18.4785 Y14.6310
G01 X18.5685 Y14.5884
G01 X18.6622 Y14.5546
G01 X18.6699 Y14.5523
G01 X18.7646 Y14.5287
G01 X18.8671 Y14.5136
G01 X18.9645 Y14.5088
G01 X19.0656 Y14.5089
G01 X19.1630 Y14.5138
G01 X19.2655 Y14.5291
G01 X19.3620 Y14.5534
G01 X19.4539 Y14.5861
G01 X19.4614 Y14.5892
G01 X19.5495 Y14.6310
G01 X19.6332 Y14.6811
G01 X19.6400 Y14.6856
G01 X19.7183 Y14.7438
G01 X19.7906 Y14.8092
G01 X19.7964 Y14.8149
G01 X19.8618 Y14.8873
G01 X19.9200 Y14.9656
G01 X19.9245 Y14.9723
G01 X19.9745 Y15.0560
G01 X20.0163 Y15.1441
G01 X20.0194 Y15.1516
G01 X20.0522 Y15.2435
G01 X20.0760 Y15.3381
G01 X20.0776 Y15.3461
G01 X20.0918 Y15.4426
G01 X20.0967 Y15.5400
G01 X20.0967 Y15.5481
G01 X20.0918 Y15.6455
G01 X20.0776 Y15.7420
G01 X20.0760 Y15.7500
G01 X20.0522 Y15.8445
G01 X20.0194 Y15.9364
G01 X20.0163 Y15.9439
G01 X19.9745 Y16.0320
G01 X19.9245 Y16.1157
G01 X19.9200 Y16.1225
G01 X19.8618 Y16.2008
G01 X19.7950 Y16.2746
G01 X19.7183 Y16.3443
G01 X19.6400 Y16.4025
G01 X19.6332 Y16.4070
G01 X19.5495 Y16.4570
G01 X19.4614 Y16.4988
G01 X19.4539 Y16.5019
G01 X19.3640 Y16.5341
G01 X19.2635 Y16.5594
G01 X19.1610 Y16.5745
G01 X19.0636 Y16.5792
G01 X18.9665 Y16.5793
G01 X18.8671 Y16.5745
G01 X18.7646 Y16.5594
G01 X18.6699 Y16.5358
G01 X18.6622 Y16.5334
G01 X18.5704 Y16.5005
G01 X18.4821 Y16.4589
G01 X18.4750 Y16.4550
G01 X18.3914 Y16.4048
G01 X18.3130 Y16.3468
G01 X18.3067 Y16.3416
G01 X18.2345 Y16.2761
G01 X18.1689 Y16.2039
G01 X18.1638 Y16.1976
G01 X18.1057 Y16.1192
G01 X18.0555 Y16.0356
G01 X18.0510 Y16.0270
G01 X14.2720 Y16.0269
G01 X14.2267 Y16.0246
G01 X14.1798 Y16.0177
G01 X14.1338 Y16.0062
G01 X14.0892 Y15.9902
G01 X14.0464 Y15.9699
G01 X14.0057 Y15.9456
G01 X13.9676 Y15.9174
G01 X13.9340 Y15.8869
G01 X10.3765 Y12.3295
G01 X10.3447 Y12.2944
G01 X10.3165 Y12.2563
G01 X10.2921 Y12.2157
G01 X10.2726 Y12.1747
G01 X10.2559 Y12.1282
G01 X10.2444 Y12.0822
G01 X10.2374 Y12.0354
G01 X10.2351 Y11.9880
G01 X10.2351 Y7.7773
G01 X10.2199 Y7.7658
G01 X10.1645 Y7.7155
G01 X10.1156 Y7.6617
G01 X10.1105 Y7.6554
G01 X10.0672 Y7.5969
G01 X10.0297 Y7.5345
G01 X10.0259 Y7.5274
G01 X9.9965 Y7.4653
G01 X9.9934 Y7.4578
G01 X9.9690 Y7.3892
G01 X9.9512 Y7.3187
G01 X9.9496 Y7.3107
G01 X9.9390 Y7.2387
G01 X9.9353 Y7.1620
G01 X9.9387 Y7.0894
G01 X9.9395 Y7.0813
G01 X9.9496 Y7.0133
G01 X9.9512 Y7.0054
G00 Z2.0000
G00 X15.3172 Y12.0333
G01 F30.00
G01 Z-0.0900
G01 F60.00
G01 X15.3151 Y11.9880
G01 X15.3151 Y7.7773
G01 X15.2999 Y7.7658
G01 X15.2445 Y7.7155
G01 X15.1956 Y7.6617
G01 X15.1905 Y7.6554
G01 X15.1472 Y7.5969
G01 X15.1097 Y7.5345
G01 X15.1059 Y7.5274
G01 X15.0749 Y7.4616
G01 X15.0503 Y7.3931
G01 X15.0479 Y7.3853
G01 X15.0303 Y7.3147
G01 X15.0195 Y7.2428
G01 X15.0187 Y7.2347
G01 X15.0153 Y7.1620
G01 X15.0190 Y7.0853
G01 X15.0303 Y7.0093
G01 X15.0490 Y6.9348
G01 X15.0749 Y6.8625
G01 X15.1077 Y6.7930
G01 X15.1472 Y6.7272
G01 X15.1930 Y6.6655
G01 X15.2445 Y6.6085
G01 X15.3015 Y6.5570
G01 X15.3632 Y6.5112
G01 X15.4290 Y6.4717
G01 X15.4985 Y6.4389
G01 X15.5708 Y6.4130
G01 X15.6453 Y6.3943
G01 X15.7213 Y6.3830
G01 X15.7980 Y6.3793
G01 X15.8747 Y6.3830
G01 X15.9507 Y6.3943
G01 X16.0213 Y6.4119
G01 X16.0291 Y6.4143
G01 X16.0938 Y6.4374
G01 X16.1013 Y6.4405
G01 X16.1670 Y6.4717
G01 X16.2329 Y6.5112
G01 X16.2946 Y6.5570
G01 X16.3515 Y6.6085
G01 X16.4031 Y6.6655
G01 X16.4489 Y6.7272
G01 X16.4883 Y6.7930
G01 X16.5195 Y6.8588
G01 X16.5227 Y6.8663
G01 X16.5458 Y6.9309
G01 X16.5482 Y6.9387
G01 X16.5657 Y7.0093
G01 X16.5772 Y7.0873
G01 X16.5807 Y7.1580
G01 X16.5807 Y7.1661
G01 X16.5770 Y7.2387
G01 X16.5664 Y7.3107
G01 X16.5648 Y7.3187
G01 X16.5471 Y7.3892
G01 X16.5204 Y7.4634
G01 X16.4883 Y7.5310
G01 X16.4510 Y7.5935
G01 X16.4465 Y7.6002
G01 X16.4044 Y7.6570
G01 X16.3501 Y7.7169
G01 X16.2962 Y7.7658
G01 X16.2810 Y7.7773
G01 X16.2810 Y11.7880
G01 X17.0141 Y12.5211
G01 X17.9313 Y12.5211
G01 X17.9313 Y12.0515
G01 X17.9319 Y12.0414
G01 X17.9343 Y12.0295
G01 X17.9361 Y12.0236
G01 X17.9392 Y12.0161
G01 X17.9420 Y12.0107
G01 X17.9464 Y12.0039
G01 X17.9541 Y11.9945
G01 X17.9631 Y11.9863
G01 X17.9698 Y11.9816
G01 X17.9750 Y11.9785
G01 X17.9861 Y11.9736
G01 X17.9939 Y11.9713
G01 X17.9999 Y11.9700
G01 X18.0059 Y11.9692
G01 X18.0140 Y11.9688
G01 X20.0161 Y11.9688
G01 X20.0242 Y11.9694
G01 X20.0302 Y11.9704
G01 X20.0361 Y11.9718
G01 X20.0438 Y11.9743
G01 X20.0512 Y11.9776
G01 X20.0583 Y11.9816
G01 X20.0633 Y11.9851
G01 X20.0696 Y11.9902
G01 X20.0740 Y11.9945
G01 X20.0793 Y12.0006
G01 X20.0839 Y12.0073
G01 X20.0870 Y12.0125
G01 X20.0897 Y12.0180
G01 X20.0926 Y12.0256
G01 X20.0948 Y12.0334
G01 X20.0959 Y12.0394
G01 X20.0968 Y12.0515
G01 X20.0968 Y12.5211
G01 X21.2590 Y12.5211
G01 X21.3043 Y12.5232
G01 X21.3492 Y12.5297
G01 X21.3572 Y12.5312
G01 X21.3992 Y12.5419
G01 X21.4438 Y12.5578
G01 X21.4867 Y12.5781
G01 X21.5239 Y12.6003
G01 X21.5307 Y12.6048
G01 X21.5622 Y12.6282
G01 X21.5685 Y12.6334
G01 X21.6005 Y12.6625
G01 X27.9505 Y19.0125
G01 X27.9810 Y19.0461
G01 X28.0082 Y19.0824
G01 X28.0128 Y19.0891
G01 X28.0349 Y19.1264
G01 X28.0552 Y19.1692
G01 X28.0712 Y19.2138
G01 X28.0818 Y19.2558
G01 X28.0834 Y19.2638
G01 X28.0892 Y19.3027
G01 X28.0899 Y19.3107
G01 X28.0920 Y19.3540
G01 X28.0920 Y20.9690
G01 X33.5496 Y26.4266
G01 X33.5801 Y26.4253
G01 X33.6459 Y26.4285
G01 X33.7151 Y26.4386
G01 X33.7849 Y26.4560
G01 X33.8489 Y26.4788
G01 X33.9140 Y26.5094
G01 X33.9740 Y26.5454
G01 X34.0302 Y26.5871
G01 X34.0820 Y26.6340
G01 X34.1290 Y26.6859
G01 X34.1707 Y26.7420
G01 X34.2066 Y26.8020
G01 X34.2373 Y26.8672
G01 X34.2601 Y26.9311
G01 X34.2775 Y27.0010
G01 X34.2875 Y27.0702
G01 X34.2907 Y27.1360
G01 X34.2895 Y27.1665
G01 X36.0896 Y28.9666
G01 X36.1201 Y28.9653
G01 X36.1859 Y28.9685
G01 X36.2551 Y28.9786
G01 X36.3249 Y28.9960
G01 X36.3889 Y29.0188
G01 X36.4540 Y29.0494
G01 X36.5140 Y29.0854
G01 X36.5702 Y29.1271
G01 X36.6234 Y29.1755
G01 X36.6690 Y29.2259
G01 X36.7107 Y29.2820
G01 X36.7466 Y29.3420
G01 X36.7765 Y29.4053
G01 X36.8001 Y29.4711
G01 X36.8171 Y29.5390
G01 X36.8273 Y29.6082
G01 X36.8307 Y29.6740
G01 X36.8307 Y29.6821
G01 X36.8273 Y29.7479
G01 X36.8178 Y29.8131
G01 X36.8162 Y29.8210
G01 X36.8012 Y29.8810
G01 X36.7988 Y29.8888
G01 X36.7765 Y29.9508
G01 X36.7466 Y30.0140
G01 X36.7107 Y30.0740
G01 X36.6677 Y30.1317
G01 X36.6220 Y30.1820
G01 X36.5702 Y30.2290
G01 X36.5140 Y30.2707
G01 X36.4540 Y30.3066
G01 X36.3908 Y30.3365
G01 X36.3249 Y30.3601
G01 X36.2571 Y30.3771
G01 X36.1919 Y30.3868
G01 X36.1838 Y30.3876
G01 X36.1180 Y30.3908
G01 X36.0482 Y30.3873
G01 X35.9790 Y30.3771
G01 X35.9150 Y30.3612
G01 X35.9073 Y30.3588
G01 X35.8453 Y30.3365
G01 X35.7857 Y30.3084
G01 X35.7785 Y30.3046
G01 X35.7255 Y30.2728
G01 X35.7187 Y30.2683
G01 X35.6659 Y30.2290
G01 X35.6170 Y30.1848
G01 X35.6112 Y30.1791
G01 X35.5671 Y30.1302
G01 X35.5254 Y30.0740
G01 X35.4894 Y30.0140
G01 X35.4588 Y29.9489
G01 X35.4360 Y29.8849
G01 X35.4186 Y29.8151
G01 X35.4085 Y29.7459
G01 X35.4053 Y29.6801
G01 X35.4066 Y29.6496
G01 X33.6065 Y27.8495
G01 X33.5760 Y27.8507
G01 X33.5102 Y27.8475
G01 X33.4410 Y27.8375
G01 X33.3711 Y27.8201
G01 X33.3072 Y27.7973
G01 X33.2420 Y27.7666
G01 X33.1820 Y27.7307
G01 X33.1259 Y27.6890
G01 X33.0740 Y27.6420
G01 X33.0271 Y27.5902
G01 X32.9854 Y27.5340
G01 X32.9494 Y27.4740
G01 X32.9188 Y27.4089
G01 X32.8960 Y27.3449
G01 X32.8786 Y27.2751
G01 X32.8685 Y27.2059
G01 X32.8653 Y27.1401
G01 X32.8666 Y27.1096
G01 X27.4814 Y21.7244
G01 X27.4669 Y21.7206
G01 X27.4261 Y21.7060
G01 X27.3796 Y21.6840
G01 X27.3407 Y21.6606
G01 X27.3058 Y21.6348
G01 X27.2996 Y21.6297
G01 X27.2661 Y21.5991
G01 X27.2357 Y21.5654
G01 X27.2075 Y21.5273
G01 X27.1831 Y21.4867
G01 X27.1645 Y21.4476
G01 X27.1614 Y21.4401
G01 X27.1481 Y21.4031
G01 X27.1458 Y21.3953
G01 X27.1354 Y21.3532
G01 X27.1282 Y21.3043
G01 X27.1261 Y21.2590
G01 X27.1261 Y19.5541
G01 X21.0590 Y13.4870
G01 X20.0968 Y13.4870
G01 X20.0968 Y13.9565
G01 X20.0962 Y13.9667
G01 X20.0938 Y13.9786
G01 X20.0919 Y13.9844
G01 X20.0888 Y13.9919
G01 X20.0860 Y13.9973
G01 X20.0817 Y14.0042
G01 X20.0740 Y14.0136
G01 X20.0649 Y14.0218
G01 X20.0583 Y14.0264
G01 X20.0530 Y14.0295
G01 X20.0419 Y14.0344
G01 X20.0341 Y14.0368
G01 X20.0282 Y14.0381
G01 X20.0221 Y14.0389
G01 X20.0140 Y14.0393
G01 X18.0140 Y14.0393
G01 X18.0039 Y14.0387
G01 X17.9939 Y14.0368
G01 X17.9824 Y14.0330
G01 X17.9715 Y14.0275
G01 X17.9615 Y14.0205
G01 X17.9527 Y14.0121
G01 X17.9452 Y14.0025
G01 X17.9420 Y13.9973
G01 X17.9384 Y13.9901
G01 X17.9343 Y13.9786
G01 X17.9319 Y13.9667
G01 X17.9313 Y13.9565
G01 X17.9313 Y13.4870
G01 X16.8100 Y13.4869
G01 X16.7707 Y13.4849
G01 X16.7627 Y13.4842
G01 X16.7198 Y13.4777
G01 X16.6777 Y13.4673
G01 X16.6700 Y13.4649
G01 X16.6292 Y13.4502
G01 X16.5846 Y13.4290
G01 X16.5457 Y13.4056
G01 X16.5108 Y13.3798
G01 X16.5046 Y13.3747
G01 X16.4740 Y13.3469
G01 X15.4537 Y12.3266
G01 X15.4247 Y12.2944
G01 X15.3965 Y12.2563
G01 X15.3721 Y12.2157
G01 X15.3535 Y12.1766
G01 X15.3504 Y12.1691
G01 X15.3371 Y12.1321
G01 X15.3348 Y12.1243
G01 X15.3244 Y12.0822
G01 X15.3172 Y12.0333
G00 Z2.0000
G00 X18.3465 Y5.0201
G01 F30.00
G01 Z-0.0900
G01 F60.00
G01 X18.3472 Y5.0262
G01 X18.3488 Y5.0341
G01 X18.3505 Y5.0400
G01 X18.3534 Y5.0476
G01 X18.3560 Y5.0530
G01 X18.3602 Y5.0600
G01 X18.3638 Y5.0649
G01 X18.3691 Y5.0711
G01 X18.3735 Y5.0753
G01 X18.3797 Y5.0805
G01 X18.3848 Y5.0839
G01 X18.3918 Y5.0879
G01 X18.3992 Y5.0912
G01 X18.4050 Y5.0932
G01 X18.4109 Y5.0948
G01 X18.4189 Y5.0962
G01 X18.4290 Y5.0968
G01 X18.9923 Y5.0968
G01 X18.9923 Y5.4393
G01 X18.3866 Y5.4393
G01 X18.3408 Y5.4344
G01 X18.3356 Y5.4332
G01 X18.2255 Y5.3919
G01 X18.2203 Y5.3891
G01 X18.1276 Y5.3196
G01 X18.1234 Y5.3154
G01 X18.0540 Y5.2228
G01 X18.0511 Y5.2175
G01 X18.0099 Y5.1074
G01 X18.0086 Y5.1023
G01 X18.0038 Y5.0565
G01 X18.0038 Y4.4508
G01 X18.3463 Y4.4508
G01 X18.3465 Y5.0201
G00 Z2.0000
G00 X18.3356 Y2.7949
G01 F30.00
G01 Z-0.0900
G01 F60.00
G01 X18.3408 Y2.7936
G01 X18.3866 Y2.7888
G01 X18.9923 Y2.7888
G01 X18.9923 Y3.1313
G01 X18.4270 Y3.1313
G01 X18.4169 Y3.1322
G01 X18.4050 Y3.1348
G01 X18.3936 Y3.1392
G01 X18.3831 Y3.1452
G01 X18.3750 Y3.1514
G01 X18.3677 Y3.1585
G01 X18.3626 Y3.1647
G01 X18.3570 Y3.1732
G01 X18.3526 Y3.1824
G01 X18.3493 Y3.1920
G01 X18.3472 Y3.2019
G01 X18.3464 Y3.2100
G01 X18.3463 Y3.7773
G01 X18.0038 Y3.7773
G01 X18.0038 Y3.1716
G01 X18.0086 Y3.1258
G01 X18.0099 Y3.1206
G01 X18.0511 Y3.0105
G01 X18.0540 Y3.0053
G01 X18.1234 Y2.9126
G01 X18.1276 Y2.9084
G01 X18.2203 Y2.8390
G01 X18.2255 Y2.8361
G01 X18.3356 Y2.7949
G00 Z2.0000
G00 X20.3224 Y2.7949
G01 F30.00
G01 Z-0.0900
G01 F60.00
G01 X20.4325 Y2.8361
G01 X20.4378 Y2.8390
G01 X20.5304 Y2.9084
G01 X20.5346 Y2.9126
G01 X20.6041 Y3.0053
G01 X20.6069 Y3.0105
G01 X20.6270 Y3.0641
G01 X20.6322 Y3.0747
G01 X20.6376 Y3.0829
G01 X20.6803 Y3.1397
G01 X20.6869 Y3.1475
G01 X20.6945 Y3.1544
G01 X20.7012 Y3.1592
G01 X20.7083 Y3.1634
G01 X20.7157 Y3.1668
G01 X20.7881 Y3.1936
G01 X20.8001 Y3.1964
G01 X20.8124 Y3.1974
G01 X20.8206 Y3.1971
G01 X20.8287 Y3.1959
G01 X20.9001 Y3.1803
G01 X20.9114 Y3.1769
G01 X20.9204 Y3.1729
G01 X20.9289 Y3.1679
G01 X20.9536 Y3.1508
G01 X21.1060 Y3.0243
G01 X21.2942 Y2.9143
G01 X21.4979 Y2.8365
G01 X21.7115 Y2.7931
G01 X21.9294 Y2.7851
G01 X22.1456 Y2.8128
G01 X22.3544 Y2.8754
G01 X22.5502 Y2.9714
G01 X22.7277 Y3.0979
G01 X22.8576 Y3.2274
G01 X22.8649 Y3.2339
G01 X22.8697 Y3.2374
G01 X22.8765 Y3.2415
G01 X22.9388 Y3.2754
G01 X22.9461 Y3.2789
G01 X22.9557 Y3.2823
G01 X22.9636 Y3.2841
G01 X23.0005 Y3.2882
G01 X23.0848 Y3.2882
G01 X23.1110 Y3.2863
G01 X23.1206 Y3.2849
G01 X23.1802 Y3.2880
G01 X23.2073 Y3.2883
G01 X23.2343 Y3.2908
G01 X23.2939 Y3.2939
G01 X23.3033 Y3.2964
G01 X23.3249 Y3.3004
G01 X23.3366 Y3.3019
G01 X23.4018 Y3.3228
G01 X23.4616 Y3.3389
G01 X23.4723 Y3.3440
G01 X23.4925 Y3.3524
G01 X23.5017 Y3.3555
G01 X23.5611 Y3.3896
G01 X23.6162 Y3.4177
G01 X23.6256 Y3.4249
G01 X23.6437 Y3.4374
G01 X23.6521 Y3.4423
G01 X23.6980 Y3.4837
G01 X23.7173 Y3.4995
G01 X23.7367 Y3.5185
G01 X23.7811 Y3.5584
G01 X23.7882 Y3.5679
G01 X23.8055 Y3.5877
G01 X24.4217 Y4.2039
G01 X24.4306 Y4.2116
G01 X24.4405 Y4.2180
G01 X24.5028 Y4.2520
G01 X24.5102 Y4.2556
G01 X24.5200 Y4.2590
G01 X24.5280 Y4.2609
G01 X24.5493 Y4.2640
G01 X24.6303 Y4.2711
G01 X24.8205 Y4.3221
G01 X24.9990 Y4.4054
G01 X25.1604 Y4.5184
G01 X25.2997 Y4.6576
G01 X25.4127 Y4.8190
G01 X25.4959 Y4.9975
G01 X25.5469 Y5.1878
G01 X25.5564 Y5.2958
G01 X25.5641 Y5.3840
G01 X25.5469 Y5.5803
G01 X25.4959 Y5.7705
G01 X25.4127 Y5.9490
G01 X25.2997 Y6.1104
G01 X25.1604 Y6.2497
G01 X24.9991 Y6.3627
G01 X24.8205 Y6.4459
G01 X24.6303 Y6.4969
G01 X24.4340 Y6.5141
G01 X24.2378 Y6.4969
G01 X24.0475 Y6.4459
G01 X23.8690 Y6.3627
G01 X23.7076 Y6.2497
G01 X23.5684 Y6.1104
G01 X23.4554 Y5.9491
G01 X23.3721 Y5.7705
G01 X23.3211 Y5.5803
G01 X23.3140 Y5.4991
G01 X23.3119 Y5.4875
G01 X23.3088 Y5.4781
G01 X23.2830 Y5.4120
G01 X23.2796 Y5.4045
G01 X23.2755 Y5.3973
G01 X23.2694 Y5.3890
G01 X23.2539 Y5.3717
G01 X23.0110 Y5.1291
G01 X23.0048 Y5.1242
G01 X22.9982 Y5.1200
G01 X22.9342 Y5.0850
G01 X22.9229 Y5.0799
G01 X22.9131 Y5.0770
G01 X22.9030 Y5.0753
G01 X22.8907 Y5.0749
G01 X22.8158 Y5.0803
G01 X22.8097 Y5.0811
G01 X22.8018 Y5.0829
G01 X22.7960 Y5.0847
G01 X22.7885 Y5.0878
G01 X22.7490 Y5.1097
G01 X22.7401 Y5.1156
G01 X22.6052 Y5.2221
G01 X22.4143 Y5.3274
G01 X22.2088 Y5.4002
G01 X21.9942 Y5.4384
G01 X21.7762 Y5.4411
G01 X21.5607 Y5.4081
G01 X21.3535 Y5.3404
G01 X21.1601 Y5.2397
G01 X20.9858 Y5.1088
G01 X20.9698 Y5.0923
G01 X20.9607 Y5.0848
G01 X20.9541 Y5.0805
G01 X20.8890 Y5.0431
G01 X20.8815 Y5.0397
G01 X20.8737 Y5.0371
G01 X20.8657 Y5.0353
G01 X20.8555 Y5.0341
G01 X20.8473 Y5.0341
G01 X20.7702 Y5.0381
G01 X20.7621 Y5.0395
G01 X20.7523 Y5.0424
G01 X20.7428 Y5.0465
G01 X20.7357 Y5.0506
G01 X20.6729 Y5.0953
G01 X20.6667 Y5.1005
G01 X20.6597 Y5.1077
G01 X20.6559 Y5.1125
G01 X20.6515 Y5.1192
G01 X20.6296 Y5.1582
G01 X20.6263 Y5.1660
G01 X20.6069 Y5.2175
G01 X20.6041 Y5.2228
G01 X20.5346 Y5.3154
G01 X20.5304 Y5.3196
G01 X20.4378 Y5.3891
G01 X20.4325 Y5.3919
G01 X20.3224 Y5.4332
G01 X20.3173 Y5.4344
G01 X20.2715 Y5.4393
G01 X19.6658 Y5.4393
G01 X19.6658 Y5.0968
G01 X20.2290 Y5.0968
G01 X20.2392 Y5.0962
G01 X20.2472 Y5.0948
G01 X20.2550 Y5.0926
G01 X20.2607 Y5.0905
G01 X20.2680 Y5.0870
G01 X20.2750 Y5.0828
G01 X20.2815 Y5.0780
G01 X20.2861 Y5.0740
G01 X20.2917 Y5.0681
G01 X20.2967 Y5.0617
G01 X20.3000 Y5.0566
G01 X20.3029 Y5.0512
G01 X20.3062 Y5.0438
G01 X20.3088 Y5.0361
G01 X20.3106 Y5.0282
G01 X20.3114 Y5.0221
G01 X20.3118 Y5.0140
G01 X20.3118 Y3.2140
G01 X20.3109 Y3.2019
G01 X20.3082 Y3.1900
G01 X20.3038 Y3.1786
G01 X20.2978 Y3.1681
G01 X20.2903 Y3.1585
G01 X20.2815 Y3.1501
G01 X20.2716 Y3.1430
G01 X20.2607 Y3.1376
G01 X20.2491 Y3.1338
G01 X20.2371 Y3.1317
G01 X20.2290 Y3.1313
G01 X19.6658 Y3.1313
G01 X19.6658 Y2.7888
G01 X20.2715 Y2.7888
G01 X20.3173 Y2.7936
G01 X20.3224 Y2.7949
G00 Z2.0000
G00 X22.6312 Y3.4938
G01 F30.00
G01 Z-0.0900
G01 F60.00
G01 X22.6862 Y3.5680
G01 X22.7241 Y3.6311
G01 X23.1640 Y3.6311
G01 X23.2114 Y3.6334
G01 X23.2582 Y3.6404
G01 X23.3042 Y3.6519
G01 X23.3488 Y3.6678
G01 X23.3935 Y3.6891
G01 X23.4323 Y3.7125
G01 X23.4672 Y3.7382
G01 X23.4735 Y3.7434
G01 X23.5041 Y3.7711
G01 X24.3404 Y4.6074
G01 X24.3593 Y4.6049
G01 X24.4320 Y4.6013
G01 X24.5107 Y4.6050
G01 X24.5867 Y4.6163
G01 X24.6573 Y4.6339
G01 X24.6651 Y4.6363
G01 X24.7298 Y4.6594
G01 X24.7373 Y4.6625
G01 X24.8030 Y4.6937
G01 X24.8655 Y4.7310
G01 X24.8722 Y4.7355
G01 X24.9306 Y4.7790
G01 X24.9889 Y4.8320
G01 X25.0391 Y4.8875
G01 X25.0849 Y4.9492
G01 X25.1243 Y5.0150
G01 X25.1572 Y5.0845
G01 X25.1831 Y5.1568
G01 X25.2017 Y5.2313
G01 X25.2130 Y5.3073
G01 X25.2168 Y5.3840
G01 X25.2130 Y5.4607
G01 X25.2017 Y5.5367
G01 X25.1831 Y5.6112
G01 X25.1572 Y5.6836
G01 X25.1243 Y5.7530
G01 X25.0849 Y5.8189
G01 X25.0391 Y5.8806
G01 X24.9861 Y5.9389
G01 X24.9306 Y5.9891
G01 X24.8689 Y6.0349
G01 X24.8030 Y6.0743
G01 X24.7373 Y6.1055
G01 X24.7298 Y6.1087
G01 X24.6651 Y6.1318
G01 X24.6573 Y6.1342
G01 X24.5867 Y6.1517
G01 X24.5107 Y6.1630
G01 X24.4340 Y6.1668
G01 X24.3614 Y6.1633
G01 X24.3533 Y6.1625
G01 X24.2853 Y6.1524
G01 X24.2774 Y6.1508
G01 X24.2068 Y6.1331
G01 X24.1345 Y6.1072
G01 X24.0650 Y6.0743
G01 X23.9992 Y6.0349
G01 X23.9375 Y5.9891
G01 X23.8835 Y5.9403
G01 X23.8777 Y5.9346
G01 X23.8290 Y5.8806
G01 X23.7855 Y5.8222
G01 X23.7810 Y5.8155
G01 X23.7437 Y5.7530
G01 X23.7125 Y5.6873
G01 X23.7094 Y5.6798
G01 X23.6863 Y5.6151
G01 X23.6839 Y5.6073
G01 X23.6663 Y5.5367
G01 X23.6555 Y5.4648
G01 X23.6547 Y5.4567
G01 X23.6513 Y5.3840
G01 X23.6549 Y5.3093
G01 X23.6574 Y5.2904
G01 X22.9640 Y4.5970
G01 X22.7241 Y4.5970
G01 X22.6862 Y4.6600
G01 X22.6312 Y4.7343
G01 X22.6260 Y4.7406
G01 X22.5667 Y4.8060
G01 X22.5610 Y4.8117
G01 X22.4925 Y4.8737
G01 X22.4150 Y4.9312
G01 X22.3358 Y4.9787
G01 X22.3287 Y4.9826
G01 X22.2451 Y5.0220
G01 X22.1582 Y5.0532
G01 X22.1504 Y5.0555
G01 X22.0607 Y5.0779
G01 X21.9633 Y5.0922
G01 X21.8731 Y5.0967
G01 X21.8650 Y5.0967
G01 X21.7727 Y5.0920
G01 X21.6813 Y5.0786
G01 X21.6733 Y5.0770
G01 X21.5837 Y5.0545
G01 X21.4929 Y5.0220
G01 X21.4058 Y4.9807
G01 X21.3265 Y4.9333
G01 X21.3197 Y4.9288
G01 X21.2456 Y4.8737
G01 X21.1771 Y4.8117
G01 X21.1713 Y4.8060
G01 X21.1093 Y4.7375
G01 X21.0519 Y4.6600
G01 X21.0023 Y4.5773
G01 X20.9611 Y4.4901
G01 X20.9286 Y4.3993
G01 X20.9052 Y4.3057
G01 X20.8910 Y4.2104
G01 X20.8863 Y4.1140
G01 X20.8910 Y4.0177
G01 X20.9052 Y3.9223
G01 X20.9286 Y3.8287
G01 X20.9611 Y3.7379
G01 X21.0023 Y3.6508
G01 X21.0519 Y3.5680
G01 X21.1093 Y3.4906
G01 X21.1741 Y3.4191
G01 X21.2456 Y3.3543
G01 X21.3230 Y3.2969
G01 X21.4058 Y3.2473
G01 X21.4929 Y3.2061
G01 X21.5837 Y3.1736
G01 X21.6773 Y3.1502
G01 X21.7727 Y3.1360
G01 X21.8690 Y3.1313
G01 X21.9654 Y3.1360
G01 X22.0607 Y3.1502
G01 X22.1543 Y3.1736
G01 X22.2451 Y3.2061
G01 X22.3323 Y3.2473
G01 X22.4150 Y3.2969
G01 X22.4925 Y3.3543
G01 X22.5639 Y3.4191
G01 X22.6260 Y3.4875
G01 X22.6312 Y3.4938
G00 Z2.0000
G00 X28.1781 Y4.9439
G01 F30.00
G01 Z-0.0900
G01 F60.00
G01 X28.2620 Y4.8284
G01 X28.3910 Y4.7123
G01 X28.5413 Y4.6255
G01 X28.6998 Y4.5740
G01 X28.7053 Y4.5720
G01 X28.7124 Y4.5687
G01 X28.7709 Y4.5330
G01 X28.7786 Y4.5271
G01 X28.7876 Y4.5184
G01 X28.9490 Y4.4054
G01 X29.1275 Y4.3221
G01 X29.3178 Y4.2711
G01 X29.5140 Y4.2540
G01 X29.7103 Y4.2711
G01 X29.7428 Y4.2798
G01 X29.7486 Y4.2810
G01 X29.7564 Y4.2820
G01 X29.7643 Y4.2822
G01 X29.8353 Y4.2805
G01 X29.8455 Y4.2796
G01 X29.8556 Y4.2774
G01 X29.8634 Y4.2748
G01 X29.8709 Y4.2715
G01 X29.8797 Y4.2663
G01 X29.9435 Y4.2228
G01 X29.9497 Y4.2174
G01 X29.9539 Y4.2130
G01 X29.9614 Y4.2032
G01 X29.9674 Y4.1924
G01 X29.9969 Y4.1234
G01 X30.0006 Y4.1116
G01 X30.0025 Y4.0994
G01 X30.0027 Y4.0892
G01 X30.0020 Y4.0810
G01 X29.9895 Y4.0069
G01 X29.9876 Y3.9991
G01 X29.9857 Y3.9933
G01 X29.9824 Y3.9859
G01 X29.9784 Y3.9788
G01 X29.9713 Y3.9690
G01 X29.9302 Y3.9208
G01 X29.9259 Y3.9162
G01 X29.9197 Y3.9105
G01 X29.7431 Y3.7866
G01 X29.5915 Y3.6349
G01 X29.4684 Y3.4592
G01 X29.3778 Y3.2649
G01 X29.3223 Y3.0577
G01 X29.3036 Y2.8440
G01 X29.3223 Y2.6304
G01 X29.3778 Y2.4232
G01 X29.4684 Y2.2288
G01 X29.5915 Y2.0531
G01 X29.7431 Y1.9015
G01 X29.9188 Y1.7784
G01 X30.1132 Y1.6878
G01 X30.3204 Y1.6323
G01 X30.5340 Y1.6136
G01 X30.7477 Y1.6323
G01 X30.9549 Y1.6878
G01 X31.1492 Y1.7784
G01 X31.3249 Y1.9015
G01 X31.4766 Y2.0531
G01 X31.5996 Y2.2288
G01 X31.6160 Y2.2638
G01 X31.6198 Y2.2707
G01 X31.6231 Y2.2756
G01 X31.6280 Y2.2818
G01 X31.6749 Y2.3350
G01 X31.6806 Y2.3409
G01 X31.6869 Y2.3462
G01 X31.6955 Y2.3519
G01 X31.7028 Y2.3557
G01 X31.7104 Y2.3587
G01 X31.7846 Y2.3799
G01 X31.7947 Y2.3819
G01 X31.8049 Y2.3826
G01 X31.8172 Y2.3817
G01 X31.8273 Y2.3796
G01 X31.9011 Y2.3572
G01 X31.9085 Y2.3541
G01 X31.9174 Y2.3493
G01 X31.9241 Y2.3446
G01 X31.9317 Y2.3379
G01 X31.9810 Y2.2813
G01 X31.9862 Y2.2747
G01 X31.9926 Y2.2639
G01 X32.0081 Y2.2308
G01 X32.0100 Y2.2275
G01 X32.1308 Y2.0550
G01 X32.1332 Y2.0521
G01 X32.2821 Y1.9032
G01 X32.2850 Y1.9008
G01 X32.4575 Y1.7800
G01 X32.4608 Y1.7781
G01 X32.6517 Y1.6891
G01 X32.6552 Y1.6878
G01 X32.7373 Y1.6658
G01 X32.7373 Y2.0280
G01 X32.6615 Y2.0637
G01 X32.6544 Y2.0675
G01 X32.5836 Y2.1100
G01 X32.5140 Y2.1617
G01 X32.4528 Y2.2170
G01 X32.4470 Y2.2228
G01 X32.3917 Y2.2840
G01 X32.3400 Y2.3536
G01 X32.2955 Y2.4279
G01 X32.2601 Y2.5025
G01 X32.2570 Y2.5100
G01 X32.2293 Y2.5878
G01 X32.2082 Y2.6718
G01 X32.1960 Y2.7535
G01 X32.1952 Y2.7616
G01 X32.1913 Y2.8440
G01 X32.1952 Y2.9265
G01 X32.1960 Y2.9346
G01 X32.2082 Y3.0162
G01 X32.2293 Y3.1003
G01 X32.2570 Y3.1780
G01 X32.2601 Y3.1856
G01 X32.2955 Y3.2602
G01 X32.3400 Y3.3345
G01 X32.3892 Y3.4008
G01 X32.3943 Y3.4071
G01 X32.4498 Y3.4682
G01 X32.5140 Y3.5264
G01 X32.5836 Y3.5780
G01 X32.6544 Y3.6205
G01 X32.6615 Y3.6244
G01 X32.7373 Y3.6600
G01 X32.7373 Y4.0223
G01 X32.6552 Y4.0003
G01 X32.6517 Y3.9990
G01 X32.4608 Y3.9100
G01 X32.4575 Y3.9081
G01 X32.2850 Y3.7873
G01 X32.2821 Y3.7849
G01 X32.1332 Y3.6359
G01 X32.1308 Y3.6331
G01 X32.0100 Y3.4605
G01 X32.0081 Y3.4573
G01 X31.9926 Y3.4242
G01 X31.9888 Y3.4173
G01 X31.9855 Y3.4124
G01 X31.9806 Y3.4063
G01 X31.9294 Y3.3485
G01 X31.9233 Y3.3431
G01 X31.9166 Y3.3383
G01 X31.9095 Y3.3342
G01 X31.9020 Y3.3308
G01 X31.8943 Y3.3281
G01 X31.8260 Y3.3086
G01 X31.8160 Y3.3065
G01 X31.8057 Y3.3055
G01 X31.7955 Y3.3059
G01 X31.7853 Y3.3075
G01 X31.7114 Y3.3296
G01 X31.7038 Y3.3323
G01 X31.6964 Y3.3357
G01 X31.6895 Y3.3399
G01 X31.6830 Y3.3447
G01 X31.6755 Y3.3516
G01 X31.6276 Y3.4068
G01 X31.6224 Y3.4134
G01 X31.6160 Y3.4241
G01 X31.5996 Y3.4592
G01 X31.4766 Y3.6349
G01 X31.3249 Y3.7866
G01 X31.1492 Y3.9096
G01 X30.9549 Y4.0003
G01 X30.7477 Y4.0558
G01 X30.5340 Y4.0745
G01 X30.3204 Y4.0558
G01 X30.2623 Y4.0402
G01 X30.2507 Y4.0383
G01 X30.2408 Y4.0379
G01 X30.1637 Y4.0400
G01 X30.1556 Y4.0412
G01 X30.1456 Y4.0438
G01 X30.1380 Y4.0468
G01 X30.1307 Y4.0505
G01 X30.0666 Y4.0936
G01 X30.0585 Y4.0999
G01 X30.0526 Y4.1056
G01 X30.0473 Y4.1119
G01 X30.0426 Y4.1186
G01 X30.0387 Y4.1258
G01 X30.0082 Y4.1967
G01 X30.0050 Y4.2065
G01 X30.0030 Y4.2166
G01 X30.0023 Y4.2289
G01 X30.0031 Y4.2391
G01 X30.0156 Y4.3131
G01 X30.0175 Y4.3210
G01 X30.0202 Y4.3287
G01 X30.0236 Y4.3360
G01 X30.0278 Y4.3430
G01 X30.0339 Y4.3511
G01 X30.0749 Y4.3993
G01 X30.0807 Y4.4054
G01 X30.0854 Y4.4095
G01 X30.2452 Y4.5217
G01 X30.2544 Y4.5270
G01 X30.2661 Y4.5317
G01 X30.3404 Y4.5551
G01 X30.3506 Y4.5573
G01 X30.3590 Y4.5582
G01 X46.8675 Y4.5583
G01 X46.8773 Y4.5574
G01 X46.8869 Y4.5555
G01 X46.9570 Y4.5349
G01 X46.9646 Y4.5323
G01 X46.9738 Y4.5279
G01 X46.9823 Y4.5224
G01 X47.0115 Y4.4987
G01 X47.4299 Y4.0803
G01 X47.4360 Y4.0726
G01 X47.4403 Y4.0660
G01 X47.4762 Y4.0002
G01 X47.4810 Y3.9890
G01 X47.4832 Y3.9812
G01 X47.4844 Y3.9752
G01 X47.4882 Y3.9377
G01 X47.4883 Y3.8382
G01 X47.4877 Y3.8284
G01 X47.4855 Y3.8168
G01 X47.4643 Y3.7448
G01 X47.4606 Y3.7354
G01 X47.4558 Y3.7264
G01 X47.4500 Y3.7182
G01 X47.4302 Y3.6938
G01 X47.3715 Y3.6349
G01 X47.2484 Y3.4592
G01 X47.2324 Y3.4248
G01 X47.2264 Y3.4146
G01 X47.2203 Y3.4069
G01 X47.1720 Y3.3521
G01 X47.1646 Y3.3450
G01 X47.1581 Y3.3400
G01 X47.1492 Y3.3347
G01 X47.1418 Y3.3313
G01 X47.1340 Y3.3287
G01 X47.0617 Y3.3082
G01 X47.0516 Y3.3065
G01 X47.0413 Y3.3061
G01 X47.0311 Y3.3069
G01 X47.0211 Y3.3090
G01 X46.9454 Y3.3321
G01 X46.9398 Y3.3345
G01 X46.9326 Y3.3383
G01 X46.9259 Y3.3428
G01 X46.9196 Y3.3479
G01 X46.9125 Y3.3552
G01 X46.8673 Y3.4074
G01 X46.8621 Y3.4140
G01 X46.8557 Y3.4247
G01 X46.8396 Y3.4592
G01 X46.7166 Y3.6349
G01 X46.5649 Y3.7866
G01 X46.3892 Y3.9096
G01 X46.1949 Y4.0003
G01 X45.9877 Y4.0558
G01 X45.7740 Y4.0745
G01 X45.5604 Y4.0558
G01 X45.3532 Y4.0003
G01 X45.1588 Y3.9096
G01 X44.9831 Y3.7866
G01 X44.8315 Y3.6349
G01 X44.7084 Y3.4592
G01 X44.6924 Y3.4248
G01 X44.6885 Y3.4179
G01 X44.6852 Y3.4130
G01 X44.6803 Y3.4069
G01 X44.6334 Y3.3536
G01 X44.6277 Y3.3477
G01 X44.6214 Y3.3424
G01 X44.6129 Y3.3367
G01 X44.6055 Y3.3330
G01 X44.5979 Y3.3299
G01 X44.5237 Y3.3087
G01 X44.5116 Y3.3065
G01 X44.5013 Y3.3061
G01 X44.4911 Y3.3069
G01 X44.4811 Y3.3090
G01 X44.4073 Y3.3314
G01 X44.3998 Y3.3345
G01 X44.3926 Y3.3383
G01 X44.3859 Y3.3428
G01 X44.3781 Y3.3493
G01 X44.3725 Y3.3552
G01 X44.3273 Y3.4074
G01 X44.3221 Y3.4140
G01 X44.3157 Y3.4247
G01 X44.2996 Y3.4592
G01 X44.1766 Y3.6349
G01 X44.0249 Y3.7866
G01 X43.8492 Y3.9096
G01 X43.6549 Y4.0003
G01 X43.4477 Y4.0558
G01 X43.2340 Y4.0745
G01 X43.0204 Y4.0558
G01 X42.8132 Y4.0003
G01 X42.6188 Y3.9096
G01 X42.4431 Y3.7866
G01 X42.2915 Y3.6349
G01 X42.1684 Y3.4592
G01 X42.1524 Y3.4248
G01 X42.1485 Y3.4179
G01 X42.1452 Y3.4130
G01 X42.1403 Y3.4069
G01 X42.0892 Y3.3491
G01 X42.0814 Y3.3424
G01 X42.0746 Y3.3378
G01 X42.0674 Y3.3338
G01 X42.0579 Y3.3299
G01 X41.9837 Y3.3087
G01 X41.9716 Y3.3065
G01 X41.9613 Y3.3061
G01 X41.9511 Y3.3069
G01 X41.9411 Y3.3090
G01 X41.8673 Y3.3314
G01 X41.8598 Y3.3345
G01 X41.8526 Y3.3383
G01 X41.8459 Y3.3428
G01 X41.8381 Y3.3493
G01 X41.8325 Y3.3552
G01 X41.7873 Y3.4074
G01 X41.7821 Y3.4140
G01 X41.7757 Y3.4247
G01 X41.7596 Y3.4592
G01 X41.6366 Y3.6349
G01 X41.4849 Y3.7866
G01 X41.3092 Y3.9096
G01 X41.1149 Y4.0003
G01 X40.9077 Y4.0558
G01 X40.6940 Y4.0745
G01 X40.4804 Y4.0558
G01 X40.2732 Y4.0003
G01 X40.0788 Y3.9096
G01 X39.9031 Y3.7866
G01 X39.7515 Y3.6349
G01 X39.6284 Y3.4592
G01 X39.6124 Y3.4248
G01 X39.6096 Y3.4196
G01 X39.6052 Y3.4130
G01 X39.6003 Y3.4069
G01 X39.5534 Y3.3536
G01 X39.5477 Y3.3477
G01 X39.5414 Y3.3424
G01 X39.5329 Y3.3367
G01 X39.5255 Y3.3330
G01 X39.5179 Y3.3299
G01 X39.4437 Y3.3087
G01 X39.4316 Y3.3065
G01 X39.4213 Y3.3061
G01 X39.4111 Y3.3069
G01 X39.4011 Y3.3090
G01 X39.3273 Y3.3314
G01 X39.3198 Y3.3345
G01 X39.3126 Y3.3383
G01 X39.3059 Y3.3428
G01 X39.2981 Y3.3493
G01 X39.2925 Y3.3552
G01 X39.2473 Y3.4074
G01 X39.2421 Y3.4140
G01 X39.2357 Y3.4247
G01 X39.2196 Y3.4592
G01 X39.0966 Y3.6349
G01 X38.9449 Y3.7866
G01 X38.7692 Y3.9096
G01 X38.5749 Y4.0003
G01 X38.3677 Y4.0558
G01 X38.1540 Y4.0745
G01 X37.9404 Y4.0558
G01 X37.7332 Y4.0003
G01 X37.5388 Y3.9096
G01 X37.3631 Y3.7866
G01 X37.2115 Y3.6349
G01 X37.0884 Y3.4592
G01 X37.0724 Y3.4248
G01 X37.0696 Y3.4196
G01 X37.0652 Y3.4130
G01 X37.0603 Y3.4069
G01 X37.0134 Y3.3536
G01 X37.0077 Y3.3477
G01 X37.0014 Y3.3424
G01 X36.9929 Y3.3367
G01 X36.9855 Y3.3330
G01 X36.9779 Y3.3299
G01 X36.9037 Y3.3087
G01 X36.8916 Y3.3065
G01 X36.8813 Y3.3061
G01 X36.8711 Y3.3069
G01 X36.8611 Y3.3090
G01 X36.7873 Y3.3314
G01 X36.7798 Y3.3345
G01 X36.7726 Y3.3383
G01 X36.7659 Y3.3428
G01 X36.7581 Y3.3493
G01 X36.7525 Y3.3552
G01 X36.7073 Y3.4074
G01 X36.7021 Y3.4140
G01 X36.6957 Y3.4247
G01 X36.6796 Y3.4592
G01 X36.5566 Y3.6349
G01 X36.4049 Y3.7866
G01 X36.2292 Y3.9096
G01 X36.0349 Y4.0003
G01 X35.8277 Y4.0558
G01 X35.6140 Y4.0745
G01 X35.4004 Y4.0558
G01 X35.1932 Y4.0003
G01 X34.9988 Y3.9096
G01 X34.8231 Y3.7866
G01 X34.6715 Y3.6349
G01 X34.5484 Y3.4592
G01 X34.5321 Y3.4242
G01 X34.5283 Y3.4173
G01 X34.5250 Y3.4124
G01 X34.5201 Y3.4063
G01 X34.4731 Y3.3530
G01 X34.4674 Y3.3471
G01 X34.4611 Y3.3418
G01 X34.4543 Y3.3372
G01 X34.4453 Y3.3324
G01 X34.4376 Y3.3293
G01 X34.3634 Y3.3081
G01 X34.3534 Y3.3062
G01 X34.3431 Y3.3055
G01 X34.3329 Y3.3061
G01 X34.3208 Y3.3084
G01 X34.2470 Y3.3308
G01 X34.2395 Y3.3339
G01 X34.2306 Y3.3388
G01 X34.2240 Y3.3434
G01 X34.2164 Y3.3501
G01 X34.1670 Y3.4068
G01 X34.1619 Y3.4134
G01 X34.1555 Y3.4241
G01 X34.1400 Y3.4573
G01 X34.1381 Y3.4605
G01 X34.0173 Y3.6331
G01 X34.0149 Y3.6359
G01 X33.8659 Y3.7849
G01 X33.8631 Y3.7873
G01 X33.6905 Y3.9081
G01 X33.6873 Y3.9100
G01 X33.4964 Y3.9990
G01 X33.4929 Y4.0003
G01 X33.4108 Y4.0223
G01 X33.4108 Y3.6600
G01 X33.4865 Y3.6244
G01 X33.4937 Y3.6205
G01 X33.5645 Y3.5780
G01 X33.6340 Y3.5264
G01 X33.6953 Y3.4710
G01 X33.7010 Y3.4653
G01 X33.7564 Y3.4040
G01 X33.8080 Y3.3345
G01 X33.8525 Y3.2602
G01 X33.8879 Y3.1856
G01 X33.8910 Y3.1780
G01 X33.9188 Y3.1003
G01 X33.9398 Y3.0162
G01 X33.9520 Y2.9346
G01 X33.9528 Y2.9265
G01 X33.9568 Y2.8440
G01 X33.9528 Y2.7616
G01 X33.9520 Y2.7535
G01 X33.9398 Y2.6718
G01 X33.9188 Y2.5878
G01 X33.8910 Y2.5100
G01 X33.8879 Y2.5025
G01 X33.8525 Y2.4279
G01 X33.8080 Y2.3536
G01 X33.7589 Y2.2872
G01 X33.7537 Y2.2809
G01 X33.6982 Y2.2198
G01 X33.6340 Y2.1617
G01 X33.5645 Y2.1100
G01 X33.4937 Y2.0675
G01 X33.4865 Y2.0637
G01 X33.4108 Y2.0280
G01 X33.4108 Y1.6658
G01 X33.4929 Y1.6878
G01 X33.4964 Y1.6891
G01 X33.6873 Y1.7781
G01 X33.6905 Y1.7800
G01 X33.8631 Y1.9008
G01 X33.8659 Y1.9032
G01 X34.0149 Y2.0521
G01 X34.0173 Y2.0550
G01 X34.1381 Y2.2275
G01 X34.1400 Y2.2308
G01 X34.1554 Y2.2638
G01 X34.1582 Y2.2690
G01 X34.1625 Y2.2756
G01 X34.1674 Y2.2818
G01 X34.2186 Y2.3395
G01 X34.2264 Y2.3462
G01 X34.2332 Y2.3509
G01 X34.2404 Y2.3548
G01 X34.2499 Y2.3587
G01 X34.3240 Y2.3799
G01 X34.3362 Y2.3821
G01 X34.3464 Y2.3826
G01 X34.3567 Y2.3817
G01 X34.3667 Y2.3796
G01 X34.4405 Y2.3572
G01 X34.4480 Y2.3541
G01 X34.4551 Y2.3503
G01 X34.4635 Y2.3446
G01 X34.4696 Y2.3393
G01 X34.4752 Y2.3335
G01 X34.5205 Y2.2813
G01 X34.5256 Y2.2747
G01 X34.5320 Y2.2639
G01 X34.5484 Y2.2288
G01 X34.6715 Y2.0531
G01 X34.8231 Y1.9015
G01 X34.9988 Y1.7784
G01 X35.1932 Y1.6878
G01 X35.4004 Y1.6323
G01 X35.6140 Y1.6136
G01 X35.8277 Y1.6323
G01 X36.0349 Y1.6878
G01 X36.2292 Y1.7784
G01 X36.4049 Y1.9015
G01 X36.5566 Y2.0531
G01 X36.6796 Y2.2288
G01 X36.6957 Y2.2632
G01 X36.6995 Y2.2701
G01 X36.7028 Y2.2750
G01 X36.7077 Y2.2812
G01 X36.7589 Y2.3389
G01 X36.7667 Y2.3456
G01 X36.7734 Y2.3503
G01 X36.7806 Y2.3542
G01 X36.7901 Y2.3581
G01 X36.8643 Y2.3793
G01 X36.8744 Y2.3813
G01 X36.8847 Y2.3820
G01 X36.8949 Y2.3814
G01 X36.9070 Y2.3790
G01 X36.9789 Y2.3573
G01 X36.9883 Y2.3535
G01 X36.9954 Y2.3497
G01 X37.0022 Y2.3452
G01 X37.0084 Y2.3401
G01 X37.0155 Y2.3329
G01 X37.0608 Y2.2807
G01 X37.0659 Y2.2741
G01 X37.0723 Y2.2633
G01 X37.0884 Y2.2288
G01 X37.2115 Y2.0531
G01 X37.3631 Y1.9015
G01 X37.5388 Y1.7784
G01 X37.7332 Y1.6878
G01 X37.9404 Y1.6323
G01 X38.1540 Y1.6136
G01 X38.3677 Y1.6323
G01 X38.5749 Y1.6878
G01 X38.7692 Y1.7784
G01 X38.9449 Y1.9015
G01 X39.0966 Y2.0531
G01 X39.2196 Y2.2288
G01 X39.2357 Y2.2632
G01 X39.2385 Y2.2684
G01 X39.2428 Y2.2750
G01 X39.2477 Y2.2812
G01 X39.2989 Y2.3389
G01 X39.3067 Y2.3456
G01 X39.3134 Y2.3503
G01 X39.3206 Y2.3542
G01 X39.3301 Y2.3581
G01 X39.4043 Y2.3793
G01 X39.4144 Y2.3813
G01 X39.4247 Y2.3820
G01 X39.4349 Y2.3814
G01 X39.4470 Y2.3790
G01 X39.5189 Y2.3573
G01 X39.5264 Y2.3544
G01 X39.5337 Y2.3507
G01 X39.5422 Y2.3452
G01 X39.5484 Y2.3401
G01 X39.5555 Y2.3329
G01 X39.6008 Y2.2807
G01 X39.6059 Y2.2741
G01 X39.6123 Y2.2633
G01 X39.6284 Y2.2288
G01 X39.7515 Y2.0531
G01 X39.9031 Y1.9015
G01 X40.0788 Y1.7784
G01 X40.2732 Y1.6878
G01 X40.4804 Y1.6323
G01 X40.6940 Y1.6136
G01 X40.9077 Y1.6323
G01 X41.1149 Y1.6878
G01 X41.3092 Y1.7784
G01 X41.4849 Y1.9015
G01 X41.6366 Y2.0531
G01 X41.7596 Y2.2288
G01 X41.7757 Y2.2632
G01 X41.7785 Y2.2684
G01 X41.7828 Y2.2750
G01 X41.7877 Y2.2812
G01 X41.8346 Y2.3345
G01 X41.8404 Y2.3403
G01 X41.8467 Y2.3456
G01 X41.8534 Y2.3503
G01 X41.8625 Y2.3551
G01 X41.8701 Y2.3581
G01 X41.9443 Y2.3793
G01 X41.9544 Y2.3813
G01 X41.9647 Y2.3820
G01 X41.9749 Y2.3814
G01 X41.9870 Y2.3790
G01 X42.0589 Y2.3573
G01 X42.0683 Y2.3535
G01 X42.0754 Y2.3497
G01 X42.0822 Y2.3452
G01 X42.0884 Y2.3401
G01 X42.0955 Y2.3329
G01 X42.1408 Y2.2807
G01 X42.1459 Y2.2741
G01 X42.1523 Y2.2633
G01 X42.1684 Y2.2288
G01 X42.2915 Y2.0531
G01 X42.4431 Y1.9015
G01 X42.6188 Y1.7784
G01 X42.8132 Y1.6878
G01 X43.0204 Y1.6323
G01 X43.2340 Y1.6136
G01 X43.4477 Y1.6323
G01 X43.6549 Y1.6878
G01 X43.8492 Y1.7784
G01 X44.0249 Y1.9015
G01 X44.1766 Y2.0531
G01 X44.2996 Y2.2288
G01 X44.3157 Y2.2632
G01 X44.3195 Y2.2701
G01 X44.3228 Y2.2750
G01 X44.3277 Y2.2812
G01 X44.3746 Y2.3345
G01 X44.3804 Y2.3403
G01 X44.3867 Y2.3456
G01 X44.3952 Y2.3513
G01 X44.4025 Y2.3551
G01 X44.4101 Y2.3581
G01 X44.4843 Y2.3793
G01 X44.4944 Y2.3813
G01 X44.5047 Y2.3820
G01 X44.5149 Y2.3814
G01 X44.5270 Y2.3790
G01 X44.5989 Y2.3573
G01 X44.6083 Y2.3535
G01 X44.6154 Y2.3497
G01 X44.6222 Y2.3452
G01 X44.6284 Y2.3401
G01 X44.6355 Y2.3329
G01 X44.6808 Y2.2807
G01 X44.6859 Y2.2741
G01 X44.6923 Y2.2633
G01 X44.7084 Y2.2288
G01 X44.8315 Y2.0531
G01 X44.9831 Y1.9015
G01 X45.1588 Y1.7784
G01 X45.3532 Y1.6878
G01 X45.5604 Y1.6323
G01 X45.7740 Y1.6136
G01 X45.9877 Y1.6323
G01 X46.1949 Y1.6878
G01 X46.3892 Y1.7784
G01 X46.5649 Y1.9015
G01 X46.7166 Y2.0531
G01 X46.8396 Y2.2288
G01 X46.8557 Y2.2632
G01 X46.8595 Y2.2701
G01 X46.8628 Y2.2750
G01 X46.8677 Y2.2812
G01 X46.9146 Y2.3345
G01 X46.9204 Y2.3403
G01 X46.9267 Y2.3456
G01 X46.9352 Y2.3513
G01 X46.9425 Y2.3551
G01 X46.9501 Y2.3581
G01 X47.0243 Y2.3793
G01 X47.0344 Y2.3813
G01 X47.0447 Y2.3820
G01 X47.0549 Y2.3814
G01 X47.0670 Y2.3790
G01 X47.1389 Y2.3573
G01 X47.1483 Y2.3535
G01 X47.1554 Y2.3497
G01 X47.1622 Y2.3452
G01 X47.1684 Y2.3401
G01 X47.1755 Y2.3329
G01 X47.2208 Y2.2807
G01 X47.2259 Y2.2741
G01 X47.2323 Y2.2633
G01 X47.2484 Y2.2288
G01 X47.3715 Y2.0531
G01 X47.5231 Y1.9015
G01 X47.6988 Y1.7784
G01 X47.8932 Y1.6878
G01 X48.1004 Y1.6323
G01 X48.3140 Y1.6136
G01 X48.5277 Y1.6323
G01 X48.7349 Y1.6878
G01 X48.9292 Y1.7784
G01 X49.1049 Y1.9015
G01 X49.2566 Y2.0531
G01 X49.3796 Y2.2288
G01 X49.4703 Y2.4232
G01 X49.5258 Y2.6304
G01 X49.5445 Y2.8440
G01 X49.5258 Y3.0577
G01 X49.4703 Y3.2649
G01 X49.3796 Y3.4592
G01 X49.2566 Y3.6349
G01 X49.1995 Y3.6920
G01 X49.1920 Y3.7011
G01 X49.1868 Y3.7095
G01 X49.1518 Y3.7736
G01 X49.1477 Y3.7829
G01 X49.1448 Y3.7926
G01 X49.1431 Y3.8026
G01 X49.1402 Y3.8294
G01 X49.1398 Y3.8382
G01 X49.1398 Y4.2826
G01 X49.1416 Y4.3088
G01 X49.1432 Y4.3206
G01 X49.1401 Y4.3802
G01 X49.1398 Y4.4073
G01 X49.1372 Y4.4343
G01 X49.1341 Y4.4939
G01 X49.1317 Y4.5033
G01 X49.1277 Y4.5249
G01 X49.1262 Y4.5367
G01 X49.1052 Y4.6018
G01 X49.0892 Y4.6616
G01 X49.0840 Y4.6723
G01 X49.0756 Y4.6925
G01 X49.0725 Y4.7017
G01 X49.0385 Y4.7611
G01 X49.0104 Y4.8162
G01 X49.0031 Y4.8256
G01 X48.9907 Y4.8437
G01 X48.9858 Y4.8521
G01 X48.9444 Y4.8980
G01 X48.9285 Y4.9173
G01 X48.9095 Y4.9367
G01 X48.8696 Y4.9811
G01 X48.8601 Y4.9882
G01 X48.8403 Y5.0055
G01 X47.9355 Y5.9103
G01 X47.9182 Y5.9301
G01 X47.9111 Y5.9396
G01 X47.8667 Y5.9795
G01 X47.8473 Y5.9985
G01 X47.8280 Y6.0144
G01 X47.7821 Y6.0557
G01 X47.7737 Y6.0607
G01 X47.7556 Y6.0731
G01 X47.7462 Y6.0804
G01 X47.6911 Y6.1085
G01 X47.6317 Y6.1425
G01 X47.6225 Y6.1456
G01 X47.6023 Y6.1540
G01 X47.5916 Y6.1592
G01 X47.5318 Y6.1752
G01 X47.4667 Y6.1962
G01 X47.4549 Y6.1977
G01 X47.4333 Y6.2017
G01 X47.4239 Y6.2041
G01 X47.3643 Y6.2072
G01 X47.3373 Y6.2098
G01 X47.3102 Y6.2101
G01 X47.2506 Y6.2132
G01 X47.2388 Y6.2116
G01 X47.2126 Y6.2098
G01 X30.3611 Y6.2098
G01 X30.3506 Y6.2107
G01 X30.3404 Y6.2130
G01 X30.2641 Y6.2371
G01 X30.2525 Y6.2421
G01 X30.2435 Y6.2475
G01 X30.0791 Y6.3627
G01 X29.9005 Y6.4459
G01 X29.7103 Y6.4969
G01 X29.5140 Y6.5141
G01 X29.3178 Y6.4969
G01 X29.1275 Y6.4459
G01 X28.9490 Y6.3627
G01 X28.7876 Y6.2497
G01 X28.7786 Y6.2410
G01 X28.7709 Y6.2350
G01 X28.7124 Y6.1993
G01 X28.7053 Y6.1960
G01 X28.6998 Y6.1940
G01 X28.5413 Y6.1425
G01 X28.3910 Y6.0557
G01 X28.2620 Y5.9396
G01 X28.1600 Y5.7992
G01 X28.0894 Y5.6406
G01 X28.0533 Y5.4708
G01 X28.0533 Y5.2972
G01 X28.0894 Y5.1275
G01 X28.1600 Y4.9689
G01 X28.1781 Y4.9439
G00 Z2.0000
G00 X28.8297 Y4.9036
G01 F30.00
G01 Z-0.0900
G01 F60.00
G01 X28.8750 Y4.9012
G01 X28.8987 Y4.9011
G01 X28.9103 Y4.8859
G01 X28.9591 Y4.8320
G01 X29.0190 Y4.7777
G01 X29.0792 Y4.7332
G01 X29.1415 Y4.6957
G01 X29.1487 Y4.6919
G01 X29.2126 Y4.6617
G01 X29.2868 Y4.6350
G01 X29.3613 Y4.6163
G01 X29.4373 Y4.6050
G01 X29.5140 Y4.6013
G01 X29.5907 Y4.6050
G01 X29.6627 Y4.6156
G01 X29.6707 Y4.6172
G01 X29.7412 Y4.6350
G01 X29.8098 Y4.6594
G01 X29.8173 Y4.6625
G01 X29.8794 Y4.6919
G01 X29.8865 Y4.6957
G01 X29.9489 Y4.7332
G01 X30.0106 Y4.7790
G01 X30.0689 Y4.8320
G01 X30.1178 Y4.8859
G01 X30.1293 Y4.9011
G01 X47.0940 Y4.9011
G01 X47.8311 Y4.1640
G01 X47.8311 Y3.5826
G01 X47.8203 Y3.5757
G01 X47.7540 Y3.5264
G01 X47.6898 Y3.4682
G01 X47.6317 Y3.4040
G01 X47.5824 Y3.3378
G01 X47.5779 Y3.3310
G01 X47.5355 Y3.2602
G01 X47.5001 Y3.1856
G01 X47.4970 Y3.1780
G01 X47.4706 Y3.1041
G01 X47.4682 Y3.0964
G01 X47.4482 Y3.0162
G01 X47.4354 Y2.9285
G01 X47.4313 Y2.8440
G01 X47.4352 Y2.7616
G01 X47.4360 Y2.7535
G01 X47.4482 Y2.6718
G01 X47.4682 Y2.5917
G01 X47.4706 Y2.5839
G01 X47.4970 Y2.5100
G01 X47.5001 Y2.5025
G01 X47.5355 Y2.4279
G01 X47.5800 Y2.3536
G01 X47.6317 Y2.2840
G01 X47.6898 Y2.2198
G01 X47.7509 Y2.1643
G01 X47.7572 Y2.1592
G01 X47.8236 Y2.1100
G01 X47.8979 Y2.0655
G01 X47.9725 Y2.0301
G01 X47.9800 Y2.0270
G01 X48.0578 Y1.9993
G01 X48.1378 Y1.9791
G01 X48.1458 Y1.9775
G01 X48.2235 Y1.9660
G01 X48.2316 Y1.9652
G01 X48.3140 Y1.9613
G01 X48.3965 Y1.9652
G01 X48.4046 Y1.9660
G01 X48.4862 Y1.9782
G01 X48.5664 Y1.9982
G01 X48.5741 Y2.0006
G01 X48.6518 Y2.0285
G01 X48.7265 Y2.0637
G01 X48.7337 Y2.0675
G01 X48.8045 Y2.1100
G01 X48.8740 Y2.1617
G01 X48.9353 Y2.2170
G01 X48.9410 Y2.2228
G01 X48.9964 Y2.2840
G01 X49.0480 Y2.3536
G01 X49.0905 Y2.4244
G01 X49.0944 Y2.4315
G01 X49.1296 Y2.5062
G01 X49.1575 Y2.5839
G01 X49.1598 Y2.5917
G01 X49.1798 Y2.6718
G01 X49.1925 Y2.7575
G01 X49.1968 Y2.8440
G01 X49.1928 Y2.9265
G01 X49.1920 Y2.9346
G01 X49.1798 Y3.0162
G01 X49.1598 Y3.0964
G01 X49.1575 Y3.1041
G01 X49.1296 Y3.1818
G01 X49.0944 Y3.2565
G01 X49.0905 Y3.2637
G01 X49.0502 Y3.3310
G01 X49.0457 Y3.3378
G01 X48.9964 Y3.4040
G01 X48.9410 Y3.4653
G01 X48.9353 Y3.4710
G01 X48.8740 Y3.5264
G01 X48.8078 Y3.5757
G01 X48.7970 Y3.5826
G01 X48.7970 Y4.3640
G01 X48.7949 Y4.4073
G01 X48.7942 Y4.4154
G01 X48.7877 Y4.4582
G01 X48.7762 Y4.5042
G01 X48.7602 Y4.5488
G01 X48.7418 Y4.5881
G01 X48.7379 Y4.5952
G01 X48.7156 Y4.6323
G01 X48.6898 Y4.6672
G01 X48.6847 Y4.6735
G01 X48.6569 Y4.7041
G01 X47.6326 Y5.7283
G01 X47.6004 Y5.7574
G01 X47.5623 Y5.7856
G01 X47.5217 Y5.8099
G01 X47.4826 Y5.8286
G01 X47.4751 Y5.8317
G01 X47.4381 Y5.8449
G01 X47.4303 Y5.8473
G01 X47.3882 Y5.8577
G01 X47.3414 Y5.8646
G01 X47.2940 Y5.8670
G01 X30.1293 Y5.8670
G01 X30.1178 Y5.8822
G01 X30.0689 Y5.9361
G01 X30.0090 Y5.9904
G01 X29.9489 Y6.0349
G01 X29.8865 Y6.0723
G01 X29.8794 Y6.0762
G01 X29.8154 Y6.1064
G01 X29.7412 Y6.1331
G01 X29.6707 Y6.1508
G01 X29.6627 Y6.1524
G01 X29.5948 Y6.1625
G01 X29.5867 Y6.1633
G01 X29.5140 Y6.1668
G01 X29.4414 Y6.1633
G01 X29.4333 Y6.1625
G01 X29.3613 Y6.1517
G01 X29.2868 Y6.1331
G01 X29.2145 Y6.1072
G01 X29.1450 Y6.0743
G01 X29.0792 Y6.0349
G01 X29.0159 Y5.9878
G01 X28.9591 Y5.9361
G01 X28.9103 Y5.8822
G01 X28.8987 Y5.8670
G01 X28.8770 Y5.8669
G01 X28.8337 Y5.8648
G01 X28.7828 Y5.8573
G01 X28.7388 Y5.8462
G01 X28.6980 Y5.8317
G01 X28.6905 Y5.8286
G01 X28.6496 Y5.8090
G01 X28.6107 Y5.7856
G01 X28.5758 Y5.7598
G01 X28.5696 Y5.7547
G01 X28.5375 Y5.7255
G01 X28.5057 Y5.6904
G01 X28.4798 Y5.6557
G01 X28.4753 Y5.6489
G01 X28.4551 Y5.6152
G01 X28.4513 Y5.6081
G01 X28.4345 Y5.5726
G01 X28.4314 Y5.5651
G01 X28.4169 Y5.5242
G01 X28.4062 Y5.4822
G01 X28.4047 Y5.4742
G01 X28.3984 Y5.4314
G01 X28.3961 Y5.3840
G01 X28.3981 Y5.3407
G01 X28.3989 Y5.3327
G01 X28.4054 Y5.2898
G01 X28.4158 Y5.2477
G01 X28.4181 Y5.2400
G01 X28.4328 Y5.1992
G01 X28.4531 Y5.1564
G01 X28.4753 Y5.1191
G01 X28.4798 Y5.1124
G01 X28.5057 Y5.0776
G01 X28.5347 Y5.0455
G01 X28.5405 Y5.0397
G01 X28.5726 Y5.0107
G01 X28.6107 Y4.9825
G01 X28.6514 Y4.9581
G01 X28.6905 Y4.9395
G01 X28.6980 Y4.9364
G01 X28.7388 Y4.9219
G01 X28.7808 Y4.9112
G01 X28.7888 Y4.9097
G01 X28.8297 Y4.9036
G00 Z2.0000
G00 X30.4516 Y1.9652
G01 F30.00
G01 Z-0.0900
G01 F60.00
G01 X30.5340 Y1.9613
G01 X30.6205 Y1.9655
G01 X30.7062 Y1.9782
G01 X30.7903 Y1.9993
G01 X30.8718 Y2.0285
G01 X30.9502 Y2.0655
G01 X31.0245 Y2.1100
G01 X31.0940 Y2.1617
G01 X31.1582 Y2.2198
G01 X31.2164 Y2.2840
G01 X31.2680 Y2.3536
G01 X31.3125 Y2.4279
G01 X31.3496 Y2.5062
G01 X31.3788 Y2.5878
G01 X31.3998 Y2.6718
G01 X31.4125 Y2.7575
G01 X31.4168 Y2.8440
G01 X31.4125 Y2.9305
G01 X31.3998 Y3.0162
G01 X31.3788 Y3.1003
G01 X31.3496 Y3.1818
G01 X31.3125 Y3.2602
G01 X31.2680 Y3.3345
G01 X31.2164 Y3.4040
G01 X31.1582 Y3.4682
G01 X31.0940 Y3.5264
G01 X31.0245 Y3.5780
G01 X30.9502 Y3.6225
G01 X30.8718 Y3.6596
G01 X30.7903 Y3.6888
G01 X30.7062 Y3.7098
G01 X30.6205 Y3.7225
G01 X30.5340 Y3.7268
G01 X30.4475 Y3.7225
G01 X30.3618 Y3.7098
G01 X30.2778 Y3.6888
G01 X30.1962 Y3.6596
G01 X30.1179 Y3.6225
G01 X30.0436 Y3.5780
G01 X29.9740 Y3.5264
G01 X29.9098 Y3.4682
G01 X29.8517 Y3.4040
G01 X29.8000 Y3.3345
G01 X29.7555 Y3.2602
G01 X29.7185 Y3.1818
G01 X29.6893 Y3.1003
G01 X29.6682 Y3.0162
G01 X29.6555 Y2.9305
G01 X29.6513 Y2.8440
G01 X29.6555 Y2.7575
G01 X29.6682 Y2.6718
G01 X29.6893 Y2.5878
G01 X29.7185 Y2.5062
G01 X29.7555 Y2.4279
G01 X29.8000 Y2.3536
G01 X29.8517 Y2.2840
G01 X29.9098 Y2.2198
G01 X29.9740 Y2.1617
G01 X30.0436 Y2.1100
G01 X30.1179 Y2.0655
G01 X30.1962 Y2.0285
G01 X30.2778 Y1.9993
G01 X30.3618 Y1.9782
G01 X30.4435 Y1.9660
G01 X30.4516 Y1.9652
G00 Z2.0000
G00 X35.5316 Y1.9652
G01 F30.00
G01 Z-0.0900
G01 F60.00
G01 X35.6140 Y1.9613
G01 X35.7005 Y1.9655
G01 X35.7862 Y1.9782
G01 X35.8703 Y1.9993
G01 X35.9518 Y2.0285
G01 X36.0302 Y2.0655
G01 X36.1045 Y2.1100
G01 X36.1740 Y2.1617
G01 X36.2382 Y2.2198
G01 X36.2964 Y2.2840
G01 X36.3480 Y2.3536
G01 X36.3925 Y2.4279
G01 X36.4296 Y2.5062
G01 X36.4588 Y2.5878
G01 X36.4798 Y2.6718
G01 X36.4925 Y2.7575
G01 X36.4968 Y2.8440
G01 X36.4925 Y2.9305
G01 X36.4798 Y3.0162
G01 X36.4588 Y3.1003
G01 X36.4296 Y3.1818
G01 X36.3925 Y3.2602
G01 X36.3480 Y3.3345
G01 X36.2964 Y3.4040
G01 X36.2382 Y3.4682
G01 X36.1740 Y3.5264
G01 X36.1045 Y3.5780
G01 X36.0302 Y3.6225
G01 X35.9518 Y3.6596
G01 X35.8703 Y3.6888
G01 X35.7862 Y3.7098
G01 X35.7005 Y3.7225
G01 X35.6140 Y3.7268
G01 X35.5275 Y3.7225
G01 X35.4418 Y3.7098
G01 X35.3578 Y3.6888
G01 X35.2762 Y3.6596
G01 X35.1979 Y3.6225
G01 X35.1236 Y3.5780
G01 X35.0540 Y3.5264
G01 X34.9898 Y3.4682
G01 X34.9317 Y3.4040
G01 X34.8800 Y3.3345
G01 X34.8355 Y3.2602
G01 X34.7985 Y3.1818
G01 X34.7693 Y3.1003
G01 X34.7482 Y3.0162
G01 X34.7355 Y2.9305
G01 X34.7313 Y2.8440
G01 X34.7355 Y2.7575
G01 X34.7482 Y2.6718
G01 X34.7693 Y2.5878
G01 X34.7985 Y2.5062
G01 X34.8355 Y2.4279
G01 X34.8800 Y2.3536
G01 X34.9317 Y2.2840
G01 X34.9898 Y2.2198
G01 X35.0540 Y2.1617
G01 X35.1236 Y2.1100
G01 X35.1979 Y2.0655
G01 X35.2762 Y2.0285
G01 X35.3578 Y1.9993
G01 X35.4418 Y1.9782
G01 X35.5235 Y1.9660
G01 X35.5316 Y1.9652
G00 Z2.0000
G00 X38.0716 Y1.9652
G01 F30.00
G01 Z-0.0900
G01 F60.00
G01 X38.1540 Y1.9613
G01 X38.2405 Y1.9655
G01 X38.3262 Y1.9782
G01 X38.4103 Y1.9993
G01 X38.4918 Y2.0285
G01 X38.5702 Y2.0655
G01 X38.6445 Y2.1100
G01 X38.7140 Y2.1617
G01 X38.7782 Y2.2198
G01 X38.8364 Y2.2840
G01 X38.8880 Y2.3536
G01 X38.9325 Y2.4279
G01 X38.9696 Y2.5062
G01 X38.9988 Y2.5878
G01 X39.0198 Y2.6718
G01 X39.0325 Y2.7575
G01 X39.0368 Y2.8440
G01 X39.0325 Y2.9305
G01 X39.0198 Y3.0162
G01 X38.9988 Y3.1003
G01 X38.9696 Y3.1818
G01 X38.9325 Y3.2602
G01 X38.8880 Y3.3345
G01 X38.8364 Y3.4040
G01 X38.7782 Y3.4682
G01 X38.7140 Y3.5264
G01 X38.6445 Y3.5780
G01 X38.5702 Y3.6225
G01 X38.4918 Y3.6596
G01 X38.4103 Y3.6888
G01 X38.3262 Y3.7098
G01 X38.2405 Y3.7225
G01 X38.1540 Y3.7268
G01 X38.0675 Y3.7225
G01 X37.9818 Y3.7098
G01 X37.8978 Y3.6888
G01 X37.8162 Y3.6596
G01 X37.7379 Y3.6225
G01 X37.6636 Y3.5780
G01 X37.5940 Y3.5264
G01 X37.5298 Y3.4682
G01 X37.4717 Y3.4040
G01 X37.4200 Y3.3345
G01 X37.3755 Y3.2602
G01 X37.3385 Y3.1818
G01 X37.3093 Y3.1003
G01 X37.2882 Y3.0162
G01 X37.2755 Y2.9305
G01 X37.2713 Y2.8440
G01 X37.2755 Y2.7575
G01 X37.2882 Y2.6718
G01 X37.3093 Y2.5878
G01 X37.3385 Y2.5062
G01 X37.3755 Y2.4279
G01 X37.4200 Y2.3536
G01 X37.4717 Y2.2840
G01 X37.5298 Y2.2198
G01 X37.5940 Y2.1617
G01 X37.6636 Y2.1100
G01 X37.7379 Y2.0655
G01 X37.8162 Y2.0285
G01 X37.8978 Y1.9993
G01 X37.9818 Y1.9782
G01 X38.0635 Y1.9660
G01 X38.0716 Y1.9652
G00 Z2.0000
G00 X40.6095 Y1.9654
G01 F30.00
G01 Z-0.0900
G01 F60.00
G01 X40.6940 Y1.9613
G01 X40.7805 Y1.9655
G01 X40.8662 Y1.9782
G01 X40.9503 Y1.9993
G01 X41.0318 Y2.0285
G01 X41.1102 Y2.0655
G01 X41.1845 Y2.1100
G01 X41.2540 Y2.1617
G01 X41.3182 Y2.2198
G01 X41.3764 Y2.2840
G01 X41.4280 Y2.3536
G01 X41.4725 Y2.4279
G01 X41.5096 Y2.5062
G01 X41.5388 Y2.5878
G01 X41.5598 Y2.6718
G01 X41.5725 Y2.7575
G01 X41.5768 Y2.8440
G01 X41.5725 Y2.9305
G01 X41.5598 Y3.0162
G01 X41.5388 Y3.1003
G01 X41.5096 Y3.1818
G01 X41.4725 Y3.2602
G01 X41.4280 Y3.3345
G01 X41.3764 Y3.4040
G01 X41.3182 Y3.4682
G01 X41.2540 Y3.5264
G01 X41.1845 Y3.5780
G01 X41.1102 Y3.6225
G01 X41.0318 Y3.6596
G01 X40.9503 Y3.6888
G01 X40.8662 Y3.7098
G01 X40.7805 Y3.7225
G01 X40.6940 Y3.7268
G01 X40.6075 Y3.7225
G01 X40.5218 Y3.7098
G01 X40.4378 Y3.6888
G01 X40.3562 Y3.6596
G01 X40.2779 Y3.6225
G01 X40.2036 Y3.5780
G01 X40.1340 Y3.5264
G01 X40.0698 Y3.4682
G01 X40.0117 Y3.4040
G01 X39.9600 Y3.3345
G01 X39.9155 Y3.2602
G01 X39.8785 Y3.1818
G01 X39.8493 Y3.1003
G01 X39.8282 Y3.0162
G01 X39.8155 Y2.9305
G01 X39.8113 Y2.8440
G01 X39.8155 Y2.7575
G01 X39.8282 Y2.6718
G01 X39.8493 Y2.5878
G01 X39.8785 Y2.5062
G01 X39.9155 Y2.4279
G01 X39.9600 Y2.3536
G01 X40.0117 Y2.2840
G01 X40.0698 Y2.2198
G01 X40.1340 Y2.1617
G01 X40.2036 Y2.1100
G01 X40.2779 Y2.0655
G01 X40.3562 Y2.0285
G01 X40.4378 Y1.9993
G01 X40.5218 Y1.9782
G01 X40.6095 Y1.9654
G00 Z2.0000
G00 X43.1516 Y1.9652
G01 F30.00
G01 Z-0.0900
G01 F60.00
G01 X43.2340 Y1.9613
G01 X43.3205 Y1.9655
G01 X43.4062 Y1.9782
G01 X43.4903 Y1.9993
G01 X43.5718 Y2.0285
G01 X43.6502 Y2.0655
G01 X43.7245 Y2.1100
G01 X43.7940 Y2.1617
G01 X43.8582 Y2.2198
G01 X43.9164 Y2.2840
G01 X43.9680 Y2.3536
G01 X44.0125 Y2.4279
G01 X44.0496 Y2.5062
G01 X44.0788 Y2.5878
G01 X44.0998 Y2.6718
G01 X44.1125 Y2.7575
G01 X44.1168 Y2.8440
G01 X44.1125 Y2.9305
G01 X44.0998 Y3.0162
G01 X44.0788 Y3.1003
G01 X44.0496 Y3.1818
G01 X44.0125 Y3.2602
G01 X43.9680 Y3.3345
G01 X43.9164 Y3.4040
G01 X43.8582 Y3.4682
G01 X43.7940 Y3.5264
G01 X43.7245 Y3.5780
G01 X43.6502 Y3.6225
G01 X43.5718 Y3.6596
G01 X43.4903 Y3.6888
G01 X43.4062 Y3.7098
G01 X43.3205 Y3.7225
G01 X43.2340 Y3.7268
G01 X43.1475 Y3.7225
G01 X43.0618 Y3.7098
G01 X42.9778 Y3.6888
G01 X42.8962 Y3.6596
G01 X42.8179 Y3.6225
G01 X42.7436 Y3.5780
G01 X42.6740 Y3.5264
G01 X42.6098 Y3.4682
G01 X42.5517 Y3.4040
G01 X42.5000 Y3.3345
G01 X42.4555 Y3.2602
G01 X42.4185 Y3.1818
G01 X42.3893 Y3.1003
G01 X42.3682 Y3.0162
G01 X42.3555 Y2.9305
G01 X42.3513 Y2.8440
G01 X42.3555 Y2.7575
G01 X42.3682 Y2.6718
G01 X42.3893 Y2.5878
G01 X42.4185 Y2.5062
G01 X42.4555 Y2.4279
G01 X42.5000 Y2.3536
G01 X42.5517 Y2.2840
G01 X42.6098 Y2.2198
G01 X42.6740 Y2.1617
G01 X42.7436 Y2.1100
G01 X42.8179 Y2.0655
G01 X42.8962 Y2.0285
G01 X42.9778 Y1.9993
G01 X43.0618 Y1.9782
G01 X43.1435 Y1.9660
G01 X43.1516 Y1.9652
G00 Z2.0000
G00 X45.6895 Y1.9654
G01 F30.00
G01 Z-0.0900
G01 F60.00
G01 X45.7740 Y1.9613
G01 X45.8605 Y1.9655
G01 X45.9462 Y1.9782
G01 X46.0303 Y1.9993
G01 X46.1118 Y2.0285
G01 X46.1902 Y2.0655
G01 X46.2645 Y2.1100
G01 X46.3340 Y2.1617
G01 X46.3982 Y2.2198
G01 X46.4564 Y2.2840
G01 X46.5080 Y2.3536
G01 X46.5525 Y2.4279
G01 X46.5896 Y2.5062
G01 X46.6188 Y2.5878
G01 X46.6398 Y2.6718
G01 X46.6525 Y2.7575
G01 X46.6568 Y2.8440
G01 X46.6525 Y2.9305
G01 X46.6398 Y3.0162
G01 X46.6188 Y3.1003
G01 X46.5896 Y3.1818
G01 X46.5525 Y3.2602
G01 X46.5080 Y3.3345
G01 X46.4564 Y3.4040
G01 X46.3982 Y3.4682
G01 X46.3340 Y3.5264
G01 X46.2645 Y3.5780
G01 X46.1902 Y3.6225
G01 X46.1118 Y3.6596
G01 X46.0303 Y3.6888
G01 X45.9462 Y3.7098
G01 X45.8605 Y3.7225
G01 X45.7740 Y3.7268
G01 X45.6875 Y3.7225
G01 X45.6018 Y3.7098
G01 X45.5178 Y3.6888
G01 X45.4362 Y3.6596
G01 X45.3579 Y3.6225
G01 X45.2836 Y3.5780
G01 X45.2140 Y3.5264
G01 X45.1498 Y3.4682
G01 X45.0917 Y3.4040
G01 X45.0400 Y3.3345
G01 X44.9955 Y3.2602
G01 X44.9585 Y3.1818
G01 X44.9293 Y3.1003
G01 X44.9082 Y3.0162
G01 X44.8955 Y2.9305
G01 X44.8913 Y2.8440
G01 X44.8955 Y2.7575
G01 X44.9082 Y2.6718
G01 X44.9293 Y2.5878
G01 X44.9585 Y2.5062
G01 X44.9955 Y2.4279
G01 X45.0400 Y2.3536
G01 X45.0917 Y2.2840
G01 X45.1498 Y2.2198
G01 X45.2140 Y2.1617
G01 X45.2836 Y2.1100
G01 X45.3579 Y2.0655
G01 X45.4362 Y2.0285
G01 X45.5178 Y1.9993
G01 X45.6018 Y1.9782
G01 X45.6895 Y1.9654
G00 Z2.0000
G00 X45.9339 Y13.2841
G01 F30.00
G01 Z-0.0900
G01 F60.00
G01 X46.0198 Y13.2326
G01 X46.0491 Y13.2185
G01 X46.0491 Y9.9540
G01 X46.0514 Y9.9087
G01 X46.0577 Y9.8658
G01 X46.0592 Y9.8578
G01 X46.0699 Y9.8158
G01 X46.0844 Y9.7750
G01 X46.0875 Y9.7675
G01 X46.1061 Y9.7284
G01 X46.1294 Y9.6894
G01 X46.1587 Y9.6496
G01 X46.1905 Y9.6145
G01 X51.8911 Y3.9140
G01 X51.8911 Y3.5826
G01 X51.8803 Y3.5757
G01 X51.8140 Y3.5264
G01 X51.7498 Y3.4682
G01 X51.6917 Y3.4040
G01 X51.6424 Y3.3378
G01 X51.6379 Y3.3310
G01 X51.5955 Y3.2602
G01 X51.5601 Y3.1856
G01 X51.5570 Y3.1780
G01 X51.5306 Y3.1041
G01 X51.5282 Y3.0964
G01 X51.5082 Y3.0162
G01 X51.4957 Y2.9326
G01 X51.4913 Y2.8440
G01 X51.4955 Y2.7575
G01 X51.5082 Y2.6718
G01 X51.5293 Y2.5878
G01 X51.5585 Y2.5062
G01 X51.5955 Y2.4279
G01 X51.6400 Y2.3536
G01 X51.6892 Y2.2872
G01 X51.6943 Y2.2809
G01 X51.7498 Y2.2198
G01 X51.8140 Y2.1617
G01 X51.8836 Y2.1100
G01 X51.9579 Y2.0655
G01 X52.0362 Y2.0285
G01 X52.1178 Y1.9993
G01 X52.2018 Y1.9782
G01 X52.2835 Y1.9660
G01 X52.2916 Y1.9652
G01 X52.3740 Y1.9613
G01 X52.4565 Y1.9652
G01 X52.4646 Y1.9660
G01 X52.5422 Y1.9775
G01 X52.5502 Y1.9791
G01 X52.6303 Y1.9993
G01 X52.7118 Y2.0285
G01 X52.7902 Y2.0655
G01 X52.8628 Y2.1089
G01 X52.9340 Y2.1617
G01 X52.9953 Y2.2170
G01 X53.0010 Y2.2228
G01 X53.0564 Y2.2840
G01 X53.1057 Y2.3503
G01 X53.1102 Y2.3570
G01 X53.1525 Y2.4279
G01 X53.1879 Y2.5025
G01 X53.1910 Y2.5100
G01 X53.2188 Y2.5878
G01 X53.2389 Y2.6678
G01 X53.2405 Y2.6758
G01 X53.2525 Y2.7575
G01 X53.2567 Y2.8400
G01 X53.2567 Y2.8481
G01 X53.2528 Y2.9265
G01 X53.2520 Y2.9346
G01 X53.2398 Y3.0162
G01 X53.2198 Y3.0964
G01 X53.2175 Y3.1041
G01 X53.1896 Y3.1818
G01 X53.1525 Y3.2602
G01 X53.1102 Y3.3310
G01 X53.1057 Y3.3378
G01 X53.0564 Y3.4040
G01 X53.0010 Y3.4653
G01 X52.9953 Y3.4710
G01 X52.9340 Y3.5264
G01 X52.8678 Y3.5757
G01 X52.8570 Y3.5826
G01 X52.8570 Y4.1140
G01 X52.8546 Y4.1614
G01 X52.8484 Y4.2042
G01 X52.8468 Y4.2122
G01 X52.8362 Y4.2542
G01 X52.8217 Y4.2951
G01 X52.8186 Y4.3026
G01 X52.7999 Y4.3417
G01 X52.7778 Y4.3789
G01 X52.7732 Y4.3857
G01 X52.7474 Y4.4204
G01 X52.7155 Y4.4555
G01 X47.0150 Y10.1561
G01 X47.0150 Y13.2185
G01 X47.0442 Y13.2326
G01 X47.1319 Y13.2851
G01 X47.2205 Y13.3509
G01 X47.2976 Y13.4209
G01 X47.3663 Y13.4966
G01 X47.3715 Y13.5028
G01 X47.4334 Y13.5867
G01 X47.4869 Y13.6761
G01 X47.5307 Y13.7685
G01 X47.5338 Y13.7760
G01 X47.5682 Y13.8722
G01 X47.5931 Y13.9713
G01 X47.5947 Y13.9793
G01 X47.6096 Y14.0804
G01 X47.6147 Y14.1845
G01 X47.6096 Y14.2927
G01 X47.5947 Y14.3938
G01 X47.5931 Y14.4017
G01 X47.5682 Y14.5008
G01 X47.5338 Y14.5971
G01 X47.5307 Y14.6046
G01 X47.4869 Y14.6969
G01 X47.4345 Y14.7846
G01 X47.4300 Y14.7914
G01 X47.3690 Y14.8734
G01 X47.3004 Y14.9492
G01 X47.2947 Y14.9549
G01 X47.2189 Y15.0235
G01 X47.1336 Y15.0868
G01 X47.0424 Y15.1414
G01 X46.9464 Y15.1869
G01 X46.8463 Y15.2227
G01 X46.7433 Y15.2485
G01 X46.6382 Y15.2641
G01 X46.5320 Y15.2693
G01 X46.4259 Y15.2641
G01 X46.3208 Y15.2485
G01 X46.2177 Y15.2227
G01 X46.1177 Y15.1869
G01 X46.0216 Y15.1414
G01 X45.9305 Y15.0868
G01 X45.8451 Y15.0235
G01 X45.7664 Y14.9521
G01 X45.6950 Y14.8734
G01 X45.6318 Y14.7881
G01 X45.5771 Y14.6969
G01 X45.5317 Y14.6009
G01 X45.4959 Y14.5008
G01 X45.4701 Y14.3978
G01 X45.4545 Y14.2927
G01 X45.4493 Y14.1865
G01 X45.4545 Y14.0804
G01 X45.4701 Y13.9753
G01 X45.4959 Y13.8722
G01 X45.5317 Y13.7722
G01 X45.5771 Y13.6761
G01 X45.6318 Y13.5850
G01 X45.6950 Y13.4996
G01 X45.7664 Y13.4209
G01 X45.8451 Y13.3495
G01 X45.9272 Y13.2886
G01 X45.9339 Y13.2841
G00 Z2.0000
G00 X45.2577 Y13.5372
G01 F30.00
G01 Z-0.0900
G01 F60.00
G01 X45.3750 Y13.3459
G01 X45.5208 Y13.1752
G01 X45.6346 Y13.0780
G01 X45.6402 Y13.0725
G01 X45.6464 Y13.0649
G01 X45.6885 Y13.0005
G01 X45.6940 Y12.9899
G01 X45.6975 Y12.9806
G01 X45.6994 Y12.9729
G01 X45.7054 Y12.9326
G01 X45.7063 Y12.9206
G01 X45.7063 Y10.0374
G01 X45.7045 Y10.0112
G01 X45.7029 Y9.9995
G01 X45.7060 Y9.9399
G01 X45.7063 Y9.9128
G01 X45.7088 Y9.8857
G01 X45.7119 Y9.8261
G01 X45.7144 Y9.8167
G01 X45.7184 Y9.7952
G01 X45.7199 Y9.7834
G01 X45.7408 Y9.7182
G01 X45.7569 Y9.6585
G01 X45.7612 Y9.6498
G01 X45.7696 Y9.6295
G01 X45.7735 Y9.6183
G01 X45.8076 Y9.5589
G01 X45.8357 Y9.5038
G01 X45.8429 Y9.4944
G01 X45.8554 Y9.4763
G01 X45.8603 Y9.4680
G01 X45.9017 Y9.4220
G01 X45.9175 Y9.4027
G01 X45.9365 Y9.3834
G01 X45.9764 Y9.3390
G01 X45.9859 Y9.3318
G01 X46.0057 Y9.3146
G01 X51.4122 Y3.9081
G01 X51.4187 Y3.9007
G01 X51.4253 Y3.8910
G01 X51.4613 Y3.8251
G01 X51.4654 Y3.8157
G01 X51.4687 Y3.8039
G01 X51.4703 Y3.7916
G01 X51.4702 Y3.7814
G01 X51.4650 Y3.7086
G01 X51.4638 Y3.7006
G01 X51.4619 Y3.6928
G01 X51.4600 Y3.6871
G01 X51.4568 Y3.6798
G01 X51.4410 Y3.6497
G01 X51.4367 Y3.6425
G01 X51.3084 Y3.4592
G01 X51.2178 Y3.2649
G01 X51.1623 Y3.0577
G01 X51.1436 Y2.8440
G01 X51.1623 Y2.6304
G01 X51.2178 Y2.4232
G01 X51.3084 Y2.2288
G01 X51.4315 Y2.0531
G01 X51.5831 Y1.9015
G01 X51.7588 Y1.7784
G01 X51.9532 Y1.6878
G01 X52.1604 Y1.6323
G01 X52.3740 Y1.6136
G01 X52.5877 Y1.6323
G01 X52.7949 Y1.6878
G01 X52.9892 Y1.7784
G01 X53.1649 Y1.9015
G01 X53.3166 Y2.0531
G01 X53.4396 Y2.2288
G01 X53.4557 Y2.2632
G01 X53.4585 Y2.2684
G01 X53.4628 Y2.2750
G01 X53.4677 Y2.2812
G01 X53.5189 Y2.3389
G01 X53.5267 Y2.3456
G01 X53.5334 Y2.3503
G01 X53.5406 Y2.3542
G01 X53.5501 Y2.3581
G01 X53.6243 Y2.3793
G01 X53.6364 Y2.3815
G01 X53.6467 Y2.3820
G01 X53.6569 Y2.3811
G01 X53.6670 Y2.3790
G01 X53.7408 Y2.3566
G01 X53.7483 Y2.3535
G01 X53.7554 Y2.3497
G01 X53.7622 Y2.3452
G01 X53.7699 Y2.3387
G01 X53.7755 Y2.3329
G01 X53.8208 Y2.2807
G01 X53.8259 Y2.2741
G01 X53.8323 Y2.2633
G01 X53.8484 Y2.2288
G01 X53.9715 Y2.0531
G01 X54.1231 Y1.9015
G01 X54.2988 Y1.7784
G01 X54.4932 Y1.6878
G01 X54.7004 Y1.6323
G01 X54.9140 Y1.6136
G01 X55.1277 Y1.6323
G01 X55.3349 Y1.6878
G01 X55.5292 Y1.7784
G01 X55.7049 Y1.9015
G01 X55.8566 Y2.0531
G01 X55.9796 Y2.2288
G01 X55.9957 Y2.2632
G01 X55.9985 Y2.2684
G01 X56.0028 Y2.2750
G01 X56.0077 Y2.2812
G01 X56.0589 Y2.3389
G01 X56.0650 Y2.3444
G01 X56.0734 Y2.3503
G01 X56.0825 Y2.3551
G01 X56.0901 Y2.3581
G01 X56.1643 Y2.3793
G01 X56.1764 Y2.3815
G01 X56.1867 Y2.3820
G01 X56.1969 Y2.3811
G01 X56.2070 Y2.3790
G01 X56.2808 Y2.3566
G01 X56.2883 Y2.3535
G01 X56.2954 Y2.3497
G01 X56.3022 Y2.3452
G01 X56.3099 Y2.3387
G01 X56.3155 Y2.3329
G01 X56.3608 Y2.2807
G01 X56.3659 Y2.2741
G01 X56.3723 Y2.2633
G01 X56.3884 Y2.2288
G01 X56.5115 Y2.0531
G01 X56.6631 Y1.9015
G01 X56.8388 Y1.7784
G01 X57.0332 Y1.6878
G01 X57.2404 Y1.6323
G01 X57.4540 Y1.6136
G01 X57.6677 Y1.6323
G01 X57.8749 Y1.6878
G01 X58.0692 Y1.7784
G01 X58.2449 Y1.9015
G01 X58.3966 Y2.0531
G01 X58.5196 Y2.2288
G01 X58.5357 Y2.2632
G01 X58.5395 Y2.2701
G01 X58.5428 Y2.2750
G01 X58.5477 Y2.2812
G01 X58.5989 Y2.3389
G01 X58.6067 Y2.3456
G01 X58.6134 Y2.3503
G01 X58.6206 Y2.3542
G01 X58.6301 Y2.3581
G01 X58.7043 Y2.3793
G01 X58.7164 Y2.3815
G01 X58.7267 Y2.3820
G01 X58.7369 Y2.3811
G01 X58.7470 Y2.3790
G01 X58.8208 Y2.3566
G01 X58.8283 Y2.3535
G01 X58.8354 Y2.3497
G01 X58.8422 Y2.3452
G01 X58.8499 Y2.3387
G01 X58.8555 Y2.3329
G01 X58.9008 Y2.2807
G01 X58.9059 Y2.2741
G01 X58.9123 Y2.2633
G01 X58.9284 Y2.2288
G01 X59.0515 Y2.0531
G01 X59.2031 Y1.9015
G01 X59.3788 Y1.7784
G01 X59.5732 Y1.6878
G01 X59.7804 Y1.6323
G01 X59.9940 Y1.6136
G01 X60.2077 Y1.6323
G01 X60.4149 Y1.6878
G01 X60.6092 Y1.7784
G01 X60.7849 Y1.9015
G01 X60.9366 Y2.0531
G01 X61.0596 Y2.2288
G01 X61.0757 Y2.2632
G01 X61.0795 Y2.2701
G01 X61.0828 Y2.2750
G01 X61.0877 Y2.2812
G01 X61.1346 Y2.3345
G01 X61.1404 Y2.3403
G01 X61.1467 Y2.3456
G01 X61.1552 Y2.3513
G01 X61.1625 Y2.3551
G01 X61.1701 Y2.3581
G01 X61.2443 Y2.3793
G01 X61.2544 Y2.3813
G01 X61.2647 Y2.3820
G01 X61.2749 Y2.3814
G01 X61.2870 Y2.3790
G01 X61.3589 Y2.3573
G01 X61.3683 Y2.3535
G01 X61.3754 Y2.3497
G01 X61.3822 Y2.3452
G01 X61.3884 Y2.3401
G01 X61.3955 Y2.3329
G01 X61.4408 Y2.2807
G01 X61.4459 Y2.2741
G01 X61.4523 Y2.2633
G01 X61.4684 Y2.2288
G01 X61.5915 Y2.0531
G01 X61.7431 Y1.9015
G01 X61.9188 Y1.7784
G01 X62.1132 Y1.6878
G01 X62.3204 Y1.6323
G01 X62.5340 Y1.6136
G01 X62.7477 Y1.6323
G01 X62.9549 Y1.6878
G01 X63.1492 Y1.7784
G01 X63.3249 Y1.9015
G01 X63.4766 Y2.0531
G01 X63.5996 Y2.2288
G01 X63.6157 Y2.2632
G01 X63.6185 Y2.2684
G01 X63.6228 Y2.2750
G01 X63.6277 Y2.2812
G01 X63.6746 Y2.3345
G01 X63.6804 Y2.3403
G01 X63.6867 Y2.3456
G01 X63.6952 Y2.3513
G01 X63.7025 Y2.3551
G01 X63.7101 Y2.3581
G01 X63.7843 Y2.3793
G01 X63.7944 Y2.3813
G01 X63.8047 Y2.3820
G01 X63.8149 Y2.3814
G01 X63.8270 Y2.3790
G01 X63.8989 Y2.3573
G01 X63.9064 Y2.3544
G01 X63.9137 Y2.3507
G01 X63.9222 Y2.3452
G01 X63.9284 Y2.3401
G01 X63.9355 Y2.3329
G01 X63.9808 Y2.2807
G01 X63.9859 Y2.2741
G01 X63.9923 Y2.2633
G01 X64.0084 Y2.2288
G01 X64.1315 Y2.0531
G01 X64.2831 Y1.9015
G01 X64.4588 Y1.7784
G01 X64.6532 Y1.6878
G01 X64.8604 Y1.6323
G01 X65.0740 Y1.6136
G01 X65.2877 Y1.6323
G01 X65.4949 Y1.6878
G01 X65.6892 Y1.7784
G01 X65.8649 Y1.9015
G01 X66.0166 Y2.0531
G01 X66.1396 Y2.2288
G01 X66.1557 Y2.2632
G01 X66.1595 Y2.2701
G01 X66.1628 Y2.2750
G01 X66.1677 Y2.2812
G01 X66.2146 Y2.3345
G01 X66.2204 Y2.3403
G01 X66.2267 Y2.3456
G01 X66.2334 Y2.3503
G01 X66.2425 Y2.3551
G01 X66.2501 Y2.3581
G01 X66.3243 Y2.3793
G01 X66.3344 Y2.3813
G01 X66.3447 Y2.3820
G01 X66.3569 Y2.3811
G01 X66.3670 Y2.3790
G01 X66.4389 Y2.3573
G01 X66.4483 Y2.3535
G01 X66.4554 Y2.3497
G01 X66.4622 Y2.3452
G01 X66.4684 Y2.3401
G01 X66.4755 Y2.3329
G01 X66.5208 Y2.2807
G01 X66.5259 Y2.2741
G01 X66.5323 Y2.2633
G01 X66.5484 Y2.2288
G01 X66.6715 Y2.0531
G01 X66.8231 Y1.9015
G01 X66.9988 Y1.7784
G01 X67.1932 Y1.6878
G01 X67.4004 Y1.6323
G01 X67.6140 Y1.6136
G01 X67.8277 Y1.6323
G01 X68.0349 Y1.6878
G01 X68.2292 Y1.7784
G01 X68.4049 Y1.9015
G01 X68.5566 Y2.0531
G01 X68.6796 Y2.2288
G01 X68.6957 Y2.2632
G01 X68.6985 Y2.2684
G01 X68.7028 Y2.2750
G01 X68.7077 Y2.2812
G01 X68.7546 Y2.3345
G01 X68.7604 Y2.3403
G01 X68.7667 Y2.3456
G01 X68.7734 Y2.3503
G01 X68.7825 Y2.3551
G01 X68.7901 Y2.3581
G01 X68.8643 Y2.3793
G01 X68.8744 Y2.3813
G01 X68.8847 Y2.3820
G01 X68.8949 Y2.3814
G01 X68.9070 Y2.3790
G01 X68.9789 Y2.3573
G01 X68.9883 Y2.3535
G01 X68.9954 Y2.3497
G01 X69.0022 Y2.3452
G01 X69.0084 Y2.3401
G01 X69.0155 Y2.3329
G01 X69.0608 Y2.2807
G01 X69.0659 Y2.2741
G01 X69.0723 Y2.2633
G01 X69.0884 Y2.2288
G01 X69.2115 Y2.0531
G01 X69.3631 Y1.9015
G01 X69.5388 Y1.7784
G01 X69.7332 Y1.6878
G01 X69.9404 Y1.6323
G01 X70.1540 Y1.6136
G01 X70.3677 Y1.6323
G01 X70.5749 Y1.6878
G01 X70.7692 Y1.7784
G01 X70.9449 Y1.9015
G01 X71.0966 Y2.0531
G01 X71.2196 Y2.2288
G01 X71.3103 Y2.4232
G01 X71.3658 Y2.6304
G01 X71.3845 Y2.8440
G01 X71.3658 Y3.0577
G01 X71.3103 Y3.2649
G01 X71.2196 Y3.4592
G01 X71.0966 Y3.6349
G01 X70.9449 Y3.7866
G01 X70.7692 Y3.9096
G01 X70.5749 Y4.0003
G01 X70.3677 Y4.0558
G01 X70.1540 Y4.0745
G01 X69.9404 Y4.0558
G01 X69.7332 Y4.0003
G01 X69.5388 Y3.9096
G01 X69.3631 Y3.7866
G01 X69.2115 Y3.6349
G01 X69.0884 Y3.4592
G01 X69.0724 Y3.4248
G01 X69.0685 Y3.4179
G01 X69.0652 Y3.4130
G01 X69.0603 Y3.4069
G01 X69.0134 Y3.3536
G01 X69.0077 Y3.3477
G01 X69.0014 Y3.3424
G01 X68.9946 Y3.3378
G01 X68.9855 Y3.3330
G01 X68.9779 Y3.3299
G01 X68.9037 Y3.3087
G01 X68.8977 Y3.3074
G01 X68.8896 Y3.3063
G01 X68.8772 Y3.3063
G01 X68.8711 Y3.3069
G01 X68.8630 Y3.3085
G01 X68.7892 Y3.3308
G01 X68.7798 Y3.3345
G01 X68.7726 Y3.3383
G01 X68.7659 Y3.3428
G01 X68.7596 Y3.3479
G01 X68.7525 Y3.3552
G01 X68.7073 Y3.4074
G01 X68.7021 Y3.4140
G01 X68.6957 Y3.4247
G01 X68.6796 Y3.4592
G01 X68.5566 Y3.6349
G01 X68.4049 Y3.7866
G01 X68.2292 Y3.9096
G01 X68.0349 Y4.0003
G01 X67.8277 Y4.0558
G01 X67.6140 Y4.0745
G01 X67.4004 Y4.0558
G01 X67.1932 Y4.0003
G01 X66.9988 Y3.9096
G01 X66.8231 Y3.7866
G01 X66.6715 Y3.6349
G01 X66.5484 Y3.4592
G01 X66.5324 Y3.4248
G01 X66.5296 Y3.4196
G01 X66.5252 Y3.4130
G01 X66.5203 Y3.4069
G01 X66.4734 Y3.3536
G01 X66.4677 Y3.3477
G01 X66.4614 Y3.3424
G01 X66.4546 Y3.3378
G01 X66.4474 Y3.3338
G01 X66.4398 Y3.3306
G01 X66.3657 Y3.3092
G01 X66.3597 Y3.3078
G01 X66.3516 Y3.3065
G01 X66.3393 Y3.3062
G01 X66.3331 Y3.3067
G01 X66.3250 Y3.3080
G01 X66.2511 Y3.3302
G01 X66.2435 Y3.3329
G01 X66.2344 Y3.3373
G01 X66.2275 Y3.3416
G01 X66.2196 Y3.3479
G01 X66.2125 Y3.3552
G01 X66.1673 Y3.4074
G01 X66.1621 Y3.4140
G01 X66.1557 Y3.4247
G01 X66.1396 Y3.4592
G01 X66.0166 Y3.6349
G01 X65.8649 Y3.7866
G01 X65.6892 Y3.9096
G01 X65.4949 Y4.0003
G01 X65.2877 Y4.0558
G01 X65.0740 Y4.0745
G01 X64.8604 Y4.0558
G01 X64.6532 Y4.0003
G01 X64.4588 Y3.9096
G01 X64.2831 Y3.7866
G01 X64.1315 Y3.6349
G01 X64.0084 Y3.4592
G01 X63.9924 Y3.4248
G01 X63.9896 Y3.4196
G01 X63.9852 Y3.4130
G01 X63.9803 Y3.4069
G01 X63.9334 Y3.3536
G01 X63.9277 Y3.3477
G01 X63.9214 Y3.3424
G01 X63.9146 Y3.3378
G01 X63.9074 Y3.3338
G01 X63.8998 Y3.3306
G01 X63.8257 Y3.3092
G01 X63.8177 Y3.3074
G01 X63.8075 Y3.3062
G01 X63.7993 Y3.3062
G01 X63.7891 Y3.3073
G01 X63.7791 Y3.3096
G01 X63.7054 Y3.3321
G01 X63.6998 Y3.3345
G01 X63.6926 Y3.3383
G01 X63.6859 Y3.3428
G01 X63.6796 Y3.3479
G01 X63.6725 Y3.3552
G01 X63.6273 Y3.4074
G01 X63.6221 Y3.4140
G01 X63.6157 Y3.4247
G01 X63.5996 Y3.4592
G01 X63.4766 Y3.6349
G01 X63.3249 Y3.7866
G01 X63.1492 Y3.9096
G01 X62.9549 Y4.0003
G01 X62.7477 Y4.0558
G01 X62.5340 Y4.0745
G01 X62.3204 Y4.0558
G01 X62.1132 Y4.0003
G01 X61.9188 Y3.9096
G01 X61.7431 Y3.7866
G01 X61.5915 Y3.6349
G01 X61.4684 Y3.4592
G01 X61.4524 Y3.4248
G01 X61.4496 Y3.4196
G01 X61.4452 Y3.4130
G01 X61.4403 Y3.4069
G01 X61.3920 Y3.3521
G01 X61.3862 Y3.3463
G01 X61.3797 Y3.3412
G01 X61.3746 Y3.3378
G01 X61.3674 Y3.3338
G01 X61.3618 Y3.3313
G01 X61.3540 Y3.3287
G01 X61.2817 Y3.3082
G01 X61.2716 Y3.3065
G01 X61.2613 Y3.3061
G01 X61.2511 Y3.3069
G01 X61.2411 Y3.3090
G01 X61.1692 Y3.3308
G01 X61.1616 Y3.3337
G01 X61.1562 Y3.3363
G01 X61.1509 Y3.3394
G01 X61.1443 Y3.3440
G01 X61.1396 Y3.3479
G01 X61.1339 Y3.3537
G01 X61.0873 Y3.4074
G01 X61.0821 Y3.4140
G01 X61.0757 Y3.4247
G01 X61.0596 Y3.4592
G01 X60.9366 Y3.6349
G01 X60.8795 Y3.6920
G01 X60.8720 Y3.7011
G01 X60.8668 Y3.7095
G01 X60.8318 Y3.7736
G01 X60.8285 Y3.7810
G01 X60.8253 Y3.7906
G01 X60.8231 Y3.8026
G01 X60.8202 Y3.8294
G01 X60.8198 Y3.8382
G01 X60.8198 Y4.6676
G01 X60.8216 Y4.6938
G01 X60.8232 Y4.7056
G01 X60.8201 Y4.7652
G01 X60.8198 Y4.7923
G01 X60.8172 Y4.8193
G01 X60.8141 Y4.8789
G01 X60.8117 Y4.8883
G01 X60.8077 Y4.9099
G01 X60.8062 Y4.9217
G01 X60.7852 Y4.9868
G01 X60.7692 Y5.0466
G01 X60.7640 Y5.0573
G01 X60.7556 Y5.0775
G01 X60.7525 Y5.0867
G01 X60.7185 Y5.1461
G01 X60.6904 Y5.2012
G01 X60.6831 Y5.2106
G01 X60.6707 Y5.2287
G01 X60.6658 Y5.2371
G01 X60.6244 Y5.2830
G01 X60.6085 Y5.3023
G01 X60.5895 Y5.3217
G01 X60.5496 Y5.3661
G01 X60.5401 Y5.3732
G01 X60.5203 Y5.3905
G01 X55.0389 Y10.8719
G01 X55.0324 Y10.8793
G01 X55.0258 Y10.8891
G01 X54.9898 Y10.9549
G01 X54.9851 Y10.9661
G01 X54.9820 Y10.9779
G01 X54.9782 Y11.0107
G01 X54.9778 Y11.0195
G01 X54.9778 Y12.9206
G01 X54.9781 Y12.9284
G01 X54.9793 Y12.9362
G01 X54.9811 Y12.9439
G01 X55.0023 Y13.0158
G01 X55.0070 Y13.0267
G01 X55.0100 Y13.0319
G01 X55.0144 Y13.0385
G01 X55.0423 Y13.0708
G01 X55.0494 Y13.0780
G01 X55.1633 Y13.1752
G01 X55.3090 Y13.3459
G01 X55.4263 Y13.5372
G01 X55.5122 Y13.7446
G01 X55.5646 Y13.9628
G01 X55.5822 Y14.1865
G01 X55.5646 Y14.4103
G01 X55.5122 Y14.6285
G01 X55.4263 Y14.8358
G01 X55.3841 Y14.9047
G01 X55.3091 Y15.0271
G01 X55.1633 Y15.1978
G01 X54.9926 Y15.3435
G01 X54.8013 Y15.4608
G01 X54.5940 Y15.5467
G01 X54.3758 Y15.5991
G01 X54.1520 Y15.6167
G01 X53.9283 Y15.5991
G01 X53.7101 Y15.5467
G01 X53.5027 Y15.4608
G01 X53.3114 Y15.3436
G01 X53.1407 Y15.1978
G01 X53.0395 Y15.0792
G01 X53.0325 Y15.0723
G01 X53.0247 Y15.0663
G01 X52.9619 Y15.0253
G01 X52.9510 Y15.0196
G01 X52.9413 Y15.0161
G01 X52.9313 Y15.0139
G01 X52.9210 Y15.0130
G01 X52.8440 Y15.0125
G01 X52.8361 Y15.0132
G01 X52.8263 Y15.0151
G01 X52.8168 Y15.0183
G01 X52.8096 Y15.0216
G01 X52.8027 Y15.0255
G01 X52.7415 Y15.0649
G01 X52.7333 Y15.0708
G01 X52.7288 Y15.0749
G01 X52.7233 Y15.0807
G01 X52.6233 Y15.1978
G01 X52.4526 Y15.3435
G01 X52.2613 Y15.4608
G01 X52.0540 Y15.5467
G01 X51.8358 Y15.5991
G01 X51.6120 Y15.6167
G01 X51.3883 Y15.5991
G01 X51.1701 Y15.5467
G01 X50.9627 Y15.4608
G01 X50.7714 Y15.3436
G01 X50.6007 Y15.1978
G01 X50.4995 Y15.0792
G01 X50.4925 Y15.0723
G01 X50.4847 Y15.0663
G01 X50.4219 Y15.0253
G01 X50.4110 Y15.0196
G01 X50.4013 Y15.0161
G01 X50.3913 Y15.0139
G01 X50.3810 Y15.0130
G01 X50.3060 Y15.0124
G01 X50.2961 Y15.0132
G01 X50.2882 Y15.0147
G01 X50.2787 Y15.0175
G01 X50.2696 Y15.0216
G01 X50.2627 Y15.0255
G01 X50.2015 Y15.0649
G01 X50.1933 Y15.0708
G01 X50.1888 Y15.0749
G01 X50.1833 Y15.0807
G01 X50.0833 Y15.1978
G01 X49.9126 Y15.3435
G01 X49.7213 Y15.4608
G01 X49.5140 Y15.5467
G01 X49.2958 Y15.5991
G01 X49.0720 Y15.6167
G01 X48.8483 Y15.5991
G01 X48.6301 Y15.5467
G01 X48.4227 Y15.4608
G01 X48.2314 Y15.3436
G01 X48.0607 Y15.1978
G01 X47.9595 Y15.0792
G01 X47.9525 Y15.0723
G01 X47.9447 Y15.0663
G01 X47.8819 Y15.0253
G01 X47.8710 Y15.0196
G01 X47.8613 Y15.0161
G01 X47.8513 Y15.0139
G01 X47.8410 Y15.0130
G01 X47.7660 Y15.0124
G01 X47.7580 Y15.0129
G01 X47.7482 Y15.0147
G01 X47.7387 Y15.0175
G01 X47.7296 Y15.0216
G01 X47.7227 Y15.0255
G01 X47.6615 Y15.0649
G01 X47.6533 Y15.0708
G01 X47.6474 Y15.0763
G01 X47.6433 Y15.0807
G01 X47.5433 Y15.1978
G01 X47.3726 Y15.3435
G01 X47.1813 Y15.4608
G01 X46.9740 Y15.5467
G01 X46.7558 Y15.5991
G01 X46.5320 Y15.6167
G01 X46.3083 Y15.5991
G01 X46.0901 Y15.5467
G01 X45.8827 Y15.4608
G01 X45.6914 Y15.3436
G01 X45.5207 Y15.1978
G01 X45.3750 Y15.0271
G01 X45.2577 Y14.8358
G01 X45.1719 Y14.6285
G01 X45.1195 Y14.4103
G01 X45.1019 Y14.1865
G01 X45.1195 Y13.9628
G01 X45.1719 Y13.7446
G01 X45.2577 Y13.5372
G00 Z2.0000
G00 X48.5581 Y13.2336
G01 F30.00
G01 Z-0.0900
G01 F60.00
G01 X48.5652 Y13.2298
G01 X48.5891 Y13.2185
G01 X48.5891 Y9.9540
G01 X48.5914 Y9.9087
G01 X48.5977 Y9.8658
G01 X48.5992 Y9.8578
G01 X48.6099 Y9.8158
G01 X48.6244 Y9.7750
G01 X48.6275 Y9.7675
G01 X48.6461 Y9.7284
G01 X48.6683 Y9.6911
G01 X48.6728 Y9.6844
G01 X48.6987 Y9.6496
G01 X48.7305 Y9.6145
G01 X54.4311 Y3.9140
G01 X54.4311 Y3.5826
G01 X54.4203 Y3.5757
G01 X54.3540 Y3.5264
G01 X54.2898 Y3.4682
G01 X54.2317 Y3.4040
G01 X54.1824 Y3.3378
G01 X54.1779 Y3.3310
G01 X54.1355 Y3.2602
G01 X54.1001 Y3.1856
G01 X54.0970 Y3.1780
G01 X54.0706 Y3.1041
G01 X54.0682 Y3.0964
G01 X54.0482 Y3.0162
G01 X54.0357 Y2.9326
G01 X54.0313 Y2.8440
G01 X54.0355 Y2.7575
G01 X54.0482 Y2.6718
G01 X54.0693 Y2.5878
G01 X54.0985 Y2.5062
G01 X54.1355 Y2.4279
G01 X54.1800 Y2.3536
G01 X54.2292 Y2.2872
G01 X54.2343 Y2.2809
G01 X54.2898 Y2.2198
G01 X54.3540 Y2.1617
G01 X54.4236 Y2.1100
G01 X54.4979 Y2.0655
G01 X54.5762 Y2.0285
G01 X54.6578 Y1.9993
G01 X54.7418 Y1.9782
G01 X54.8235 Y1.9660
G01 X54.8316 Y1.9652
G01 X54.9140 Y1.9613
G01 X54.9965 Y1.9652
G01 X55.0046 Y1.9660
G01 X55.0822 Y1.9775
G01 X55.0902 Y1.9791
G01 X55.1703 Y1.9993
G01 X55.2518 Y2.0285
G01 X55.3302 Y2.0655
G01 X55.4010 Y2.1079
G01 X55.4078 Y2.1124
G01 X55.4740 Y2.1617
G01 X55.5353 Y2.2170
G01 X55.5410 Y2.2228
G01 X55.5964 Y2.2840
G01 X55.6457 Y2.3503
G01 X55.6502 Y2.3570
G01 X55.6925 Y2.4279
G01 X55.7279 Y2.5025
G01 X55.7310 Y2.5100
G01 X55.7588 Y2.5878
G01 X55.7789 Y2.6678
G01 X55.7805 Y2.6758
G01 X55.7925 Y2.7575
G01 X55.7967 Y2.8400
G01 X55.7967 Y2.8481
G01 X55.7928 Y2.9265
G01 X55.7920 Y2.9346
G01 X55.7798 Y3.0162
G01 X55.7598 Y3.0964
G01 X55.7575 Y3.1041
G01 X55.7296 Y3.1818
G01 X55.6925 Y3.2602
G01 X55.6502 Y3.3310
G01 X55.6457 Y3.3378
G01 X55.5964 Y3.4040
G01 X55.5410 Y3.4653
G01 X55.5353 Y3.4710
G01 X55.4740 Y3.5264
G01 X55.4078 Y3.5757
G01 X55.3970 Y3.5826
G01 X55.3970 Y4.1140
G01 X55.3946 Y4.1614
G01 X55.3884 Y4.2042
G01 X55.3868 Y4.2122
G01 X55.3762 Y4.2542
G01 X55.3617 Y4.2951
G01 X55.3586 Y4.3026
G01 X55.3399 Y4.3417
G01 X55.3178 Y4.3789
G01 X55.3132 Y4.3857
G01 X55.2874 Y4.4204
G01 X55.2555 Y4.4555
G01 X49.5550 Y10.1561
G01 X49.5550 Y13.2185
G01 X49.5842 Y13.2326
G01 X49.6719 Y13.2851
G01 X49.7605 Y13.3509
G01 X49.8376 Y13.4209
G01 X49.9063 Y13.4966
G01 X49.9115 Y13.5028
G01 X49.9734 Y13.5867
G01 X50.0269 Y13.6761
G01 X50.0707 Y13.7685
G01 X50.0738 Y13.7760
G01 X50.1082 Y13.8722
G01 X50.1340 Y13.9753
G01 X50.1491 Y14.0764
G01 X50.1499 Y14.0844
G01 X50.1548 Y14.1865
G01 X50.1496 Y14.2927
G01 X50.1347 Y14.3938
G01 X50.1331 Y14.4017
G01 X50.1082 Y14.5008
G01 X50.0738 Y14.5971
G01 X50.0707 Y14.6046
G01 X50.0269 Y14.6969
G01 X49.9745 Y14.7846
G01 X49.9700 Y14.7914
G01 X49.9090 Y14.8734
G01 X49.8404 Y14.9492
G01 X49.8347 Y14.9549
G01 X49.7589 Y15.0235
G01 X49.6769 Y15.0845
G01 X49.6701 Y15.0890
G01 X49.5824 Y15.1414
G01 X49.4864 Y15.1869
G01 X49.3863 Y15.2227
G01 X49.2833 Y15.2485
G01 X49.1782 Y15.2641
G01 X49.0720 Y15.2693
G01 X48.9659 Y15.2641
G01 X48.8608 Y15.2485
G01 X48.7577 Y15.2227
G01 X48.6577 Y15.1869
G01 X48.5616 Y15.1414
G01 X48.4705 Y15.0868
G01 X48.3851 Y15.0235
G01 X48.3064 Y14.9521
G01 X48.2350 Y14.8734
G01 X48.1718 Y14.7881
G01 X48.1171 Y14.6969
G01 X48.0717 Y14.6009
G01 X48.0359 Y14.5008
G01 X48.0101 Y14.3978
G01 X47.9945 Y14.2927
G01 X47.9893 Y14.1865
G01 X47.9945 Y14.0804
G01 X48.0101 Y13.9753
G01 X48.0359 Y13.8722
G01 X48.0717 Y13.7722
G01 X48.1171 Y13.6761
G01 X48.1718 Y13.5850
G01 X48.2350 Y13.4996
G01 X48.3064 Y13.4209
G01 X48.3851 Y13.3495
G01 X48.4705 Y13.2863
G01 X48.5581 Y13.2336
G00 Z2.0000
G00 X51.0139 Y13.2841
G01 F30.00
G01 Z-0.0900
G01 F60.00
G01 X51.0998 Y13.2326
G01 X51.1291 Y13.2185
G01 X51.1291 Y9.9540
G01 X51.1314 Y9.9087
G01 X51.1377 Y9.8658
G01 X51.1392 Y9.8578
G01 X51.1499 Y9.8158
G01 X51.1644 Y9.7750
G01 X51.1675 Y9.7675
G01 X51.1861 Y9.7284
G01 X51.2094 Y9.6894
G01 X51.2387 Y9.6496
G01 X51.2705 Y9.6145
G01 X56.9711 Y3.9140
G01 X56.9711 Y3.5826
G01 X56.9603 Y3.5757
G01 X56.8940 Y3.5264
G01 X56.8298 Y3.4682
G01 X56.7717 Y3.4040
G01 X56.7224 Y3.3378
G01 X56.7179 Y3.3310
G01 X56.6755 Y3.2602
G01 X56.6401 Y3.1856
G01 X56.6370 Y3.1780
G01 X56.6106 Y3.1041
G01 X56.6082 Y3.0964
G01 X56.5882 Y3.0162
G01 X56.5757 Y2.9326
G01 X56.5713 Y2.8440
G01 X56.5755 Y2.7575
G01 X56.5882 Y2.6718
G01 X56.6093 Y2.5878
G01 X56.6385 Y2.5062
G01 X56.6755 Y2.4279
G01 X56.7200 Y2.3536
G01 X56.7692 Y2.2872
G01 X56.7743 Y2.2809
G01 X56.8298 Y2.2198
G01 X56.8940 Y2.1617
G01 X56.9636 Y2.1100
G01 X57.0379 Y2.0655
G01 X57.1162 Y2.0285
G01 X57.1978 Y1.9993
G01 X57.2818 Y1.9782
G01 X57.3635 Y1.9660
G01 X57.3716 Y1.9652
G01 X57.4540 Y1.9613
G01 X57.5365 Y1.9652
G01 X57.5446 Y1.9660
G01 X57.6222 Y1.9775
G01 X57.6302 Y1.9791
G01 X57.7103 Y1.9993
G01 X57.7918 Y2.0285
G01 X57.8702 Y2.0655
G01 X57.9428 Y2.1089
G01 X58.0140 Y2.1617
G01 X58.0753 Y2.2170
G01 X58.0810 Y2.2228
G01 X58.1364 Y2.2840
G01 X58.1857 Y2.3503
G01 X58.1902 Y2.3570
G01 X58.2325 Y2.4279
G01 X58.2679 Y2.5025
G01 X58.2710 Y2.5100
G01 X58.2988 Y2.5878
G01 X58.3189 Y2.6678
G01 X58.3205 Y2.6758
G01 X58.3325 Y2.7575
G01 X58.3367 Y2.8400
G01 X58.3367 Y2.8481
G01 X58.3328 Y2.9265
G01 X58.3320 Y2.9346
G01 X58.3198 Y3.0162
G01 X58.2998 Y3.0964
G01 X58.2975 Y3.1041
G01 X58.2696 Y3.1818
G01 X58.2325 Y3.2602
G01 X58.1902 Y3.3310
G01 X58.1857 Y3.3378
G01 X58.1364 Y3.4040
G01 X58.0810 Y3.4653
G01 X58.0753 Y3.4710
G01 X58.0140 Y3.5264
G01 X57.9478 Y3.5757
G01 X57.9370 Y3.5826
G01 X57.9370 Y4.1140
G01 X57.9346 Y4.1614
G01 X57.9284 Y4.2042
G01 X57.9268 Y4.2122
G01 X57.9162 Y4.2542
G01 X57.9017 Y4.2951
G01 X57.8986 Y4.3026
G01 X57.8799 Y4.3417
G01 X57.8578 Y4.3789
G01 X57.8532 Y4.3857
G01 X57.8274 Y4.4204
G01 X57.7955 Y4.4555
G01 X52.0950 Y10.1561
G01 X52.0950 Y13.2185
G01 X52.1242 Y13.2326
G01 X52.2119 Y13.2851
G01 X52.3005 Y13.3509
G01 X52.3776 Y13.4209
G01 X52.4463 Y13.4966
G01 X52.4515 Y13.5028
G01 X52.5134 Y13.5867
G01 X52.5669 Y13.6761
G01 X52.6107 Y13.7685
G01 X52.6138 Y13.7760
G01 X52.6482 Y13.8722
G01 X52.6731 Y13.9713
G01 X52.6747 Y13.9793
G01 X52.6896 Y14.0804
G01 X52.6947 Y14.1845
G01 X52.6896 Y14.2927
G01 X52.6747 Y14.3938
G01 X52.6731 Y14.4017
G01 X52.6482 Y14.5008
G01 X52.6138 Y14.5971
G01 X52.6107 Y14.6046
G01 X52.5669 Y14.6969
G01 X52.5145 Y14.7846
G01 X52.5100 Y14.7914
G01 X52.4490 Y14.8734
G01 X52.3804 Y14.9492
G01 X52.3747 Y14.9549
G01 X52.2989 Y15.0235
G01 X52.2136 Y15.0868
G01 X52.1224 Y15.1414
G01 X52.0264 Y15.1869
G01 X51.9263 Y15.2227
G01 X51.8233 Y15.2485
G01 X51.7182 Y15.2641
G01 X51.6120 Y15.2693
G01 X51.5059 Y15.2641
G01 X51.4008 Y15.2485
G01 X51.2977 Y15.2227
G01 X51.1977 Y15.1869
G01 X51.1016 Y15.1414
G01 X51.0105 Y15.0868
G01 X50.9251 Y15.0235
G01 X50.8464 Y14.9521
G01 X50.7750 Y14.8734
G01 X50.7118 Y14.7881
G01 X50.6571 Y14.6969
G01 X50.6117 Y14.6009
G01 X50.5759 Y14.5008
G01 X50.5501 Y14.3978
G01 X50.5345 Y14.2927
G01 X50.5293 Y14.1865
G01 X50.5345 Y14.0804
G01 X50.5501 Y13.9753
G01 X50.5759 Y13.8722
G01 X50.6117 Y13.7722
G01 X50.6571 Y13.6761
G01 X50.7118 Y13.5850
G01 X50.7750 Y13.4996
G01 X50.8464 Y13.4209
G01 X50.9251 Y13.3495
G01 X51.0072 Y13.2886
G01 X51.0139 Y13.2841
G00 Z2.0000
G00 X53.5539 Y13.2841
G01 F30.00
G01 Z-0.0900
G01 F60.00
G01 X53.6398 Y13.2326
G01 X53.6691 Y13.2185
G01 X53.6691 Y10.5890
G01 X53.6714 Y10.5437
G01 X53.6777 Y10.5008
G01 X53.6792 Y10.4928
G01 X53.6899 Y10.4508
G01 X53.7044 Y10.4100
G01 X53.7075 Y10.4025
G01 X53.7261 Y10.3634
G01 X53.7494 Y10.3244
G01 X53.7787 Y10.2846
G01 X53.8105 Y10.2495
G01 X59.5111 Y4.5490
G01 X59.5111 Y3.5826
G01 X59.5003 Y3.5757
G01 X59.4372 Y3.5289
G01 X59.4309 Y3.5237
G01 X59.3698 Y3.4682
G01 X59.3143 Y3.4071
G01 X59.3092 Y3.4008
G01 X59.2600 Y3.3345
G01 X59.2155 Y3.2602
G01 X59.1785 Y3.1818
G01 X59.1493 Y3.1003
G01 X59.1282 Y3.0162
G01 X59.1160 Y2.9346
G01 X59.1152 Y2.9265
G01 X59.1114 Y2.8481
G01 X59.1114 Y2.8400
G01 X59.1155 Y2.7575
G01 X59.1282 Y2.6718
G01 X59.1493 Y2.5878
G01 X59.1777 Y2.5081
G01 X59.2155 Y2.4279
G01 X59.2600 Y2.3536
G01 X59.3117 Y2.2840
G01 X59.3670 Y2.2228
G01 X59.3728 Y2.2170
G01 X59.4309 Y2.1643
G01 X59.4372 Y2.1592
G01 X59.5036 Y2.1100
G01 X59.5744 Y2.0675
G01 X59.5815 Y2.0637
G01 X59.6562 Y2.0285
G01 X59.7378 Y1.9993
G01 X59.8218 Y1.9782
G01 X59.9075 Y1.9655
G01 X59.9940 Y1.9613
G01 X60.0765 Y1.9652
G01 X60.0846 Y1.9660
G01 X60.1662 Y1.9782
G01 X60.2464 Y1.9982
G01 X60.2541 Y2.0006
G01 X60.3280 Y2.0270
G01 X60.3356 Y2.0301
G01 X60.4102 Y2.0655
G01 X60.4828 Y2.1089
G01 X60.5540 Y2.1617
G01 X60.6153 Y2.2170
G01 X60.6210 Y2.2228
G01 X60.6764 Y2.2840
G01 X60.7257 Y2.3503
G01 X60.7302 Y2.3570
G01 X60.7725 Y2.4279
G01 X60.8079 Y2.5025
G01 X60.8110 Y2.5100
G01 X60.8388 Y2.5878
G01 X60.8589 Y2.6678
G01 X60.8605 Y2.6758
G01 X60.8725 Y2.7575
G01 X60.8767 Y2.8461
G01 X60.8728 Y2.9265
G01 X60.8720 Y2.9346
G01 X60.8598 Y3.0162
G01 X60.8398 Y3.0964
G01 X60.8375 Y3.1041
G01 X60.8096 Y3.1818
G01 X60.7725 Y3.2602
G01 X60.7302 Y3.3310
G01 X60.7257 Y3.3378
G01 X60.6764 Y3.4040
G01 X60.6210 Y3.4653
G01 X60.6153 Y3.4710
G01 X60.5540 Y3.5264
G01 X60.4878 Y3.5757
G01 X60.4770 Y3.5826
G01 X60.4770 Y4.7490
G01 X60.4749 Y4.7923
G01 X60.4742 Y4.8004
G01 X60.4677 Y4.8432
G01 X60.4573 Y4.8853
G01 X60.4549 Y4.8931
G01 X60.4402 Y4.9338
G01 X60.4218 Y4.9731
G01 X60.4179 Y4.9802
G01 X60.3956 Y5.0173
G01 X60.3674 Y5.0554
G01 X60.3355 Y5.0905
G01 X54.6350 Y10.7911
G01 X54.6350 Y13.2185
G01 X54.6642 Y13.2326
G01 X54.7519 Y13.2851
G01 X54.8405 Y13.3509
G01 X54.9176 Y13.4209
G01 X54.9863 Y13.4966
G01 X54.9915 Y13.5028
G01 X55.0534 Y13.5867
G01 X55.1069 Y13.6761
G01 X55.1507 Y13.7685
G01 X55.1538 Y13.7760
G01 X55.1882 Y13.8722
G01 X55.2131 Y13.9713
G01 X55.2147 Y13.9793
G01 X55.2296 Y14.0804
G01 X55.2347 Y14.1845
G01 X55.2296 Y14.2927
G01 X55.2147 Y14.3938
G01 X55.2131 Y14.4017
G01 X55.1882 Y14.5008
G01 X55.1538 Y14.5971
G01 X55.1507 Y14.6046
G01 X55.1069 Y14.6969
G01 X55.0545 Y14.7846
G01 X55.0500 Y14.7914
G01 X54.9890 Y14.8734
G01 X54.9204 Y14.9492
G01 X54.9147 Y14.9549
G01 X54.8389 Y15.0235
G01 X54.7536 Y15.0868
G01 X54.6624 Y15.1414
G01 X54.5664 Y15.1869
G01 X54.4663 Y15.2227
G01 X54.3633 Y15.2485
G01 X54.2582 Y15.2641
G01 X54.1520 Y15.2693
G01 X54.0459 Y15.2641
G01 X53.9408 Y15.2485
G01 X53.8377 Y15.2227
G01 X53.7377 Y15.1869
G01 X53.6416 Y15.1414
G01 X53.5505 Y15.0868
G01 X53.4651 Y15.0235
G01 X53.3864 Y14.9521
G01 X53.3150 Y14.8734
G01 X53.2518 Y14.7881
G01 X53.1971 Y14.6969
G01 X53.1517 Y14.6009
G01 X53.1159 Y14.5008
G01 X53.0901 Y14.3978
G01 X53.0745 Y14.2927
G01 X53.0693 Y14.1865
G01 X53.0745 Y14.0804
G01 X53.0901 Y13.9753
G01 X53.1159 Y13.8722
G01 X53.1517 Y13.7722
G01 X53.1971 Y13.6761
G01 X53.2518 Y13.5850
G01 X53.3150 Y13.4996
G01 X53.3864 Y13.4209
G01 X53.4651 Y13.3495
G01 X53.5472 Y13.2886
G01 X53.5539 Y13.2841
G00 Z2.0000
G00 X58.3875 Y12.9146
G01 F30.00
G01 Z-0.0900
G01 F60.00
G01 X58.3885 Y12.9227
G01 X58.3898 Y12.9286
G01 X58.3921 Y12.9364
G01 X58.3944 Y12.9421
G01 X58.3980 Y12.9493
G01 X58.4012 Y12.9545
G01 X58.4061 Y12.9610
G01 X58.4101 Y12.9656
G01 X58.4160 Y12.9712
G01 X58.4207 Y12.9750
G01 X58.4310 Y12.9815
G01 X58.4365 Y12.9842
G01 X58.4441 Y12.9871
G01 X58.4499 Y12.9888
G01 X58.4579 Y12.9904
G01 X58.4700 Y12.9913
G01 X58.8953 Y12.9913
G01 X58.8953 Y13.3338
G01 X58.4276 Y13.3338
G01 X58.3818 Y13.3289
G01 X58.3766 Y13.3277
G01 X58.2665 Y13.2864
G01 X58.2613 Y13.2836
G01 X58.1686 Y13.2141
G01 X58.1644 Y13.2099
G01 X58.0950 Y13.1173
G01 X58.0921 Y13.1120
G01 X58.0509 Y13.0019
G01 X58.0496 Y12.9968
G01 X58.0448 Y12.9510
G01 X58.0448 Y11.9833
G01 X58.3873 Y11.9833
G01 X58.3875 Y12.9146
G00 Z2.0000
G00 X60.0001 Y12.9911
G01 F30.00
G01 Z-0.0900
G01 F60.00
G01 X60.0082 Y12.9901
G01 X60.0141 Y12.9888
G01 X60.0219 Y12.9864
G01 X60.0294 Y12.9833
G01 X60.0348 Y12.9805
G01 X60.0417 Y12.9762
G01 X60.0465 Y12.9725
G01 X60.0525 Y12.9670
G01 X60.0580 Y12.9610
G01 X60.0617 Y12.9562
G01 X60.0660 Y12.9493
G01 X60.0688 Y12.9439
G01 X60.0719 Y12.9364
G01 X60.0738 Y12.9306
G01 X60.0756 Y12.9227
G01 X60.0766 Y12.9146
G01 X60.0768 Y11.9833
G01 X60.4193 Y11.9833
G01 X60.4193 Y12.9510
G01 X60.4144 Y12.9968
G01 X60.4132 Y13.0019
G01 X60.3719 Y13.1120
G01 X60.3691 Y13.1173
G01 X60.2996 Y13.2099
G01 X60.2954 Y13.2141
G01 X60.2028 Y13.2836
G01 X60.1975 Y13.2864
G01 X60.0874 Y13.3277
G01 X60.0823 Y13.3289
G01 X60.0365 Y13.3338
G01 X59.5688 Y13.3338
G01 X59.5688 Y12.9913
G01 X60.0001 Y12.9911
G00 Z2.0000
G00 X60.0874 Y9.9654
G01 F30.00
G01 Z-0.0900
G01 F60.00
G01 X60.1975 Y10.0066
G01 X60.2028 Y10.0095
G01 X60.2954 Y10.0789
G01 X60.2996 Y10.0831
G01 X60.3691 Y10.1758
G01 X60.3719 Y10.1810
G01 X60.4132 Y10.2911
G01 X60.4144 Y10.2963
G01 X60.4193 Y10.3421
G01 X60.4193 Y11.3098
G01 X60.0768 Y11.3098
G01 X60.0767 Y10.3825
G01 X60.0762 Y10.3744
G01 X60.0752 Y10.3684
G01 X60.0738 Y10.3625
G01 X60.0712 Y10.3547
G01 X60.0679 Y10.3473
G01 X60.0650 Y10.3420
G01 X60.0617 Y10.3369
G01 X60.0567 Y10.3305
G01 X60.0511 Y10.3246
G01 X60.0449 Y10.3193
G01 X60.0383 Y10.3146
G01 X60.0312 Y10.3106
G01 X60.0219 Y10.3066
G01 X60.0141 Y10.3043
G01 X60.0062 Y10.3027
G01 X59.9981 Y10.3019
G01 X59.5688 Y10.3018
G01 X59.5688 Y9.9593
G01 X60.0365 Y9.9593
G01 X60.0823 Y9.9641
G01 X60.0874 Y9.9654
G00 Z2.0000
G00 X61.4262 Y8.9112
G01 F30.00
G01 Z-0.0900
G01 F60.00
G01 X61.4235 Y8.8955
G01 X61.3868 Y8.8779
G01 X61.2992 Y8.8254
G01 X61.2121 Y8.7610
G01 X61.1334 Y8.6896
G01 X61.0620 Y8.6109
G01 X60.9988 Y8.5256
G01 X60.9441 Y8.4344
G01 X60.8987 Y8.3384
G01 X60.8635 Y8.2403
G01 X60.8371 Y8.1353
G01 X60.8215 Y8.0302
G01 X60.8163 Y7.9240
G01 X60.8215 Y7.8179
G01 X60.8371 Y7.7128
G01 X60.8629 Y7.6097
G01 X60.8987 Y7.5097
G01 X60.9432 Y7.4154
G01 X60.9988 Y7.3225
G01 X61.0620 Y7.2371
G01 X61.1334 Y7.1584
G01 X61.2121 Y7.0870
G01 X61.2975 Y7.0238
G01 X61.3886 Y6.9691
G01 X61.4847 Y6.9237
G01 X61.5847 Y6.8879
G01 X61.6878 Y6.8621
G01 X61.7929 Y6.8465
G01 X61.8990 Y6.8413
G01 X62.0052 Y6.8465
G01 X62.1103 Y6.8621
G01 X62.2133 Y6.8879
G01 X62.3134 Y6.9237
G01 X62.4076 Y6.9682
G01 X62.5006 Y7.0238
G01 X62.5827 Y7.0845
G01 X62.5890 Y7.0897
G01 X62.6646 Y7.1584
G01 X62.7333 Y7.2341
G01 X62.7385 Y7.2403
G01 X62.7993 Y7.3225
G01 X62.8539 Y7.4136
G01 X62.8977 Y7.5060
G01 X62.9008 Y7.5135
G01 X62.9352 Y7.6097
G01 X62.9601 Y7.7088
G01 X62.9617 Y7.7168
G01 X62.9763 Y7.8159
G01 X62.9818 Y7.9240
G01 X62.9769 Y8.0261
G01 X62.9761 Y8.0342
G01 X62.9610 Y8.1353
G01 X62.9362 Y8.2344
G01 X62.9339 Y8.2422
G01 X62.8986 Y8.3402
G01 X62.8539 Y8.4344
G01 X62.8015 Y8.5221
G01 X62.7970 Y8.5289
G01 X62.7373 Y8.6093
G01 X62.6632 Y8.6911
G01 X62.5875 Y8.7597
G01 X62.5539 Y8.7849
G01 X62.7485 Y8.9795
G01 X62.7777 Y9.0116
G01 X62.7828 Y9.0178
G01 X62.8086 Y9.0527
G01 X62.8309 Y9.0898
G01 X62.8348 Y9.0970
G01 X62.8516 Y9.1325
G01 X62.8547 Y9.1400
G01 X62.8692 Y9.1808
G01 X62.8803 Y9.2248
G01 X62.8876 Y9.2737
G01 X62.8900 Y9.3210
G01 X62.8900 Y10.3018
G01 X63.1690 Y10.3018
G01 X63.1771 Y10.3022
G01 X63.1852 Y10.3034
G01 X63.1969 Y10.3066
G01 X63.2080 Y10.3115
G01 X63.2183 Y10.3181
G01 X63.2231 Y10.3219
G01 X63.2290 Y10.3275
G01 X63.2343 Y10.3336
G01 X63.2378 Y10.3386
G01 X63.2438 Y10.3491
G01 X63.2482 Y10.3605
G01 X63.2509 Y10.3724
G01 X63.2518 Y10.3845
G01 X63.2517 Y12.9106
G01 X63.2509 Y12.9207
G01 X63.2482 Y12.9325
G01 X63.2438 Y12.9439
G01 X63.2378 Y12.9545
G01 X63.2303 Y12.9641
G01 X63.2231 Y12.9712
G01 X63.2133 Y12.9784
G01 X63.2026 Y12.9842
G01 X63.1950 Y12.9871
G01 X63.1872 Y12.9893
G01 X63.1792 Y12.9907
G01 X63.1690 Y12.9913
G01 X61.6430 Y12.9912
G01 X61.6329 Y12.9904
G01 X61.6210 Y12.9877
G01 X61.6096 Y12.9833
G01 X61.5991 Y12.9773
G01 X61.5895 Y12.9698
G01 X61.5811 Y12.9610
G01 X61.5740 Y12.9511
G01 X61.5694 Y12.9421
G01 X61.5658 Y12.9325
G01 X61.5639 Y12.9247
G01 X61.5627 Y12.9166
G01 X61.5623 Y12.9085
G01 X61.5623 Y10.3845
G01 X61.5627 Y10.3764
G01 X61.5639 Y10.3684
G01 X61.5653 Y10.3625
G01 X61.5694 Y10.3510
G01 X61.5730 Y10.3437
G01 X61.5762 Y10.3386
G01 X61.5837 Y10.3290
G01 X61.5895 Y10.3232
G01 X61.5941 Y10.3193
G01 X61.6042 Y10.3125
G01 X61.6152 Y10.3073
G01 X61.6230 Y10.3048
G01 X61.6289 Y10.3034
G01 X61.6369 Y10.3022
G01 X61.6450 Y10.3018
G01 X61.9241 Y10.3018
G01 X61.9241 Y9.5211
G01 X61.5575 Y9.1545
G01 X61.5257 Y9.1194
G01 X61.4975 Y9.0813
G01 X61.4751 Y9.0442
G01 X61.4713 Y9.0371
G01 X61.4545 Y9.0016
G01 X61.4514 Y8.9941
G01 X61.4369 Y8.9532
G01 X61.4262 Y8.9112
G00 Z2.0000
G00 X58.0921 Y10.1810
G01 F30.00
G01 Z-0.0900
G01 F60.00
G01 X58.0950 Y10.1758
G01 X58.1644 Y10.0831
G01 X58.1686 Y10.0789
G01 X58.2613 Y10.0095
G01 X58.2665 Y10.0066
G01 X58.3766 Y9.9654
G01 X58.3818 Y9.9641
G01 X58.4276 Y9.9593
G01 X58.8953 Y9.9593
G01 X58.8953 Y10.3018
G01 X58.4700 Y10.3018
G01 X58.4619 Y10.3022
G01 X58.4499 Y10.3043
G01 X58.4384 Y10.3081
G01 X58.4275 Y10.3135
G01 X58.4191 Y10.3193
G01 X58.4101 Y10.3275
G01 X58.4036 Y10.3352
G01 X58.3980 Y10.3437
G01 X58.3928 Y10.3547
G01 X58.3903 Y10.3625
G01 X58.3889 Y10.3684
G01 X58.3877 Y10.3764
G01 X58.3873 Y10.3845
G01 X58.3873 Y11.3098
G01 X58.0448 Y11.3098
G01 X58.0448 Y10.3421
G01 X58.0496 Y10.2963
G01 X58.0509 Y10.2911
G01 X58.0921 Y10.1810
G00 Z2.0000
G00 X62.4516 Y1.9652
G01 F30.00
G01 Z-0.0900
G01 F60.00
G01 X62.5340 Y1.9613
G01 X62.6205 Y1.9655
G01 X62.7062 Y1.9782
G01 X62.7903 Y1.9993
G01 X62.8718 Y2.0285
G01 X62.9502 Y2.0655
G01 X63.0245 Y2.1100
G01 X63.0940 Y2.1617
G01 X63.1582 Y2.2198
G01 X63.2164 Y2.2840
G01 X63.2680 Y2.3536
G01 X63.3125 Y2.4279
G01 X63.3496 Y2.5062
G01 X63.3788 Y2.5878
G01 X63.3998 Y2.6718
G01 X63.4125 Y2.7575
G01 X63.4168 Y2.8440
G01 X63.4125 Y2.9305
G01 X63.3998 Y3.0162
G01 X63.3788 Y3.1003
G01 X63.3496 Y3.1818
G01 X63.3125 Y3.2602
G01 X63.2680 Y3.3345
G01 X63.2164 Y3.4040
G01 X63.1582 Y3.4682
G01 X63.0940 Y3.5264
G01 X63.0245 Y3.5780
G01 X62.9502 Y3.6225
G01 X62.8718 Y3.6596
G01 X62.7903 Y3.6888
G01 X62.7062 Y3.7098
G01 X62.6205 Y3.7225
G01 X62.5340 Y3.7268
G01 X62.4475 Y3.7225
G01 X62.3618 Y3.7098
G01 X62.2778 Y3.6888
G01 X62.1962 Y3.6596
G01 X62.1179 Y3.6225
G01 X62.0436 Y3.5780
G01 X61.9740 Y3.5264
G01 X61.9098 Y3.4682
G01 X61.8517 Y3.4040
G01 X61.8000 Y3.3345
G01 X61.7555 Y3.2602
G01 X61.7185 Y3.1818
G01 X61.6893 Y3.1003
G01 X61.6682 Y3.0162
G01 X61.6555 Y2.9305
G01 X61.6513 Y2.8440
G01 X61.6555 Y2.7575
G01 X61.6682 Y2.6718
G01 X61.6893 Y2.5878
G01 X61.7185 Y2.5062
G01 X61.7555 Y2.4279
G01 X61.8000 Y2.3536
G01 X61.8517 Y2.2840
G01 X61.9098 Y2.2198
G01 X61.9740 Y2.1617
G01 X62.0436 Y2.1100
G01 X62.1179 Y2.0655
G01 X62.1962 Y2.0285
G01 X62.2778 Y1.9993
G01 X62.3618 Y1.9782
G01 X62.4435 Y1.9660
G01 X62.4516 Y1.9652
G00 Z2.0000
G00 X64.9895 Y1.9654
G01 F30.00
G01 Z-0.0900
G01 F60.00
G01 X65.0740 Y1.9613
G01 X65.1605 Y1.9655
G01 X65.2462 Y1.9782
G01 X65.3303 Y1.9993
G01 X65.4118 Y2.0285
G01 X65.4902 Y2.0655
G01 X65.5645 Y2.1100
G01 X65.6340 Y2.1617
G01 X65.6982 Y2.2198
G01 X65.7564 Y2.2840
G01 X65.8080 Y2.3536
G01 X65.8525 Y2.4279
G01 X65.8896 Y2.5062
G01 X65.9188 Y2.5878
G01 X65.9398 Y2.6718
G01 X65.9525 Y2.7575
G01 X65.9568 Y2.8440
G01 X65.9525 Y2.9305
G01 X65.9398 Y3.0162
G01 X65.9188 Y3.1003
G01 X65.8896 Y3.1818
G01 X65.8525 Y3.2602
G01 X65.8080 Y3.3345
G01 X65.7564 Y3.4040
G01 X65.6982 Y3.4682
G01 X65.6340 Y3.5264
G01 X65.5645 Y3.5780
G01 X65.4902 Y3.6225
G01 X65.4118 Y3.6596
G01 X65.3303 Y3.6888
G01 X65.2462 Y3.7098
G01 X65.1605 Y3.7225
G01 X65.0740 Y3.7268
G01 X64.9875 Y3.7225
G01 X64.9018 Y3.7098
G01 X64.8178 Y3.6888
G01 X64.7362 Y3.6596
G01 X64.6579 Y3.6225
G01 X64.5836 Y3.5780
G01 X64.5140 Y3.5264
G01 X64.4498 Y3.4682
G01 X64.3917 Y3.4040
G01 X64.3400 Y3.3345
G01 X64.2955 Y3.2602
G01 X64.2585 Y3.1818
G01 X64.2293 Y3.1003
G01 X64.2082 Y3.0162
G01 X64.1955 Y2.9305
G01 X64.1913 Y2.8440
G01 X64.1955 Y2.7575
G01 X64.2082 Y2.6718
G01 X64.2293 Y2.5878
G01 X64.2585 Y2.5062
G01 X64.2955 Y2.4279
G01 X64.3400 Y2.3536
G01 X64.3917 Y2.2840
G01 X64.4498 Y2.2198
G01 X64.5140 Y2.1617
G01 X64.5836 Y2.1100
G01 X64.6579 Y2.0655
G01 X64.7362 Y2.0285
G01 X64.8178 Y1.9993
G01 X64.9018 Y1.9782
G01 X64.9895 Y1.9654
G00 Z2.0000
G00 X67.5295 Y1.9654
G01 F30.00
G01 Z-0.0900
G01 F60.00
G01 X67.6140 Y1.9613
G01 X67.7005 Y1.9655
G01 X67.7862 Y1.9782
G01 X67.8703 Y1.9993
G01 X67.9518 Y2.0285
G01 X68.0302 Y2.0655
G01 X68.1045 Y2.1100
G01 X68.1740 Y2.1617
G01 X68.2382 Y2.2198
G01 X68.2964 Y2.2840
G01 X68.3480 Y2.3536
G01 X68.3925 Y2.4279
G01 X68.4296 Y2.5062
G01 X68.4588 Y2.5878
G01 X68.4798 Y2.6718
G01 X68.4925 Y2.7575
G01 X68.4968 Y2.8440
G01 X68.4925 Y2.9305
G01 X68.4798 Y3.0162
G01 X68.4588 Y3.1003
G01 X68.4296 Y3.1818
G01 X68.3925 Y3.2602
G01 X68.3480 Y3.3345
G01 X68.2964 Y3.4040
G01 X68.2382 Y3.4682
G01 X68.1740 Y3.5264
G01 X68.1045 Y3.5780
G01 X68.0302 Y3.6225
G01 X67.9518 Y3.6596
G01 X67.8703 Y3.6888
G01 X67.7862 Y3.7098
G01 X67.7005 Y3.7225
G01 X67.6140 Y3.7268
G01 X67.5275 Y3.7225
G01 X67.4418 Y3.7098
G01 X67.3578 Y3.6888
G01 X67.2762 Y3.6596
G01 X67.1979 Y3.6225
G01 X67.1236 Y3.5780
G01 X67.0540 Y3.5264
G01 X66.9898 Y3.4682
G01 X66.9317 Y3.4040
G01 X66.8800 Y3.3345
G01 X66.8355 Y3.2602
G01 X66.7985 Y3.1818
G01 X66.7693 Y3.1003
G01 X66.7482 Y3.0162
G01 X66.7355 Y2.9305
G01 X66.7313 Y2.8440
G01 X66.7355 Y2.7575
G01 X66.7482 Y2.6718
G01 X66.7693 Y2.5878
G01 X66.7985 Y2.5062
G01 X66.8355 Y2.4279
G01 X66.8800 Y2.3536
G01 X66.9317 Y2.2840
G01 X66.9898 Y2.2198
G01 X67.0540 Y2.1617
G01 X67.1236 Y2.1100
G01 X67.1979 Y2.0655
G01 X67.2762 Y2.0285
G01 X67.3578 Y1.9993
G01 X67.4418 Y1.9782
G01 X67.5295 Y1.9654
G00 Z2.0000
G00 X70.0716 Y1.9652
G01 F30.00
G01 Z-0.0900
G01 F60.00
G01 X70.1540 Y1.9613
G01 X70.2405 Y1.9655
G01 X70.3262 Y1.9782
G01 X70.4103 Y1.9993
G01 X70.4918 Y2.0285
G01 X70.5702 Y2.0655
G01 X70.6445 Y2.1100
G01 X70.7140 Y2.1617
G01 X70.7782 Y2.2198
G01 X70.8364 Y2.2840
G01 X70.8880 Y2.3536
G01 X70.9325 Y2.4279
G01 X70.9696 Y2.5062
G01 X70.9988 Y2.5878
G01 X71.0198 Y2.6718
G01 X71.0325 Y2.7575
G01 X71.0368 Y2.8440
G01 X71.0325 Y2.9305
G01 X71.0198 Y3.0162
G01 X70.9988 Y3.1003
G01 X70.9696 Y3.1818
G01 X70.9325 Y3.2602
G01 X70.8880 Y3.3345
G01 X70.8364 Y3.4040
G01 X70.7782 Y3.4682
G01 X70.7140 Y3.5264
G01 X70.6445 Y3.5780
G01 X70.5702 Y3.6225
G01 X70.4918 Y3.6596
G01 X70.4103 Y3.6888
G01 X70.3262 Y3.7098
G01 X70.2405 Y3.7225
G01 X70.1540 Y3.7268
G01 X70.0675 Y3.7225
G01 X69.9818 Y3.7098
G01 X69.8978 Y3.6888
G01 X69.8162 Y3.6596
G01 X69.7379 Y3.6225
G01 X69.6636 Y3.5780
G01 X69.5940 Y3.5264
G01 X69.5298 Y3.4682
G01 X69.4717 Y3.4040
G01 X69.4200 Y3.3345
G01 X69.3755 Y3.2602
G01 X69.3385 Y3.1818
G01 X69.3093 Y3.1003
G01 X69.2882 Y3.0162
G01 X69.2755 Y2.9305
G01 X69.2713 Y2.8440
G01 X69.2755 Y2.7575
G01 X69.2882 Y2.6718
G01 X69.3093 Y2.5878
G01 X69.3385 Y2.5062
G01 X69.3755 Y2.4279
G01 X69.4200 Y2.3536
G01 X69.4717 Y2.2840
G01 X69.5298 Y2.2198
G01 X69.5940 Y2.1617
G01 X69.6636 Y2.1100
G01 X69.7379 Y2.0655
G01 X69.8162 Y2.0285
G01 X69.8978 Y1.9993
G01 X69.9818 Y1.9782
G01 X70.0635 Y1.9660
G01 X70.0716 Y1.9652
G00 Z2.0000
G00 X65.8354 Y31.7332
G01 F30.00
G01 Z-0.0900
G01 F60.00
G01 X65.9297 Y31.6887
G01 X66.0297 Y31.6529
G01 X66.1328 Y31.6271
G01 X66.2399 Y31.6113
G01 X66.3440 Y31.6063
G01 X66.4522 Y31.6117
G01 X66.5572 Y31.6275
G01 X66.6564 Y31.6523
G01 X66.6870 Y31.6631
G01 X67.2525 Y31.0975
G01 X67.2861 Y31.0670
G01 X67.3257 Y31.0375
G01 X67.3628 Y31.0151
G01 X67.3700 Y31.0113
G01 X67.4092 Y30.9928
G01 X67.4500 Y30.9781
G01 X67.4577 Y30.9758
G01 X67.4958 Y30.9662
G01 X67.5038 Y30.9647
G01 X67.5467 Y30.9584
G01 X67.5940 Y30.9561
G01 X69.5425 Y30.9556
G01 X69.5646 Y30.9191
G01 X69.6193 Y30.8457
G01 X69.6795 Y30.7795
G01 X69.7457 Y30.7193
G01 X69.8175 Y30.6658
G01 X69.8242 Y30.6613
G01 X69.8993 Y30.6164
G01 X69.9840 Y30.5765
G01 X70.0683 Y30.5464
G01 X70.1531 Y30.5251
G01 X70.1611 Y30.5235
G01 X70.2476 Y30.5108
G01 X70.3390 Y30.5063
G01 X70.6390 Y30.5063
G01 X70.7264 Y30.5105
G01 X70.7339 Y30.5112
G01 X72.8461 Y28.3990
G01 X72.8461 Y23.3641
G01 X71.8790 Y22.3970
G01 X71.4356 Y22.3974
G01 X71.4134 Y22.4339
G01 X71.3587 Y22.5073
G01 X71.2986 Y22.5736
G01 X71.2292 Y22.6363
G01 X71.1572 Y22.6896
G01 X71.0787 Y22.7366
G01 X70.9960 Y22.7758
G01 X70.9136 Y22.8053
G01 X70.9059 Y22.8077
G01 X70.8210 Y22.8289
G01 X70.7345 Y22.8418
G01 X70.7264 Y22.8426
G01 X70.6411 Y22.8467
G01 X70.3370 Y22.8467
G01 X70.2476 Y22.8423
G01 X70.1611 Y22.8295
G01 X70.1531 Y22.8280
G01 X70.0722 Y22.8077
G01 X70.0644 Y22.8053
G01 X69.9821 Y22.7758
G01 X69.8993 Y22.7366
G01 X69.8208 Y22.6896
G01 X69.7505 Y22.6375
G01 X69.7442 Y22.6324
G01 X69.6824 Y22.5764
G01 X69.6767 Y22.5706
G01 X69.6180 Y22.5058
G01 X69.5635 Y22.4322
G01 X69.5164 Y22.3537
G01 X69.4789 Y22.2747
G01 X69.4758 Y22.2672
G01 X69.4477 Y22.1886
G01 X69.4454 Y22.1809
G01 X69.4242 Y22.0960
G01 X69.4106 Y22.0034
G01 X69.4063 Y21.9140
G01 X69.4108 Y21.8226
G01 X69.4242 Y21.7321
G01 X69.4464 Y21.6433
G01 X69.4773 Y21.5571
G01 X69.5164 Y21.4743
G01 X69.5635 Y21.3958
G01 X69.6155 Y21.3255
G01 X69.6207 Y21.3192
G01 X69.6767 Y21.2574
G01 X69.6824 Y21.2517
G01 X69.7473 Y21.1930
G01 X69.8175 Y21.1408
G01 X69.8242 Y21.1363
G01 X69.8993 Y21.0914
G01 X69.9821 Y21.0523
G01 X70.0683 Y21.0214
G01 X70.1591 Y20.9988
G01 X70.2476 Y20.9858
G01 X70.3370 Y20.9813
G01 X70.6390 Y20.9813
G01 X70.7305 Y20.9858
G01 X70.8230 Y20.9996
G01 X70.9098 Y21.0214
G01 X70.9960 Y21.0523
G01 X71.0787 Y21.0914
G01 X71.1589 Y21.1396
G01 X71.2308 Y21.1930
G01 X71.3000 Y21.2559
G01 X71.3613 Y21.3239
G01 X71.4134 Y21.3941
G01 X71.4358 Y21.4311
G01 X72.0790 Y21.4311
G01 X72.1264 Y21.4334
G01 X72.1732 Y21.4404
G01 X72.2153 Y21.4508
G01 X72.2231 Y21.4531
G01 X72.2638 Y21.4678
G01 X72.3031 Y21.4863
G01 X72.3102 Y21.4901
G01 X72.3456 Y21.5114
G01 X72.3854 Y21.5407
G01 X72.4205 Y21.5725
G01 X73.6719 Y22.8240
G01 X73.7024 Y22.8576
G01 X73.7282 Y22.8924
G01 X73.7328 Y22.8991
G01 X73.7549 Y22.9364
G01 X73.7736 Y22.9755
G01 X73.7767 Y22.9830
G01 X73.7912 Y23.0238
G01 X73.8027 Y23.0698
G01 X73.8096 Y23.1167
G01 X73.8120 Y23.1640
G01 X73.8120 Y28.5990
G01 X73.8099 Y28.6423
G01 X73.8092 Y28.6504
G01 X73.8027 Y28.6932
G01 X73.7912 Y28.7392
G01 X73.7767 Y28.7801
G01 X73.7736 Y28.7876
G01 X73.7549 Y28.8267
G01 X73.7317 Y28.8656
G01 X73.7024 Y28.9054
G01 X73.6705 Y28.9405
G01 X71.5083 Y31.1028
G01 X71.5316 Y31.1683
G01 X71.5539 Y31.2571
G01 X71.5673 Y31.3476
G01 X71.5718 Y31.4390
G01 X71.5673 Y31.5305
G01 X71.5539 Y31.6210
G01 X71.5316 Y31.7098
G01 X71.5000 Y31.7978
G01 X71.4616 Y31.8787
G01 X71.4146 Y31.9572
G01 X71.3601 Y32.0308
G01 X71.2986 Y32.0986
G01 X71.2308 Y32.1601
G01 X71.1572 Y32.2146
G01 X71.0787 Y32.2616
G01 X70.9997 Y32.2991
G01 X70.9922 Y32.3022
G01 X70.9098 Y32.3316
G01 X70.8210 Y32.3539
G01 X70.7305 Y32.3673
G01 X70.6411 Y32.3717
G01 X70.3390 Y32.3718
G01 X70.2496 Y32.3675
G01 X70.1571 Y32.3539
G01 X70.0722 Y32.3327
G01 X70.0644 Y32.3303
G01 X69.9821 Y32.3008
G01 X69.8993 Y32.2616
G01 X69.8208 Y32.2146
G01 X69.7489 Y32.1613
G01 X69.6795 Y32.0986
G01 X69.6193 Y32.0323
G01 X69.5646 Y31.9589
G01 X69.5422 Y31.9220
G01 X67.7941 Y31.9220
G01 X67.3700 Y32.3460
G01 X67.3807 Y32.3767
G01 X67.4055 Y32.4758
G01 X67.4217 Y32.5849
G01 X67.4267 Y32.6850
G01 X67.4267 Y32.6931
G01 X67.4216 Y32.7952
G01 X67.4063 Y32.8983
G01 X67.3802 Y33.0033
G01 X67.3458 Y33.0996
G01 X67.3427 Y33.1071
G01 X67.2989 Y33.1994
G01 X67.2465 Y33.2871
G01 X67.2420 Y33.2939
G01 X67.1797 Y33.3775
G01 X67.1124 Y33.4517
G01 X67.1067 Y33.4574
G01 X67.0309 Y33.5260
G01 X66.9489 Y33.5870
G01 X66.9421 Y33.5915
G01 X66.8544 Y33.6439
G01 X66.7584 Y33.6894
G01 X66.6583 Y33.7252
G01 X66.5592 Y33.7501
G01 X66.5513 Y33.7517
G01 X66.4502 Y33.7666
G01 X66.3481 Y33.7717
G01 X66.3400 Y33.7717
G01 X66.2379 Y33.7666
G01 X66.1328 Y33.7510
G01 X66.0336 Y33.7262
G01 X66.0259 Y33.7239
G01 X65.9335 Y33.6908
G01 X65.9260 Y33.6877
G01 X65.8336 Y33.6439
G01 X65.7425 Y33.5893
G01 X65.6571 Y33.5260
G01 X65.5813 Y33.4574
G01 X65.5756 Y33.4517
G01 X65.5097 Y33.3790
G01 X65.5045 Y33.3727
G01 X65.4438 Y33.2906
G01 X65.3891 Y33.1994
G01 X65.3453 Y33.1071
G01 X65.3422 Y33.0996
G01 X65.3079 Y33.0033
G01 X65.2821 Y32.9003
G01 X65.2665 Y32.7952
G01 X65.2614 Y32.6931
G01 X65.2614 Y32.6850
G01 X65.2662 Y32.5869
G01 X65.2670 Y32.5789
G01 X65.2821 Y32.4778
G01 X65.3079 Y32.3747
G01 X65.3437 Y32.2747
G01 X65.3873 Y32.1822
G01 X65.3911 Y32.1751
G01 X65.4416 Y32.0909
G01 X65.4461 Y32.0842
G01 X65.5070 Y32.0021
G01 X65.5784 Y31.9234
G01 X65.6571 Y31.8520
G01 X65.7392 Y31.7911
G01 X65.7459 Y31.7866
G01 X65.8354 Y31.7332
G00 Z2.0000
G00 X62.2375 Y37.5937
G01 F30.00
G01 Z-0.0900
G01 F60.00
G01 X62.2899 Y37.5463
G01 X62.3051 Y37.5347
G01 X62.3051 Y32.1130
G01 X62.3074 Y32.0677
G01 X62.3137 Y32.0248
G01 X62.3152 Y32.0168
G01 X62.3259 Y31.9748
G01 X62.3404 Y31.9340
G01 X62.3435 Y31.9265
G01 X62.3621 Y31.8874
G01 X62.3865 Y31.8467
G01 X62.4147 Y31.8086
G01 X62.4465 Y31.7735
G01 X69.4063 Y24.8138
G01 X69.4063 Y23.8140
G01 X69.4077 Y23.7834
G01 X69.4127 Y23.7491
G01 X69.4206 Y23.7174
G01 X69.4316 Y23.6867
G01 X69.4437 Y23.6608
G01 X69.4476 Y23.6536
G01 X69.4624 Y23.6292
G01 X69.4793 Y23.6061
G01 X69.4845 Y23.5999
G01 X69.5009 Y23.5817
G01 X69.5067 Y23.5759
G01 X69.5279 Y23.5568
G01 X69.5542 Y23.5374
G01 X69.5822 Y23.5206
G01 X69.6117 Y23.5066
G01 X69.6424 Y23.4956
G01 X69.6741 Y23.4877
G01 X69.7064 Y23.4829
G01 X69.7370 Y23.4813
G01 X71.2411 Y23.4813
G01 X71.2716 Y23.4829
G01 X71.2999 Y23.4870
G01 X71.3079 Y23.4886
G01 X71.3356 Y23.4956
G01 X71.3664 Y23.5066
G01 X71.3923 Y23.5187
G01 X71.3994 Y23.5226
G01 X71.4239 Y23.5374
G01 X71.4501 Y23.5568
G01 X71.4714 Y23.5759
G01 X71.4771 Y23.5817
G01 X71.4962 Y23.6029
G01 X71.5134 Y23.6258
G01 X71.5179 Y23.6326
G01 X71.5325 Y23.6572
G01 X71.5464 Y23.6867
G01 X71.5562 Y23.7136
G01 X71.5585 Y23.7213
G01 X71.5654 Y23.7491
G01 X71.5697 Y23.7774
G01 X71.5705 Y23.7855
G01 X71.5717 Y23.8120
G01 X71.5718 Y25.0140
G01 X71.5703 Y25.0446
G01 X71.5654 Y25.0789
G01 X71.5585 Y25.1067
G01 X71.5562 Y25.1145
G01 X71.5479 Y25.1376
G01 X71.5448 Y25.1451
G01 X71.5325 Y25.1709
G01 X71.5157 Y25.1989
G01 X71.4962 Y25.2251
G01 X71.4771 Y25.2464
G01 X71.4714 Y25.2521
G01 X71.4501 Y25.2712
G01 X71.4272 Y25.2884
G01 X71.4205 Y25.2929
G01 X71.3994 Y25.3055
G01 X71.3923 Y25.3093
G01 X71.3664 Y25.3214
G01 X71.3356 Y25.3324
G01 X71.3039 Y25.3404
G01 X71.2696 Y25.3453
G01 X71.2390 Y25.3468
G01 X70.2393 Y25.3468
G01 X63.2710 Y32.3151
G01 X63.2710 Y37.5347
G01 X63.2862 Y37.5463
G01 X63.3401 Y37.5951
G01 X63.3931 Y37.6535
G01 X63.4389 Y37.7152
G01 X63.4763 Y37.7775
G01 X63.4802 Y37.7847
G01 X63.5095 Y37.8468
G01 X63.5127 Y37.8543
G01 X63.5371 Y37.9228
G01 X63.5548 Y37.9934
G01 X63.5564 Y38.0013
G01 X63.5670 Y38.0733
G01 X63.5708 Y38.1500
G01 X63.5670 Y38.2267
G01 X63.5557 Y38.3027
G01 X63.5371 Y38.3772
G01 X63.5112 Y38.4496
G01 X63.4783 Y38.5190
G01 X63.4389 Y38.5849
G01 X63.3931 Y38.6466
G01 X63.3415 Y38.7035
G01 X63.2846 Y38.7551
G01 X63.2229 Y38.8009
G01 X63.1570 Y38.8403
G01 X63.0876 Y38.8732
G01 X63.0152 Y38.8991
G01 X62.9407 Y38.9177
G01 X62.8647 Y38.9290
G01 X62.7880 Y38.9328
G01 X62.7113 Y38.9290
G01 X62.6353 Y38.9177
G01 X62.5608 Y38.8991
G01 X62.4885 Y38.8732
G01 X62.4190 Y38.8403
G01 X62.3532 Y38.8009
G01 X62.2915 Y38.7551
G01 X62.2345 Y38.7035
G01 X62.1830 Y38.6466
G01 X62.1372 Y38.5849
G01 X62.0977 Y38.5190
G01 X62.0649 Y38.4496
G01 X62.0390 Y38.3772
G01 X62.0203 Y38.3027
G01 X62.0090 Y38.2267
G01 X62.0053 Y38.1500
G01 X62.0090 Y38.0733
G01 X62.0203 Y37.9973
G01 X62.0390 Y37.9228
G01 X62.0649 Y37.8505
G01 X62.0977 Y37.7810
G01 X62.1372 Y37.7152
G01 X62.1830 Y37.6535
G01 X62.2317 Y37.5995
G01 X62.2375 Y37.5937
G00 Z2.0000
G00 X58.4582 Y38.3733
G01 F30.00
G01 Z-0.0900
G01 F60.00
G01 X58.4757 Y38.3027
G01 X58.4865 Y38.2308
G01 X58.4873 Y38.2227
G01 X58.4907 Y38.1480
G01 X58.4870 Y38.0733
G01 X58.4761 Y37.9993
G01 X58.4576 Y37.9248
G01 X58.4451 Y37.8892
G01 X58.7062 Y37.6281
G01 X58.7687 Y37.7620
G01 X58.7699 Y37.7655
G01 X58.8199 Y37.9521
G01 X58.8206 Y37.9557
G01 X58.8374 Y38.1482
G01 X58.8374 Y38.1519
G01 X58.8206 Y38.3443
G01 X58.8199 Y38.3480
G01 X58.7699 Y38.5345
G01 X58.7687 Y38.5380
G01 X58.7062 Y38.6720
G01 X58.4451 Y38.4109
G01 X58.4558 Y38.3811
G01 X58.4582 Y38.3733
G00 Z2.0000
G00 X57.7062 Y37.0206
G01 F30.00
G01 Z-0.0900
G01 F60.00
G01 X57.7099 Y37.0206
G01 X57.9023 Y37.0375
G01 X57.9060 Y37.0381
G01 X58.0925 Y37.0881
G01 X58.0960 Y37.0894
G01 X58.2300 Y37.1518
G01 X57.9689 Y37.4129
G01 X57.9333 Y37.4004
G01 X57.8587 Y37.3819
G01 X57.7847 Y37.3710
G01 X57.7080 Y37.3673
G01 X57.6313 Y37.3710
G01 X57.5573 Y37.3819
G01 X57.4828 Y37.4004
G01 X57.4472 Y37.4129
G01 X57.1861 Y37.1518
G01 X57.3200 Y37.0894
G01 X57.3235 Y37.0881
G01 X57.5101 Y37.0381
G01 X57.5137 Y37.0375
G01 X57.7062 Y37.0206
G00 Z2.0000
G00 X56.5786 Y38.1519
G01 F30.00
G01 Z-0.0900
G01 F60.00
G01 X56.5786 Y38.1482
G01 X56.5955 Y37.9557
G01 X56.5961 Y37.9521
G01 X56.6461 Y37.7655
G01 X56.6474 Y37.7620
G01 X56.7098 Y37.6281
G01 X56.9709 Y37.8892
G01 X56.9584 Y37.9248
G01 X56.9399 Y37.9993
G01 X56.9290 Y38.0733
G01 X56.9253 Y38.1500
G01 X56.9290 Y38.2267
G01 X56.9399 Y38.3007
G01 X56.9584 Y38.3753
G01 X56.9709 Y38.4109
G01 X56.7098 Y38.6720
G01 X56.6474 Y38.5380
G01 X56.6461 Y38.5345
G01 X56.5961 Y38.3480
G01 X56.5955 Y38.3443
