(G-CODE GENERATED BY FLATCAM v8.994 - www.flatcam.org - Version Date: 2020/11/7)

(Name: pet_puller_shield-B_Cu.gbr_iso_combined_cnc)
(Type: G-code from Geometry)
(Units: MM)

(Created on Sunday, 09 February 2025 at 14:08)

(This preprocessor is the default preprocessor used by FlatCAM.)
(It is made to work with MACH3 compatible motion controllers.)

(TOOL DIAMETER: 0.1655 mm)
(Feedrate_XY: 60.0 mm/min)
(Feedrate_Z: 30.0 mm/min)
(Feedrate rapids 1500.0 mm/min)

(Z_Cut: -0.09 mm)
(Z_Move: 2.0 mm)
(Z Start: None mm)
(Z End: 35.0 mm)
(X,Y End: None mm)
(Steps per circle: 64)
(Preprocessor Geometry: default)

(X range:   -0.1200 ...   75.6581  mm)
(Y range:   -0.1201 ...   54.0680  mm)

(Spindle Speed: 20000.0 RPM)
G21
G90
G94

G01 F60.00

M5
G00 Z15.0000
G00 X0.0000 Y0.0000
T1
M6    
(MSG, Change to Tool Dia = 0.1655)
M0
G00 Z15.0000

M03 S20000.0
G01 F60.00
G00 X19.7601 Y1.4816
G01 F30.00
G01 Z-0.0900
G01 F60.00
G01 X19.8966 Y1.3450
G01 X19.8995 Y1.3426
G01 X20.0577 Y1.2318
G01 X20.0609 Y1.2300
G01 X20.2360 Y1.1483
G01 X20.2395 Y1.1471
G01 X20.2873 Y1.1343
G01 X20.2873 Y1.5033
G01 X20.2533 Y1.5196
G01 X20.1875 Y1.5593
G01 X20.1275 Y1.6039
G01 X20.0705 Y1.6555
G01 X20.0190 Y1.7124
G01 X19.9743 Y1.7724
G01 X19.9347 Y1.8382
G01 X19.9183 Y1.8722
G01 X19.5493 Y1.8722
G01 X19.5621 Y1.8245
G01 X19.5634 Y1.8209
G01 X19.6450 Y1.6459
G01 X19.6469 Y1.6427
G01 X19.7577 Y1.4845
G01 X19.7601 Y1.4816
G00 Z2.0000
G00 X20.1160 Y1.4282
G01 F30.00
G01 Z-0.0900
G01 F60.00
G01 X20.1064 Y1.4343
G01 X20.0971 Y1.4408
G01 X20.0330 Y1.4888
G01 X19.9735 Y1.5423
G01 X19.9612 Y1.5542
G01 X19.9112 Y1.6093
G01 X19.9003 Y1.6224
G01 X19.8526 Y1.6867
G01 X19.8462 Y1.6961
G01 X19.8299 Y1.7233
G01 X19.7733 Y1.7233
G01 X19.7753 Y1.7190
G01 X19.8733 Y1.5790
G01 X19.9941 Y1.4582
G01 X20.1340 Y1.3602
G01 X20.1383 Y1.3582
G01 X20.1383 Y1.4148
G01 X20.1160 Y1.4282
G00 Z2.0000
G00 X19.9357 Y2.5815
G01 F30.00
G01 Z-0.0900
G01 F60.00
G01 X19.9732 Y2.6438
G01 X20.0165 Y2.7023
G01 X20.0216 Y2.7086
G01 X20.0720 Y2.7639
G01 X20.1275 Y2.8140
G01 X20.1875 Y2.8587
G01 X20.2533 Y2.8983
G01 X20.2873 Y2.9147
G01 X20.2873 Y3.2837
G01 X20.2395 Y3.2709
G01 X20.2360 Y3.2696
G01 X20.0609 Y3.1880
G01 X20.0577 Y3.1861
G01 X19.8995 Y3.0753
G01 X19.8966 Y3.0729
G01 X19.7601 Y2.9364
G01 X19.7577 Y2.9335
G01 X19.6469 Y2.7753
G01 X19.6450 Y2.7721
G01 X19.5634 Y2.5970
G01 X19.5621 Y2.5935
G01 X19.5493 Y2.5457
G01 X19.9183 Y2.5457
G01 X19.9319 Y2.5743
G01 X19.9357 Y2.5815
G00 Z2.0000
G00 X19.8559 Y2.7359
G01 F30.00
G01 Z-0.0900
G01 F60.00
G01 X19.9038 Y2.8000
G01 X19.9574 Y2.8595
G01 X19.9693 Y2.8718
G01 X20.0243 Y2.9218
G01 X20.0374 Y2.9327
G01 X20.1017 Y2.9804
G01 X20.1112 Y2.9868
G01 X20.1383 Y3.0031
G01 X20.1383 Y3.0597
G01 X20.1340 Y3.0577
G01 X19.9941 Y2.9597
G01 X19.8733 Y2.8389
G01 X19.7753 Y2.6990
G01 X19.7733 Y2.6947
G01 X19.8299 Y2.6947
G01 X19.8462 Y2.7218
G01 X19.8559 Y2.7359
G00 Z2.0000
G00 X20.9965 Y2.8973
G01 F30.00
G01 Z-0.0900
G01 F60.00
G01 X21.0589 Y2.8598
G01 X21.1174 Y2.8165
G01 X21.1237 Y2.8114
G01 X21.1789 Y2.7610
G01 X21.2291 Y2.7055
G01 X21.2737 Y2.6455
G01 X21.3134 Y2.5797
G01 X21.3297 Y2.5457
G01 X21.6987 Y2.5457
G01 X21.6859 Y2.5935
G01 X21.6847 Y2.5970
G01 X21.6030 Y2.7721
G01 X21.6012 Y2.7753
G01 X21.4904 Y2.9335
G01 X21.4880 Y2.9364
G01 X21.3514 Y3.0729
G01 X21.3485 Y3.0753
G01 X21.1903 Y3.1861
G01 X21.1871 Y3.1880
G01 X21.0121 Y3.2696
G01 X21.0085 Y3.2709
G01 X20.9608 Y3.2837
G01 X20.9608 Y2.9147
G01 X20.9894 Y2.9011
G01 X20.9965 Y2.8973
G00 Z2.0000
G00 X21.1509 Y2.9771
G01 F30.00
G01 Z-0.0900
G01 F60.00
G01 X21.2151 Y2.9292
G01 X21.2746 Y2.8756
G01 X21.2868 Y2.8637
G01 X21.3368 Y2.8087
G01 X21.3478 Y2.7956
G01 X21.3955 Y2.7313
G01 X21.4018 Y2.7218
G01 X21.4182 Y2.6947
G01 X21.4748 Y2.6947
G01 X21.4728 Y2.6990
G01 X21.3748 Y2.8389
G01 X21.2540 Y2.9597
G01 X21.1140 Y3.0577
G01 X21.1097 Y3.0597
G01 X21.1097 Y3.0031
G01 X21.1369 Y2.9868
G01 X21.1509 Y2.9771
G00 Z2.0000
G00 X21.4182 Y1.7233
G01 F30.00
G01 Z-0.0900
G01 F60.00
G01 X21.4018 Y1.6961
G01 X21.3955 Y1.6867
G01 X21.3478 Y1.6224
G01 X21.3368 Y1.6093
G01 X21.2828 Y1.5502
G01 X21.2237 Y1.4962
G01 X21.2106 Y1.4852
G01 X21.1463 Y1.4375
G01 X21.1369 Y1.4312
G01 X21.1097 Y1.4148
G01 X21.1097 Y1.3582
G01 X21.1140 Y1.3602
G01 X21.2540 Y1.4582
G01 X21.3748 Y1.5790
G01 X21.4728 Y1.7190
G01 X21.4748 Y1.7233
G01 X21.4182 Y1.7233
G00 Z2.0000
G00 X21.3485 Y1.3426
G01 F30.00
G01 Z-0.0900
G01 F60.00
G01 X21.3514 Y1.3450
G01 X21.4880 Y1.4816
G01 X21.4904 Y1.4845
G01 X21.6012 Y1.6427
G01 X21.6030 Y1.6459
G01 X21.6847 Y1.8209
G01 X21.6859 Y1.8245
G01 X21.6987 Y1.8722
G01 X21.3297 Y1.8722
G01 X21.3134 Y1.8382
G01 X21.2737 Y1.7724
G01 X21.2291 Y1.7124
G01 X21.1775 Y1.6555
G01 X21.1206 Y1.6039
G01 X21.0606 Y1.5593
G01 X20.9948 Y1.5196
G01 X20.9608 Y1.5033
G01 X20.9608 Y1.1343
G01 X21.0085 Y1.1471
G01 X21.0121 Y1.1483
G01 X21.1871 Y1.2300
G01 X21.1903 Y1.2318
G01 X21.3485 Y1.3426
G00 Z2.0000
G00 X20.4674 Y8.0558
G01 F30.00
G01 Z-0.0900
G01 F60.00
G01 X20.3968 Y8.0380
G01 X20.3245 Y8.0121
G01 X20.2550 Y7.9793
G01 X20.1892 Y7.9398
G01 X20.1275 Y7.8940
G01 X20.0705 Y7.8425
G01 X20.0190 Y7.7855
G01 X19.9732 Y7.7238
G01 X19.9337 Y7.6580
G01 X19.9009 Y7.5885
G01 X19.8750 Y7.5162
G01 X19.8563 Y7.4417
G01 X19.8450 Y7.3657
G01 X19.8413 Y7.2890
G01 X19.8450 Y7.2123
G01 X19.8563 Y7.1363
G01 X19.8750 Y7.0618
G01 X19.9009 Y6.9894
G01 X19.9337 Y6.9200
G01 X19.9732 Y6.8541
G01 X20.0190 Y6.7924
G01 X20.0705 Y6.7355
G01 X20.1275 Y6.6839
G01 X20.1892 Y6.6381
G01 X20.2550 Y6.5987
G01 X20.3245 Y6.5658
G01 X20.3968 Y6.5399
G01 X20.4713 Y6.5213
G01 X20.5473 Y6.5100
G01 X20.6240 Y6.5062
G01 X20.7007 Y6.5100
G01 X20.7767 Y6.5213
G01 X20.8512 Y6.5399
G01 X20.9236 Y6.5658
G01 X20.9930 Y6.5987
G01 X21.0589 Y6.6381
G01 X21.1206 Y6.6839
G01 X21.1775 Y6.7355
G01 X21.2291 Y6.7924
G01 X21.2749 Y6.8541
G01 X21.3143 Y6.9200
G01 X21.3472 Y6.9894
G01 X21.3731 Y7.0618
G01 X21.3917 Y7.1363
G01 X21.4030 Y7.2123
G01 X21.4068 Y7.2890
G01 X21.4030 Y7.3657
G01 X21.3917 Y7.4417
G01 X21.3731 Y7.5162
G01 X21.3472 Y7.5885
G01 X21.3143 Y7.6580
G01 X21.2749 Y7.7238
G01 X21.2291 Y7.7855
G01 X21.1775 Y7.8425
G01 X21.1206 Y7.8940
G01 X21.0589 Y7.9398
G01 X20.9930 Y7.9793
G01 X20.9236 Y8.0121
G01 X20.8512 Y8.0380
G01 X20.7767 Y8.0567
G01 X20.7007 Y8.0680
G01 X20.6240 Y8.0717
G01 X20.5473 Y8.0680
G01 X20.4753 Y8.0574
G01 X20.4674 Y8.0558
G00 Z2.0000
G00 X20.4312 Y8.2003
G01 F30.00
G01 Z-0.0900
G01 F60.00
G01 X20.3536 Y8.1806
G01 X20.2781 Y8.1538
G01 X20.2675 Y8.1498
G01 X20.2571 Y8.1451
G01 X20.1848 Y8.1107
G01 X20.1160 Y8.0697
G01 X20.1064 Y8.0637
G01 X20.0971 Y8.0571
G01 X20.0330 Y8.0092
G01 X19.9735 Y7.9556
G01 X19.9652 Y7.9478
G01 X19.9574 Y7.9395
G01 X19.9038 Y7.8800
G01 X19.8559 Y7.8159
G01 X19.8493 Y7.8066
G01 X19.8433 Y7.7970
G01 X19.8023 Y7.7282
G01 X19.7679 Y7.6559
G01 X19.7632 Y7.6455
G01 X19.7592 Y7.6349
G01 X19.7324 Y7.5594
G01 X19.7127 Y7.4818
G01 X19.7102 Y7.4707
G01 X19.7083 Y7.4595
G01 X19.6968 Y7.3803
G01 X19.6960 Y7.3690
G01 X19.6923 Y7.2890
G01 X19.6960 Y7.2090
G01 X19.6968 Y7.1977
G01 X19.7083 Y7.1184
G01 X19.7102 Y7.1072
G01 X19.7127 Y7.0961
G01 X19.7324 Y7.0185
G01 X19.7592 Y6.9430
G01 X19.7632 Y6.9324
G01 X19.7972 Y6.8599
G01 X19.8023 Y6.8498
G01 X19.8079 Y6.8399
G01 X19.8493 Y6.7714
G01 X19.8968 Y6.7069
G01 X19.9038 Y6.6979
G01 X19.9574 Y6.6384
G01 X19.9652 Y6.6302
G01 X19.9735 Y6.6223
G01 X20.0330 Y6.5688
G01 X20.0971 Y6.5208
G01 X20.1064 Y6.5143
G01 X20.1160 Y6.5082
G01 X20.1848 Y6.4673
G01 X20.1950 Y6.4622
G01 X20.2675 Y6.4282
G01 X20.3428 Y6.4010
G01 X20.3536 Y6.3974
G01 X20.4312 Y6.3777
G01 X20.4423 Y6.3752
G01 X20.4535 Y6.3732
G01 X20.5327 Y6.3618
G01 X20.6127 Y6.3576
G01 X20.6240 Y6.3573
G01 X20.6354 Y6.3576
G01 X20.7153 Y6.3618
G01 X20.7946 Y6.3732
G01 X20.8058 Y6.3752
G01 X20.8169 Y6.3777
G01 X20.8945 Y6.3974
G01 X20.9700 Y6.4241
G01 X20.9806 Y6.4282
G01 X20.9910 Y6.4328
G01 X21.0632 Y6.4673
G01 X21.1320 Y6.5082
G01 X21.1416 Y6.5143
G01 X21.1509 Y6.5208
G01 X21.2151 Y6.5688
G01 X21.2746 Y6.6223
G01 X21.2828 Y6.6302
G01 X21.2907 Y6.6384
G01 X21.3442 Y6.6979
G01 X21.3922 Y6.7621
G01 X21.3987 Y6.7714
G01 X21.4048 Y6.7810
G01 X21.4457 Y6.8498
G01 X21.4802 Y6.9220
G01 X21.4848 Y6.9324
G01 X21.4889 Y6.9430
G01 X21.5156 Y7.0185
G01 X21.5353 Y7.0961
G01 X21.5378 Y7.1072
G01 X21.5398 Y7.1184
G01 X21.5512 Y7.1977
G01 X21.5521 Y7.2090
G01 X21.5557 Y7.2890
G01 X21.5521 Y7.3690
G01 X21.5512 Y7.3803
G01 X21.5398 Y7.4595
G01 X21.5378 Y7.4707
G01 X21.5353 Y7.4818
G01 X21.5156 Y7.5594
G01 X21.4889 Y7.6349
G01 X21.4848 Y7.6455
G01 X21.4508 Y7.7180
G01 X21.4457 Y7.7282
G01 X21.4401 Y7.7381
G01 X21.3987 Y7.8066
G01 X21.3512 Y7.8711
G01 X21.3442 Y7.8800
G01 X21.2907 Y7.9395
G01 X21.2828 Y7.9478
G01 X21.2746 Y7.9556
G01 X21.2151 Y8.0092
G01 X21.1509 Y8.0571
G01 X21.1416 Y8.0637
G01 X21.1320 Y8.0697
G01 X21.0632 Y8.1107
G01 X21.0531 Y8.1158
G01 X20.9806 Y8.1498
G01 X20.9053 Y8.1770
G01 X20.8945 Y8.1806
G01 X20.8169 Y8.2003
G01 X20.8058 Y8.2028
G01 X20.7946 Y8.2047
G01 X20.7153 Y8.2162
G01 X20.6354 Y8.2204
G01 X20.6240 Y8.2207
G01 X20.6127 Y8.2204
G01 X20.5327 Y8.2162
G01 X20.4535 Y8.2047
G01 X20.4423 Y8.2028
G01 X20.4312 Y8.2003
G00 Z2.0000
G00 X19.8321 Y8.4395
G01 F30.00
G01 Z-0.0900
G01 F60.00
G01 X19.8454 Y8.4279
G01 X19.8536 Y8.4200
G01 X19.8651 Y8.4074
G01 X19.8756 Y8.3940
G01 X19.8820 Y8.3846
G01 X19.8893 Y8.3726
G01 X19.9130 Y8.3418
G01 X19.9226 Y8.3277
G01 X19.9284 Y8.3180
G01 X19.9337 Y8.3080
G01 X19.9385 Y8.2977
G01 X19.9428 Y8.2872
G01 X19.9483 Y8.2712
G01 X19.9513 Y8.2602
G01 X19.9548 Y8.2436
G01 X19.9570 Y8.2267
G01 X19.9625 Y8.1503
G01 X19.9631 Y8.1388
G01 X19.9630 Y8.1273
G01 X19.9624 Y8.1158
G01 X19.9605 Y8.0986
G01 X19.9572 Y8.0816
G01 X19.9543 Y8.0705
G01 X19.9509 Y8.0595
G01 X19.9448 Y8.0433
G01 X19.9374 Y8.0277
G01 X19.9055 Y7.9658
G01 X19.8997 Y7.9558
G01 X19.8935 Y7.9462
G01 X19.8868 Y7.9369
G01 X19.8756 Y7.9231
G01 X19.7749 Y7.7792
G01 X19.7026 Y7.6243
G01 X19.6584 Y7.4592
G01 X19.6435 Y7.2890
G01 X19.6584 Y7.1187
G01 X19.7026 Y6.9536
G01 X19.7749 Y6.7987
G01 X19.8729 Y6.6587
G01 X19.9938 Y6.5378
G01 X20.1338 Y6.4398
G01 X20.2887 Y6.3676
G01 X20.4538 Y6.3233
G01 X20.6240 Y6.3084
G01 X20.7943 Y6.3233
G01 X20.9594 Y6.3676
G01 X21.1143 Y6.4398
G01 X21.2543 Y6.5378
G01 X21.3752 Y6.6587
G01 X21.4732 Y6.7987
G01 X21.5454 Y6.9536
G01 X21.5897 Y7.1187
G01 X21.6046 Y7.2890
G01 X21.5897 Y7.4592
G01 X21.5554 Y7.5869
G01 X21.5454 Y7.6243
G01 X21.4732 Y7.7792
G01 X21.3752 Y7.9192
G01 X21.2509 Y8.0435
G01 X21.2376 Y8.0550
G01 X21.2295 Y8.0629
G01 X21.2180 Y8.0756
G01 X21.2109 Y8.0844
G01 X21.2010 Y8.0984
G01 X21.1937 Y8.1104
G01 X21.1667 Y8.1458
G01 X21.1604 Y8.1552
G01 X21.1547 Y8.1649
G01 X21.1469 Y8.1801
G01 X21.1402 Y8.1957
G01 X21.1348 Y8.2118
G01 X21.1318 Y8.2227
G01 X21.1293 Y8.2338
G01 X21.1274 Y8.2450
G01 X21.1256 Y8.2619
G01 X21.1205 Y8.3327
G01 X21.1199 Y8.3499
G01 X21.1206 Y8.3672
G01 X21.1226 Y8.3843
G01 X21.1259 Y8.4013
G01 X21.1304 Y8.4180
G01 X21.1361 Y8.4343
G01 X21.1430 Y8.4501
G01 X21.1749 Y8.5121
G01 X21.1833 Y8.5271
G01 X21.1928 Y8.5414
G01 X21.1998 Y8.5506
G01 X21.2074 Y8.5598
G01 X21.3082 Y8.7037
G01 X21.3804 Y8.8586
G01 X21.4247 Y9.0237
G01 X21.4396 Y9.1940
G01 X21.4247 Y9.3642
G01 X21.3818 Y9.5242
G01 X21.3804 Y9.5293
G01 X21.3082 Y9.6842
G01 X21.2102 Y9.8242
G01 X21.0893 Y9.9451
G01 X20.9493 Y10.0431
G01 X20.7944 Y10.1154
G01 X20.6293 Y10.1596
G01 X20.4590 Y10.1745
G01 X20.2888 Y10.1596
G01 X20.1237 Y10.1154
G01 X19.9688 Y10.0431
G01 X19.8288 Y9.9451
G01 X19.7079 Y9.8242
G01 X19.6099 Y9.6842
G01 X19.5376 Y9.5293
G01 X19.4934 Y9.3642
G01 X19.4785 Y9.1940
G01 X19.4934 Y9.0237
G01 X19.5376 Y8.8586
G01 X19.6099 Y8.7037
G01 X19.7079 Y8.5637
G01 X19.8321 Y8.4395
G00 Z2.0000
G00 X19.5934 Y8.4676
G01 F30.00
G01 Z-0.0900
G01 F60.00
G01 X19.7327 Y8.3282
G01 X19.7427 Y8.3200
G01 X19.7485 Y8.3144
G01 X19.7525 Y8.3098
G01 X19.7573 Y8.3032
G01 X19.7604 Y8.2980
G01 X19.7635 Y8.2918
G01 X19.7954 Y8.2503
G01 X19.7995 Y8.2433
G01 X19.8037 Y8.2341
G01 X19.8067 Y8.2244
G01 X19.8083 Y8.2165
G01 X19.8140 Y8.1396
G01 X19.8139 Y8.1273
G01 X19.8132 Y8.1212
G01 X19.8116 Y8.1132
G01 X19.8091 Y8.1053
G01 X19.8068 Y8.0996
G01 X19.7811 Y8.0520
G01 X19.7774 Y8.0425
G01 X19.7727 Y8.0335
G01 X19.7668 Y8.0252
G01 X19.7584 Y8.0155
G01 X19.6454 Y7.8540
G01 X19.5621 Y7.6755
G01 X19.5111 Y7.4852
G01 X19.4940 Y7.2890
G01 X19.5111 Y7.0927
G01 X19.5621 Y6.9025
G01 X19.6454 Y6.7239
G01 X19.7584 Y6.5626
G01 X19.8976 Y6.4233
G01 X20.0590 Y6.3103
G01 X20.2375 Y6.2271
G01 X20.4278 Y6.1761
G01 X20.6240 Y6.1589
G01 X20.8203 Y6.1761
G01 X21.0105 Y6.2271
G01 X21.1891 Y6.3103
G01 X21.3504 Y6.4233
G01 X21.4897 Y6.5626
G01 X21.6027 Y6.7240
G01 X21.6505 Y6.8264
G01 X21.6859 Y6.9025
G01 X21.7369 Y7.0927
G01 X21.7541 Y7.2890
G01 X21.7369 Y7.4852
G01 X21.6993 Y7.6255
G01 X21.6859 Y7.6755
G01 X21.6027 Y7.8540
G01 X21.4897 Y8.0154
G01 X21.3503 Y8.1547
G01 X21.3388 Y8.1643
G01 X21.3305 Y8.1732
G01 X21.3247 Y8.1815
G01 X21.3196 Y8.1911
G01 X21.2912 Y8.2278
G01 X21.2855 Y8.2361
G01 X21.2826 Y8.2415
G01 X21.2794 Y8.2489
G01 X21.2769 Y8.2566
G01 X21.2751 Y8.2645
G01 X21.2741 Y8.2725
G01 X21.2689 Y8.3495
G01 X21.2693 Y8.3577
G01 X21.2705 Y8.3658
G01 X21.2732 Y8.3757
G01 X21.2762 Y8.3833
G01 X21.3020 Y8.4309
G01 X21.3056 Y8.4405
G01 X21.3115 Y8.4511
G01 X21.3162 Y8.4577
G01 X21.3246 Y8.4675
G01 X21.4377 Y8.6290
G01 X21.5209 Y8.8075
G01 X21.5719 Y8.9977
G01 X21.5891 Y9.1940
G01 X21.5719 Y9.3902
G01 X21.5209 Y9.5805
G01 X21.4377 Y9.7590
G01 X21.3247 Y9.9204
G01 X21.1854 Y10.0596
G01 X21.0240 Y10.1726
G01 X20.8455 Y10.2559
G01 X20.6553 Y10.3069
G01 X20.4590 Y10.3240
G01 X20.2628 Y10.3069
G01 X20.0725 Y10.2559
G01 X19.8940 Y10.1726
G01 X19.7326 Y10.0596
G01 X19.5934 Y9.9204
G01 X19.4804 Y9.7590
G01 X19.3971 Y9.5805
G01 X19.3461 Y9.3902
G01 X19.3290 Y9.1940
G01 X19.3461 Y8.9977
G01 X19.3971 Y8.8075
G01 X19.4804 Y8.6289
G01 X19.5934 Y8.4676
G00 Z2.0000
G00 X20.3024 Y9.9608
G01 F30.00
G01 Z-0.0900
G01 F60.00
G01 X20.2318 Y9.9430
G01 X20.1595 Y9.9171
G01 X20.0900 Y9.8843
G01 X20.0242 Y9.8448
G01 X19.9625 Y9.7990
G01 X19.9055 Y9.7475
G01 X19.8540 Y9.6905
G01 X19.8082 Y9.6288
G01 X19.7687 Y9.5630
G01 X19.7359 Y9.4935
G01 X19.7100 Y9.4212
G01 X19.6913 Y9.3467
G01 X19.6800 Y9.2707
G01 X19.6763 Y9.1940
G01 X19.6800 Y9.1173
G01 X19.6913 Y9.0413
G01 X19.7100 Y8.9668
G01 X19.7359 Y8.8944
G01 X19.7687 Y8.8250
G01 X19.8082 Y8.7591
G01 X19.8540 Y8.6974
G01 X19.9055 Y8.6405
G01 X19.9625 Y8.5889
G01 X20.0242 Y8.5431
G01 X20.0900 Y8.5037
G01 X20.1595 Y8.4708
G01 X20.2318 Y8.4449
G01 X20.3063 Y8.4263
G01 X20.3823 Y8.4150
G01 X20.4590 Y8.4112
G01 X20.5357 Y8.4150
G01 X20.6117 Y8.4263
G01 X20.6862 Y8.4449
G01 X20.7586 Y8.4708
G01 X20.8280 Y8.5037
G01 X20.8939 Y8.5431
G01 X20.9556 Y8.5889
G01 X21.0125 Y8.6405
G01 X21.0641 Y8.6974
G01 X21.1099 Y8.7591
G01 X21.1493 Y8.8250
G01 X21.1822 Y8.8944
G01 X21.2081 Y8.9668
G01 X21.2267 Y9.0413
G01 X21.2380 Y9.1173
G01 X21.2418 Y9.1940
G01 X21.2380 Y9.2707
G01 X21.2267 Y9.3467
G01 X21.2081 Y9.4212
G01 X21.1822 Y9.4935
G01 X21.1493 Y9.5630
G01 X21.1099 Y9.6288
G01 X21.0641 Y9.6905
G01 X21.0125 Y9.7475
G01 X20.9556 Y9.7990
G01 X20.8939 Y9.8448
G01 X20.8280 Y9.8843
G01 X20.7586 Y9.9171
G01 X20.6862 Y9.9430
G01 X20.6117 Y9.9617
G01 X20.5357 Y9.9730
G01 X20.4590 Y9.9767
G01 X20.3823 Y9.9730
G01 X20.3103 Y9.9624
G01 X20.3024 Y9.9608
G00 Z2.0000
G00 X20.2662 Y10.1053
G01 F30.00
G01 Z-0.0900
G01 F60.00
G01 X20.1886 Y10.0856
G01 X20.1131 Y10.0588
G01 X20.1025 Y10.0548
G01 X20.0921 Y10.0501
G01 X20.0198 Y10.0157
G01 X19.9510 Y9.9747
G01 X19.9414 Y9.9687
G01 X19.9321 Y9.9621
G01 X19.8680 Y9.9142
G01 X19.8085 Y9.8606
G01 X19.8002 Y9.8528
G01 X19.7924 Y9.8445
G01 X19.7388 Y9.7850
G01 X19.6909 Y9.7209
G01 X19.6843 Y9.7116
G01 X19.6783 Y9.7020
G01 X19.6373 Y9.6332
G01 X19.6029 Y9.5609
G01 X19.5982 Y9.5505
G01 X19.5942 Y9.5399
G01 X19.5674 Y9.4644
G01 X19.5477 Y9.3868
G01 X19.5452 Y9.3757
G01 X19.5433 Y9.3645
G01 X19.5318 Y9.2853
G01 X19.5310 Y9.2740
G01 X19.5273 Y9.1940
G01 X19.5310 Y9.1140
G01 X19.5318 Y9.1027
G01 X19.5433 Y9.0234
G01 X19.5452 Y9.0122
G01 X19.5477 Y9.0011
G01 X19.5674 Y8.9235
G01 X19.5942 Y8.8480
G01 X19.5982 Y8.8374
G01 X19.6322 Y8.7649
G01 X19.6373 Y8.7548
G01 X19.6429 Y8.7449
G01 X19.6843 Y8.6764
G01 X19.7318 Y8.6119
G01 X19.7388 Y8.6029
G01 X19.7924 Y8.5434
G01 X19.8002 Y8.5352
G01 X19.8085 Y8.5273
G01 X19.8680 Y8.4738
G01 X19.9321 Y8.4258
G01 X19.9414 Y8.4193
G01 X19.9510 Y8.4132
G01 X20.0198 Y8.3723
G01 X20.0300 Y8.3672
G01 X20.1025 Y8.3332
G01 X20.1778 Y8.3060
G01 X20.1886 Y8.3024
G01 X20.2662 Y8.2827
G01 X20.2773 Y8.2802
G01 X20.2885 Y8.2782
G01 X20.3677 Y8.2668
G01 X20.4477 Y8.2626
G01 X20.4590 Y8.2623
G01 X20.4704 Y8.2626
G01 X20.5503 Y8.2668
G01 X20.6296 Y8.2782
G01 X20.6408 Y8.2802
G01 X20.6519 Y8.2827
G01 X20.7295 Y8.3024
G01 X20.8050 Y8.3291
G01 X20.8156 Y8.3332
G01 X20.8260 Y8.3378
G01 X20.8982 Y8.3723
G01 X20.9670 Y8.4132
G01 X20.9766 Y8.4193
G01 X20.9859 Y8.4258
G01 X21.0501 Y8.4738
G01 X21.1096 Y8.5273
G01 X21.1178 Y8.5352
G01 X21.1257 Y8.5434
G01 X21.1792 Y8.6029
G01 X21.2272 Y8.6671
G01 X21.2337 Y8.6764
G01 X21.2398 Y8.6860
G01 X21.2807 Y8.7548
G01 X21.3152 Y8.8270
G01 X21.3198 Y8.8374
G01 X21.3239 Y8.8480
G01 X21.3506 Y8.9235
G01 X21.3703 Y9.0011
G01 X21.3728 Y9.0122
G01 X21.3748 Y9.0234
G01 X21.3862 Y9.1027
G01 X21.3871 Y9.1140
G01 X21.3907 Y9.1940
G01 X21.3871 Y9.2740
G01 X21.3862 Y9.2853
G01 X21.3748 Y9.3645
G01 X21.3728 Y9.3757
G01 X21.3703 Y9.3868
G01 X21.3506 Y9.4644
G01 X21.3239 Y9.5399
G01 X21.3198 Y9.5505
G01 X21.2858 Y9.6230
G01 X21.2807 Y9.6332
G01 X21.2751 Y9.6431
G01 X21.2337 Y9.7116
G01 X21.1862 Y9.7761
G01 X21.1792 Y9.7850
G01 X21.1257 Y9.8445
G01 X21.1178 Y9.8528
G01 X21.1096 Y9.8606
G01 X21.0501 Y9.9142
G01 X20.9859 Y9.9621
G01 X20.9766 Y9.9687
G01 X20.9670 Y9.9747
G01 X20.8982 Y10.0157
G01 X20.8881 Y10.0208
G01 X20.8156 Y10.0548
G01 X20.7403 Y10.0820
G01 X20.7295 Y10.0856
G01 X20.6519 Y10.1053
G01 X20.6408 Y10.1078
G01 X20.6296 Y10.1097
G01 X20.5503 Y10.1212
G01 X20.4704 Y10.1254
G01 X20.4590 Y10.1257
G01 X20.4477 Y10.1254
G01 X20.3677 Y10.1212
G01 X20.2885 Y10.1097
G01 X20.2773 Y10.1078
G01 X20.2662 Y10.1053
G00 Z2.0000
G00 X24.6530 Y12.3214
G01 F30.00
G01 Z-0.0900
G01 F60.00
G01 X24.6419 Y12.3449
G01 X24.6319 Y12.3689
G01 X24.6232 Y12.3933
G01 X24.6156 Y12.4182
G01 X24.6123 Y12.4308
G01 X24.6093 Y12.4434
G01 X24.6042 Y12.4689
G01 X24.6004 Y12.4946
G01 X24.5979 Y12.5205
G01 X24.5966 Y12.5465
G01 X24.5964 Y14.1648
G01 X24.5803 Y14.1656
G01 X24.5541 Y14.1681
G01 X24.4940 Y14.1765
G01 X24.4940 Y12.3020
G01 X24.6633 Y12.3020
G01 X24.6530 Y12.3214
G00 Z2.0000
G00 X25.1073 Y12.1793
G01 F30.00
G01 Z-0.0900
G01 F60.00
G01 X25.0794 Y12.1817
G01 X25.0609 Y12.1844
G01 X25.0426 Y12.1881
G01 X25.0155 Y12.1952
G01 X24.9978 Y12.2011
G01 X24.9804 Y12.2078
G01 X24.9549 Y12.2195
G01 X24.9384 Y12.2283
G01 X24.9224 Y12.2379
G01 X24.8993 Y12.2537
G01 X24.8845 Y12.2652
G01 X24.8704 Y12.2774
G01 X24.8503 Y12.2970
G01 X24.8378 Y12.3108
G01 X24.8259 Y12.3253
G01 X24.8148 Y12.3403
G01 X24.8044 Y12.3558
G01 X24.7903 Y12.3800
G01 X24.7780 Y12.4052
G01 X24.7709 Y12.4225
G01 X24.7646 Y12.4401
G01 X24.7568 Y12.4670
G01 X24.7510 Y12.4944
G01 X24.7482 Y12.5129
G01 X24.7464 Y12.5315
G01 X24.7454 Y12.5595
G01 X24.7454 Y14.3358
G01 X24.7214 Y14.3281
G01 X24.7031 Y14.3233
G01 X24.6753 Y14.3179
G01 X24.6566 Y14.3154
G01 X24.6377 Y14.3139
G01 X24.6094 Y14.3134
G01 X24.5905 Y14.3142
G01 X24.5717 Y14.3160
G01 X24.4827 Y14.3288
G01 X24.4641 Y14.3324
G01 X24.4458 Y14.3369
G01 X24.4187 Y14.3454
G01 X24.3924 Y14.3559
G01 X24.3669 Y14.3683
G01 X24.3451 Y14.3809
G01 X24.3451 Y12.2232
G01 X24.4152 Y12.1530
G01 X25.4605 Y12.1530
G01 X25.5148 Y12.1788
G01 X25.1260 Y12.1788
G01 X25.1073 Y12.1793
G00 Z2.0000
G00 X26.9056 Y12.0977
G01 F30.00
G01 Z-0.0900
G01 F60.00
G01 X26.9145 Y12.1246
G01 X26.9346 Y12.1788
G01 X26.7372 Y12.1788
G01 X26.7853 Y12.1561
G01 X26.8020 Y12.1477
G01 X26.8182 Y12.1385
G01 X26.9029 Y12.0877
G01 X26.9056 Y12.0977
G00 Z2.0000
G00 X26.6249 Y9.6852
G01 F30.00
G01 Z-0.0900
G01 F60.00
G01 X26.6257 Y9.7067
G01 X26.6268 Y9.7194
G01 X26.5779 Y9.7020
G01 X26.6249 Y9.6852
G00 Z2.0000
G00 X25.3834 Y9.7763
G01 F30.00
G01 Z-0.0900
G01 F60.00
G01 X25.3972 Y9.7515
G01 X25.4053 Y9.7345
G01 X25.4126 Y9.7170
G01 X25.4219 Y9.6902
G01 X25.4270 Y9.6720
G01 X25.4329 Y9.6443
G01 X25.4357 Y9.6256
G01 X25.4379 Y9.6009
G01 X25.4501 Y9.6077
G01 X25.4668 Y9.6161
G01 X25.5513 Y9.6561
G01 X25.5684 Y9.6636
G01 X25.5858 Y9.6704
G01 X25.6741 Y9.7020
G01 X25.5858 Y9.7336
G01 X25.5684 Y9.7403
G01 X25.5513 Y9.7479
G01 X25.4605 Y9.7909
G01 X25.3740 Y9.7909
G01 X25.3834 Y9.7763
G00 Z2.0000
G00 X24.9281 Y7.6655
G01 F30.00
G01 Z-0.0900
G01 F60.00
G01 X25.0664 Y7.4905
G01 X25.0687 Y7.4879
G01 X25.2337 Y7.3378
G01 X25.2365 Y7.3357
G01 X25.4238 Y7.2145
G01 X25.4268 Y7.2129
G01 X25.6314 Y7.1240
G01 X25.6347 Y7.1228
G01 X25.7893 Y7.0840
G01 X25.7893 Y7.4384
G01 X25.7742 Y7.4426
G01 X25.6824 Y7.4755
G01 X25.5941 Y7.5171
G01 X25.5870 Y7.5210
G01 X25.5034 Y7.5712
G01 X25.4250 Y7.6292
G01 X25.4187 Y7.6344
G01 X25.3479 Y7.6985
G01 X25.2783 Y7.7752
G01 X25.2166 Y7.8585
G01 X25.1646 Y7.9458
G01 X25.1221 Y8.0358
G01 X25.1007 Y8.0952
G01 X24.7390 Y8.0952
G01 X24.7425 Y8.0772
G01 X24.8170 Y7.8669
G01 X24.8184 Y7.8637
G01 X24.9262 Y7.6685
G01 X24.9281 Y7.6655
G00 Z2.0000
G00 X25.6403 Y7.2825
G01 F30.00
G01 Z-0.0900
G01 F60.00
G01 X25.6403 Y7.3323
G01 X25.6254 Y7.3379
G01 X25.6150 Y7.3425
G01 X25.5203 Y7.3876
G01 X25.4302 Y7.4413
G01 X25.4206 Y7.4473
G01 X25.4113 Y7.4539
G01 X25.3273 Y7.5166
G01 X25.3187 Y7.5240
G01 X25.2452 Y7.5906
G01 X25.2333 Y7.6029
G01 X25.1631 Y7.6807
G01 X25.1561 Y7.6897
G01 X25.0971 Y7.7694
G01 X25.0878 Y7.7837
G01 X25.0369 Y7.8688
G01 X25.0290 Y7.8839
G01 X24.9995 Y7.9463
G01 X24.9469 Y7.9463
G01 X24.9539 Y7.9265
G01 X25.0515 Y7.7496
G01 X25.1767 Y7.5911
G01 X25.3262 Y7.4551
G01 X25.4959 Y7.3453
G01 X25.6403 Y7.2825
G00 Z2.0000
G00 X27.0448 Y7.3588
G01 F30.00
G01 Z-0.0900
G01 F60.00
G01 X27.2061 Y7.5129
G01 X27.2084 Y7.5155
G01 X27.3423 Y7.6939
G01 X27.3442 Y7.6969
G01 X27.4472 Y7.8947
G01 X27.4485 Y7.8979
G01 X27.5130 Y8.0952
G01 X27.1513 Y8.0952
G01 X27.1300 Y8.0358
G01 X27.0875 Y7.9458
G01 X27.0354 Y7.8585
G01 X26.9738 Y7.7752
G01 X26.9041 Y7.6985
G01 X26.8334 Y7.6344
G01 X26.8271 Y7.6292
G01 X26.7487 Y7.5712
G01 X26.6651 Y7.5210
G01 X26.6579 Y7.5171
G01 X26.5697 Y7.4755
G01 X26.4779 Y7.4426
G01 X26.4628 Y7.4384
G01 X26.4628 Y7.0824
G01 X26.6492 Y7.1341
G01 X26.6525 Y7.1353
G01 X26.8548 Y7.2292
G01 X26.8578 Y7.2309
G01 X27.0421 Y7.3566
G01 X27.0448 Y7.3588
G00 Z2.0000
G00 X27.2525 Y7.9463
G01 F30.00
G01 Z-0.0900
G01 F60.00
G01 X27.2179 Y7.8737
G01 X27.1642 Y7.7837
G01 X27.1582 Y7.7741
G01 X27.1516 Y7.7648
G01 X27.0889 Y7.6807
G01 X27.0815 Y7.6721
G01 X27.0149 Y7.5987
G01 X27.0026 Y7.5868
G01 X26.9248 Y7.5166
G01 X26.8407 Y7.4539
G01 X26.8314 Y7.4473
G01 X26.8218 Y7.4413
G01 X26.7318 Y7.3876
G01 X26.6371 Y7.3425
G01 X26.6267 Y7.3379
G01 X26.6117 Y7.3323
G01 X26.6117 Y7.2806
G01 X26.7826 Y7.3599
G01 X26.9495 Y7.4737
G01 X27.0956 Y7.6133
G01 X27.2169 Y7.7749
G01 X27.3061 Y7.9463
G01 X27.2525 Y7.9463
G00 Z2.0000
G00 X27.1362 Y14.5466
G01 F30.00
G01 Z-0.0900
G01 F60.00
G01 X27.1260 Y14.5472
G01 X25.1260 Y14.5472
G01 X25.1179 Y14.5468
G01 X25.1099 Y14.5456
G01 X25.1020 Y14.5437
G01 X25.0944 Y14.5409
G01 X25.0870 Y14.5375
G01 X25.0801 Y14.5333
G01 X25.0735 Y14.5284
G01 X25.0675 Y14.5230
G01 X25.0621 Y14.5170
G01 X25.0572 Y14.5104
G01 X25.0530 Y14.5035
G01 X25.0496 Y14.4961
G01 X25.0468 Y14.4885
G01 X25.0449 Y14.4806
G01 X25.0437 Y14.4726
G01 X25.0433 Y14.4645
G01 X25.0433 Y12.5574
G01 X25.0439 Y12.5493
G01 X25.0453 Y12.5413
G01 X25.0475 Y12.5335
G01 X25.0504 Y12.5259
G01 X25.0540 Y12.5187
G01 X25.0572 Y12.5135
G01 X25.0621 Y12.5070
G01 X25.0675 Y12.5010
G01 X25.0735 Y12.4955
G01 X25.0801 Y12.4907
G01 X25.0870 Y12.4865
G01 X25.0944 Y12.4830
G01 X25.1020 Y12.4803
G01 X25.1099 Y12.4783
G01 X25.1179 Y12.4771
G01 X25.1260 Y12.4767
G01 X27.1260 Y12.4767
G01 X27.1341 Y12.4771
G01 X27.1422 Y12.4783
G01 X27.1500 Y12.4803
G01 X27.1577 Y12.4830
G01 X27.1650 Y12.4865
G01 X27.1720 Y12.4907
G01 X27.1785 Y12.4955
G01 X27.1845 Y12.5010
G01 X27.1900 Y12.5070
G01 X27.1937 Y12.5118
G01 X27.1980 Y12.5187
G01 X27.2017 Y12.5259
G01 X27.2046 Y12.5335
G01 X27.2068 Y12.5413
G01 X27.2082 Y12.5493
G01 X27.2087 Y12.5574
G01 X27.2087 Y14.4665
G01 X27.2084 Y14.4726
G01 X27.2072 Y14.4806
G01 X27.2058 Y14.4865
G01 X27.2032 Y14.4943
G01 X27.1999 Y14.5017
G01 X27.1959 Y14.5087
G01 X27.1925 Y14.5138
G01 X27.1873 Y14.5200
G01 X27.1816 Y14.5258
G01 X27.1753 Y14.5309
G01 X27.1703 Y14.5344
G01 X27.1632 Y14.5384
G01 X27.1558 Y14.5417
G01 X27.1500 Y14.5437
G01 X27.1422 Y14.5456
G01 X27.1362 Y14.5466
G00 Z2.0000
G00 X27.1544 Y14.6944
G01 F30.00
G01 Z-0.0900
G01 F60.00
G01 X27.1374 Y14.6959
G01 X27.1260 Y14.6962
G01 X25.1203 Y14.6961
G01 X25.1090 Y14.6955
G01 X25.0977 Y14.6944
G01 X25.0864 Y14.6928
G01 X25.0753 Y14.6905
G01 X25.0642 Y14.6878
G01 X25.0533 Y14.6845
G01 X25.0426 Y14.6806
G01 X25.0321 Y14.6763
G01 X25.0219 Y14.6714
G01 X25.0118 Y14.6661
G01 X25.0021 Y14.6602
G01 X24.9926 Y14.6539
G01 X24.9835 Y14.6471
G01 X24.9747 Y14.6399
G01 X24.9663 Y14.6323
G01 X24.9582 Y14.6242
G01 X24.9469 Y14.6115
G01 X24.9399 Y14.6025
G01 X24.9334 Y14.5932
G01 X24.9273 Y14.5836
G01 X24.9217 Y14.5737
G01 X24.9166 Y14.5635
G01 X24.9120 Y14.5531
G01 X24.9079 Y14.5425
G01 X24.9043 Y14.5317
G01 X24.9013 Y14.5208
G01 X24.8988 Y14.5097
G01 X24.8968 Y14.4985
G01 X24.8954 Y14.4872
G01 X24.8944 Y14.4702
G01 X24.8943 Y12.5595
G01 X24.8946 Y12.5481
G01 X24.8954 Y12.5368
G01 X24.8968 Y12.5255
G01 X24.8988 Y12.5143
G01 X24.9013 Y12.5032
G01 X24.9043 Y12.4922
G01 X24.9099 Y12.4761
G01 X24.9142 Y12.4656
G01 X24.9191 Y12.4553
G01 X24.9244 Y12.4453
G01 X24.9303 Y12.4355
G01 X24.9366 Y12.4261
G01 X24.9434 Y12.4169
G01 X24.9506 Y12.4081
G01 X24.9582 Y12.3997
G01 X24.9663 Y12.3917
G01 X24.9747 Y12.3840
G01 X24.9835 Y12.3768
G01 X24.9926 Y12.3700
G01 X25.0021 Y12.3637
G01 X25.0168 Y12.3551
G01 X25.0270 Y12.3500
G01 X25.0374 Y12.3454
G01 X25.0533 Y12.3395
G01 X25.0642 Y12.3362
G01 X25.0753 Y12.3334
G01 X25.0864 Y12.3312
G01 X25.0977 Y12.3295
G01 X25.1090 Y12.3284
G01 X25.1203 Y12.3278
G01 X27.1260 Y12.3278
G01 X27.1374 Y12.3281
G01 X27.1544 Y12.3295
G01 X27.1656 Y12.3312
G01 X27.1768 Y12.3334
G01 X27.1878 Y12.3362
G01 X27.1987 Y12.3395
G01 X27.2094 Y12.3433
G01 X27.2199 Y12.3477
G01 X27.2302 Y12.3525
G01 X27.2402 Y12.3579
G01 X27.2500 Y12.3637
G01 X27.2594 Y12.3700
G01 X27.2686 Y12.3768
G01 X27.2774 Y12.3840
G01 X27.2858 Y12.3917
G01 X27.2938 Y12.3997
G01 X27.3015 Y12.4081
G01 X27.3087 Y12.4169
G01 X27.3155 Y12.4261
G01 X27.3218 Y12.4355
G01 X27.3276 Y12.4453
G01 X27.3330 Y12.4553
G01 X27.3401 Y12.4708
G01 X27.3442 Y12.4814
G01 X27.3477 Y12.4922
G01 X27.3508 Y12.5032
G01 X27.3533 Y12.5143
G01 X27.3560 Y12.5311
G01 X27.3571 Y12.5424
G01 X27.3577 Y12.5538
G01 X27.3577 Y14.4645
G01 X27.3574 Y14.4758
G01 X27.3566 Y14.4872
G01 X27.3552 Y14.4985
G01 X27.3521 Y14.5152
G01 X27.3493 Y14.5263
G01 X27.3460 Y14.5372
G01 X27.3401 Y14.5531
G01 X27.3330 Y14.5686
G01 X27.3276 Y14.5787
G01 X27.3218 Y14.5884
G01 X27.3155 Y14.5979
G01 X27.3087 Y14.6070
G01 X27.2977 Y14.6201
G01 X27.2899 Y14.6283
G01 X27.2816 Y14.6362
G01 X27.2686 Y14.6471
G01 X27.2594 Y14.6539
G01 X27.2500 Y14.6602
G01 X27.2402 Y14.6661
G01 X27.2302 Y14.6714
G01 X27.2199 Y14.6763
G01 X27.2094 Y14.6806
G01 X27.1933 Y14.6862
G01 X27.1768 Y14.6905
G01 X27.1656 Y14.6928
G01 X27.1544 Y14.6944
G00 Z2.0000
G00 X29.0261 Y16.5429
G01 F30.00
G01 Z-0.0900
G01 F60.00
G01 X29.0443 Y16.5379
G01 X29.0623 Y16.5320
G01 X29.0886 Y16.5215
G01 X29.1057 Y16.5134
G01 X29.1224 Y16.5045
G01 X29.1386 Y16.4948
G01 X29.1543 Y16.4843
G01 X29.1768 Y16.4671
G01 X29.2448 Y16.4082
G01 X29.2650 Y16.3884
G01 X29.2777 Y16.3743
G01 X29.2896 Y16.3597
G01 X29.3061 Y16.3366
G01 X29.3161 Y16.3206
G01 X29.3253 Y16.3041
G01 X29.3376 Y16.2785
G01 X29.3479 Y16.2521
G01 X29.3537 Y16.2341
G01 X29.3737 Y16.1660
G01 X29.3804 Y16.1396
G01 X29.3838 Y16.1218
G01 X29.3864 Y16.1039
G01 X29.3881 Y16.0859
G01 X29.3890 Y16.0678
G01 X29.3891 Y5.2566
G01 X49.7098 Y5.2566
G01 X49.7098 Y16.6873
G01 X30.0041 Y16.6876
G01 X29.9857 Y16.6883
G01 X29.9670 Y16.6899
G01 X29.9391 Y16.6941
G01 X29.9207 Y16.6980
G01 X29.9025 Y16.7028
G01 X29.8757 Y16.7116
G01 X29.8004 Y16.7399
G01 X29.7745 Y16.7514
G01 X29.7577 Y16.7602
G01 X29.7414 Y16.7697
G01 X29.7256 Y16.7801
G01 X29.7029 Y16.7971
G01 X29.6885 Y16.8093
G01 X29.6747 Y16.8223
G01 X29.6616 Y16.8359
G01 X29.6492 Y16.8501
G01 X29.6375 Y16.8650
G01 X29.5949 Y16.9218
G01 X29.5788 Y16.9451
G01 X29.5690 Y16.9613
G01 X29.5601 Y16.9780
G01 X29.5482 Y17.0037
G01 X29.5383 Y17.0303
G01 X29.5328 Y17.0484
G01 X29.5289 Y17.0636
G01 X29.0115 Y16.5461
G01 X29.0261 Y16.5429
G00 Z2.0000
G00 X29.2816 Y16.5736
G01 F30.00
G01 Z-0.0900
G01 F60.00
G01 X29.3353 Y16.5271
G01 X29.3547 Y16.5094
G01 X29.3732 Y16.4907
G01 X29.3908 Y16.4712
G01 X29.4074 Y16.4508
G01 X29.4154 Y16.4402
G01 X29.4304 Y16.4187
G01 X29.4443 Y16.3964
G01 X29.4509 Y16.3850
G01 X29.4631 Y16.3617
G01 X29.4742 Y16.3378
G01 X29.4841 Y16.3134
G01 X29.4886 Y16.3011
G01 X29.4966 Y16.2760
G01 X29.5200 Y16.1958
G01 X29.5259 Y16.1713
G01 X29.5285 Y16.1589
G01 X29.5327 Y16.1341
G01 X29.5357 Y16.1091
G01 X29.5374 Y16.0839
G01 X29.5379 Y16.0713
G01 X29.5380 Y5.4056
G01 X49.5609 Y5.4056
G01 X49.5608 Y16.5384
G01 X30.0177 Y16.5384
G01 X29.9988 Y16.5387
G01 X29.9767 Y16.5397
G01 X29.9507 Y16.5419
G01 X29.9377 Y16.5435
G01 X29.9118 Y16.5476
G01 X29.8862 Y16.5531
G01 X29.8735 Y16.5562
G01 X29.8484 Y16.5635
G01 X29.8360 Y16.5677
G01 X29.7571 Y16.5969
G01 X29.7449 Y16.6016
G01 X29.7207 Y16.6121
G01 X29.6971 Y16.6236
G01 X29.6855 Y16.6299
G01 X29.6628 Y16.6432
G01 X29.6408 Y16.6576
G01 X29.6196 Y16.6731
G01 X29.6093 Y16.6813
G01 X29.5991 Y16.6897
G01 X29.5795 Y16.7072
G01 X29.5701 Y16.7163
G01 X29.5518 Y16.7352
G01 X29.5345 Y16.7551
G01 X29.5182 Y16.7757
G01 X29.4897 Y16.8138
G01 X29.2640 Y16.5881
G01 X29.2816 Y16.5736
G00 Z2.0000
G00 X29.4929 Y16.5807
G01 F30.00
G01 Z-0.0900
G01 F60.00
G01 X29.5148 Y16.5551
G01 X29.5253 Y16.5419
G01 X29.5452 Y16.5147
G01 X29.5638 Y16.4866
G01 X29.5809 Y16.4576
G01 X29.5966 Y16.4277
G01 X29.6108 Y16.3972
G01 X29.6235 Y16.3659
G01 X29.6346 Y16.3341
G01 X29.6395 Y16.3180
G01 X29.6639 Y16.2343
G01 X29.6715 Y16.2029
G01 X29.6776 Y16.1712
G01 X29.6822 Y16.1393
G01 X29.6853 Y16.1071
G01 X29.6868 Y16.0749
G01 X29.6870 Y5.5545
G01 X49.4119 Y5.5545
G01 X49.4119 Y16.3894
G01 X30.0177 Y16.3894
G01 X29.9845 Y16.3902
G01 X29.9510 Y16.3922
G01 X29.9177 Y16.3959
G01 X29.8846 Y16.4012
G01 X29.8518 Y16.4081
G01 X29.8193 Y16.4167
G01 X29.8033 Y16.4216
G01 X29.7716 Y16.4325
G01 X29.7051 Y16.4573
G01 X29.6738 Y16.4699
G01 X29.6432 Y16.4840
G01 X29.6133 Y16.4996
G01 X29.5987 Y16.5079
G01 X29.5701 Y16.5257
G01 X29.5423 Y16.5449
G01 X29.5156 Y16.5654
G01 X29.5026 Y16.5762
G01 X29.4815 Y16.5949
G01 X29.4806 Y16.5940
G01 X29.4929 Y16.5807
G00 Z2.0000
G00 X27.5466 Y20.9182
G01 F30.00
G01 Z-0.0900
G01 F60.00
G01 X27.7564 Y20.9366
G01 X27.7601 Y20.9372
G01 X27.9636 Y20.9917
G01 X27.9671 Y20.9930
G01 X28.1419 Y21.0745
G01 X27.8836 Y21.3329
G01 X27.8010 Y21.3032
G01 X27.7169 Y21.2822
G01 X27.6312 Y21.2695
G01 X27.5447 Y21.2652
G01 X27.4582 Y21.2695
G01 X27.3725 Y21.2822
G01 X27.2885 Y21.3032
G01 X27.2059 Y21.3329
G01 X26.9475 Y21.0745
G01 X27.1224 Y20.9930
G01 X27.1259 Y20.9917
G01 X27.3293 Y20.9372
G01 X27.3330 Y20.9366
G01 X27.5429 Y20.9182
G01 X27.5466 Y20.9182
G00 Z2.0000
G00 X27.8442 Y21.1607
G01 F30.00
G01 Z-0.0900
G01 F60.00
G01 X27.7571 Y21.1386
G01 X27.7460 Y21.1361
G01 X27.7348 Y21.1342
G01 X27.6458 Y21.1212
G01 X27.5561 Y21.1166
G01 X27.5447 Y21.1163
G01 X27.5334 Y21.1166
G01 X27.4436 Y21.1212
G01 X27.3547 Y21.1342
G01 X27.3434 Y21.1361
G01 X27.3324 Y21.1386
G01 X27.2562 Y21.1577
G01 X27.2445 Y21.1609
G01 X27.2077 Y21.1240
G01 X27.3571 Y21.0840
G01 X27.5447 Y21.0676
G01 X27.7323 Y21.0840
G01 X27.8818 Y21.1240
G01 X27.8449 Y21.1609
G01 X27.8442 Y21.1607
G00 Z2.0000
G00 X28.3895 Y22.4042
G01 F30.00
G01 Z-0.0900
G01 F60.00
G01 X28.4105 Y22.3202
G01 X28.4232 Y22.2345
G01 X28.4275 Y22.1480
G01 X28.4235 Y22.0655
G01 X28.4227 Y22.0574
G01 X28.4112 Y21.9798
G01 X28.4096 Y21.9718
G01 X28.3895 Y21.8917
G01 X28.3598 Y21.8091
G01 X28.6182 Y21.5508
G01 X28.6997 Y21.7256
G01 X28.7010 Y21.7291
G01 X28.7555 Y21.9326
G01 X28.7561 Y21.9363
G01 X28.7745 Y22.1461
G01 X28.7745 Y22.1498
G01 X28.7561 Y22.3597
G01 X28.7555 Y22.3634
G01 X28.7010 Y22.5668
G01 X28.6997 Y22.5703
G01 X28.6182 Y22.7452
G01 X28.3598 Y22.4868
G01 X28.3895 Y22.4042
G00 Z2.0000
G00 X28.5566 Y22.3492
G01 F30.00
G01 Z-0.0900
G01 F60.00
G01 X28.5701 Y22.2604
G01 X28.5715 Y22.2491
G01 X28.5723 Y22.2378
G01 X28.5764 Y22.1480
G01 X28.5723 Y22.0582
G01 X28.5715 Y22.0469
G01 X28.5701 Y22.0356
G01 X28.5566 Y21.9467
G01 X28.5350 Y21.8594
G01 X28.5318 Y21.8478
G01 X28.5687 Y21.8109
G01 X28.6087 Y21.9604
G01 X28.6251 Y22.1480
G01 X28.6087 Y22.3356
G01 X28.5687 Y22.4850
G01 X28.5318 Y22.4481
G01 X28.5350 Y22.4365
G01 X28.5566 Y22.3492
G00 Z2.0000
G00 X27.2865 Y22.9921
G01 F30.00
G01 Z-0.0900
G01 F60.00
G01 X27.3725 Y23.0138
G01 X27.4542 Y23.0260
G01 X27.4622 Y23.0268
G01 X27.5407 Y23.0306
G01 X27.5488 Y23.0306
G01 X27.6312 Y23.0265
G01 X27.7169 Y23.0138
G01 X27.8010 Y22.9927
G01 X27.8836 Y22.9631
G01 X28.1419 Y23.2214
G01 X27.9671 Y23.3029
G01 X27.9636 Y23.3042
G01 X27.7601 Y23.3587
G01 X27.7564 Y23.3594
G01 X27.5466 Y23.3777
G01 X27.5429 Y23.3777
G01 X27.3330 Y23.3594
G01 X27.3293 Y23.3587
G01 X27.1259 Y23.3042
G01 X27.1224 Y23.3029
G01 X26.9475 Y23.2214
G01 X27.2059 Y22.9631
G01 X27.2865 Y22.9921
G00 Z2.0000
G00 X27.3379 Y23.1587
G01 F30.00
G01 Z-0.0900
G01 F60.00
G01 X27.3547 Y23.1618
G01 X27.4436 Y23.1747
G01 X27.5334 Y23.1794
G01 X27.5447 Y23.1797
G01 X27.5561 Y23.1794
G01 X27.6458 Y23.1747
G01 X27.7348 Y23.1618
G01 X27.7460 Y23.1599
G01 X27.7571 Y23.1574
G01 X27.8332 Y23.1383
G01 X27.8449 Y23.1350
G01 X27.8818 Y23.1719
G01 X27.7323 Y23.2120
G01 X27.5447 Y23.2284
G01 X27.3571 Y23.2120
G01 X27.2077 Y23.1719
G01 X27.2445 Y23.1350
G01 X27.2562 Y23.1383
G01 X27.3379 Y23.1587
G00 Z2.0000
G00 X26.5340 Y21.9411
G01 F30.00
G01 Z-0.0900
G01 F60.00
G01 X26.5309 Y21.9579
G01 X26.5180 Y22.0469
G01 X26.5133 Y22.1366
G01 X26.5130 Y22.1480
G01 X26.5133 Y22.1593
G01 X26.5180 Y22.2491
G01 X26.5309 Y22.3380
G01 X26.5328 Y22.3492
G01 X26.5353 Y22.3603
G01 X26.5544 Y22.4365
G01 X26.5577 Y22.4481
G01 X26.5208 Y22.4850
G01 X26.4807 Y22.3356
G01 X26.4643 Y22.1480
G01 X26.4807 Y21.9604
G01 X26.5208 Y21.8109
G01 X26.5577 Y21.8478
G01 X26.5544 Y21.8594
G01 X26.5340 Y21.9411
G00 Z2.0000
G00 X26.4713 Y21.5508
G01 F30.00
G01 Z-0.0900
G01 F60.00
G01 X26.7296 Y21.8091
G01 X26.7000 Y21.8917
G01 X26.6789 Y21.9758
G01 X26.6662 Y22.0615
G01 X26.6620 Y22.1480
G01 X26.6662 Y22.2345
G01 X26.6789 Y22.3202
G01 X26.7000 Y22.4042
G01 X26.7296 Y22.4868
G01 X26.4713 Y22.7452
G01 X26.3898 Y22.5703
G01 X26.3885 Y22.5668
G01 X26.3340 Y22.3634
G01 X26.3333 Y22.3597
G01 X26.3150 Y22.1498
G01 X26.3150 Y22.1461
G01 X26.3333 Y21.9363
G01 X26.3340 Y21.9326
G01 X26.3885 Y21.7291
G01 X26.3898 Y21.7256
G01 X26.4713 Y21.5508
G00 Z2.0000
G00 X24.5549 Y23.0301
G01 F30.00
G01 Z-0.0900
G01 F60.00
G01 X24.5447 Y23.0307
G01 X22.9427 Y23.0307
G01 X22.9346 Y23.0301
G01 X22.9266 Y23.0287
G01 X22.9188 Y23.0265
G01 X22.9112 Y23.0236
G01 X22.9039 Y23.0200
G01 X22.8971 Y23.0156
G01 X22.8907 Y23.0106
G01 X22.8848 Y23.0050
G01 X22.8795 Y22.9989
G01 X22.8748 Y22.9922
G01 X22.8717 Y22.9870
G01 X22.8683 Y22.9796
G01 X22.8655 Y22.9720
G01 X22.8636 Y22.9641
G01 X22.8624 Y22.9561
G01 X22.8620 Y22.9500
G01 X22.8620 Y21.3480
G01 X22.8624 Y21.3399
G01 X22.8636 Y21.3318
G01 X22.8655 Y21.3240
G01 X22.8683 Y21.3163
G01 X22.8727 Y21.3072
G01 X22.8771 Y21.3003
G01 X22.8821 Y21.2939
G01 X22.8877 Y21.2880
G01 X22.8938 Y21.2827
G01 X22.9005 Y21.2781
G01 X22.9075 Y21.2741
G01 X22.9131 Y21.2715
G01 X22.9207 Y21.2688
G01 X22.9286 Y21.2668
G01 X22.9366 Y21.2656
G01 X22.9427 Y21.2653
G01 X24.5447 Y21.2652
G01 X24.5528 Y21.2656
G01 X24.5609 Y21.2668
G01 X24.5687 Y21.2688
G01 X24.5783 Y21.2723
G01 X24.5855 Y21.2760
G01 X24.5924 Y21.2803
G01 X24.5988 Y21.2853
G01 X24.6047 Y21.2909
G01 X24.6087 Y21.2955
G01 X24.6135 Y21.3020
G01 X24.6177 Y21.3090
G01 X24.6212 Y21.3163
G01 X24.6239 Y21.3240
G01 X24.6259 Y21.3318
G01 X24.6271 Y21.3399
G01 X24.6274 Y21.3459
G01 X24.6274 Y22.9500
G01 X24.6269 Y22.9581
G01 X24.6255 Y22.9661
G01 X24.6239 Y22.9720
G01 X24.6212 Y22.9796
G01 X24.6177 Y22.9870
G01 X24.6146 Y22.9922
G01 X24.6112 Y22.9973
G01 X24.6060 Y23.0035
G01 X24.6018 Y23.0079
G01 X24.5956 Y23.0132
G01 X24.5907 Y23.0168
G01 X24.5837 Y23.0210
G01 X24.5764 Y23.0244
G01 X24.5687 Y23.0272
G01 X24.5629 Y23.0287
G01 X24.5549 Y23.0301
G00 Z2.0000
G00 X24.5731 Y23.1779
G01 F30.00
G01 Z-0.0900
G01 F60.00
G01 X24.5561 Y23.1794
G01 X24.5447 Y23.1797
G01 X22.9447 Y23.1797
G01 X22.9334 Y23.1794
G01 X22.9220 Y23.1786
G01 X22.9107 Y23.1772
G01 X22.8995 Y23.1752
G01 X22.8884 Y23.1727
G01 X22.8775 Y23.1697
G01 X22.8667 Y23.1661
G01 X22.8561 Y23.1620
G01 X22.8457 Y23.1574
G01 X22.8355 Y23.1523
G01 X22.8256 Y23.1467
G01 X22.8160 Y23.1406
G01 X22.8067 Y23.1341
G01 X22.7977 Y23.1271
G01 X22.7891 Y23.1197
G01 X22.7809 Y23.1118
G01 X22.7730 Y23.1036
G01 X22.7656 Y23.0950
G01 X22.7586 Y23.0860
G01 X22.7521 Y23.0767
G01 X22.7460 Y23.0671
G01 X22.7378 Y23.0521
G01 X22.7329 Y23.0419
G01 X22.7285 Y23.0314
G01 X22.7247 Y23.0207
G01 X22.7214 Y23.0098
G01 X22.7175 Y22.9932
G01 X22.7148 Y22.9763
G01 X22.7137 Y22.9650
G01 X22.7131 Y22.9537
G01 X22.7130 Y21.3480
G01 X22.7133 Y21.3366
G01 X22.7141 Y21.3253
G01 X22.7155 Y21.3140
G01 X22.7175 Y21.3028
G01 X22.7200 Y21.2917
G01 X22.7247 Y21.2753
G01 X22.7285 Y21.2646
G01 X22.7329 Y21.2541
G01 X22.7378 Y21.2438
G01 X22.7431 Y21.2338
G01 X22.7521 Y21.2192
G01 X22.7586 Y21.2100
G01 X22.7656 Y21.2010
G01 X22.7730 Y21.1924
G01 X22.7809 Y21.1841
G01 X22.7891 Y21.1763
G01 X22.7977 Y21.1689
G01 X22.8067 Y21.1619
G01 X22.8208 Y21.1522
G01 X22.8355 Y21.1436
G01 X22.8457 Y21.1385
G01 X22.8561 Y21.1339
G01 X22.8667 Y21.1298
G01 X22.8775 Y21.1263
G01 X22.8884 Y21.1232
G01 X22.8995 Y21.1207
G01 X22.9164 Y21.1180
G01 X22.9277 Y21.1169
G01 X22.9390 Y21.1163
G01 X24.5447 Y21.1163
G01 X24.5561 Y21.1166
G01 X24.5674 Y21.1174
G01 X24.5787 Y21.1188
G01 X24.5899 Y21.1207
G01 X24.6010 Y21.1232
G01 X24.6120 Y21.1263
G01 X24.6228 Y21.1298
G01 X24.6386 Y21.1362
G01 X24.6539 Y21.1436
G01 X24.6638 Y21.1492
G01 X24.6734 Y21.1553
G01 X24.6827 Y21.1619
G01 X24.6917 Y21.1689
G01 X24.7003 Y21.1763
G01 X24.7086 Y21.1841
G01 X24.7164 Y21.1924
G01 X24.7274 Y21.2054
G01 X24.7342 Y21.2146
G01 X24.7405 Y21.2240
G01 X24.7463 Y21.2338
G01 X24.7517 Y21.2438
G01 X24.7588 Y21.2593
G01 X24.7647 Y21.2753
G01 X24.7680 Y21.2862
G01 X24.7708 Y21.2972
G01 X24.7730 Y21.3084
G01 X24.7747 Y21.3196
G01 X24.7758 Y21.3309
G01 X24.7764 Y21.3423
G01 X24.7764 Y22.9480
G01 X24.7758 Y22.9650
G01 X24.7747 Y22.9763
G01 X24.7730 Y22.9876
G01 X24.7695 Y23.0043
G01 X24.7647 Y23.0207
G01 X24.7609 Y23.0314
G01 X24.7565 Y23.0419
G01 X24.7491 Y23.0572
G01 X24.7435 Y23.0671
G01 X24.7374 Y23.0767
G01 X24.7308 Y23.0860
G01 X24.7238 Y23.0950
G01 X24.7125 Y23.1077
G01 X24.7045 Y23.1158
G01 X24.6961 Y23.1234
G01 X24.6827 Y23.1341
G01 X24.6687 Y23.1437
G01 X24.6589 Y23.1496
G01 X24.6489 Y23.1549
G01 X24.6386 Y23.1598
G01 X24.6281 Y23.1641
G01 X24.6120 Y23.1697
G01 X24.5955 Y23.1740
G01 X24.5843 Y23.1763
G01 X24.5731 Y23.1779
G00 Z2.0000
G00 X22.8884 Y21.0734
G01 F30.00
G01 Z-0.0900
G01 F60.00
G01 X22.9091 Y21.0712
G01 X24.5803 Y21.0712
G01 X24.6010 Y21.0734
G01 X24.6790 Y21.1027
G01 X24.7425 Y21.1502
G01 X24.7900 Y21.2137
G01 X24.8193 Y21.2917
G01 X24.8215 Y21.3124
G01 X24.8215 Y22.9836
G01 X24.8193 Y23.0043
G01 X24.7900 Y23.0823
G01 X24.7425 Y23.1457
G01 X24.6790 Y23.1933
G01 X24.6010 Y23.2225
G01 X24.5803 Y23.2248
G01 X22.9091 Y23.2248
G01 X22.8884 Y23.2225
G01 X22.8104 Y23.1933
G01 X22.7470 Y23.1457
G01 X22.6994 Y23.0823
G01 X22.6702 Y23.0043
G01 X22.6679 Y22.9836
G01 X22.6679 Y21.3124
G01 X22.6702 Y21.2917
G01 X22.6994 Y21.2137
G01 X22.7470 Y21.1502
G01 X22.8104 Y21.1027
G01 X22.8884 Y21.0734
G00 Z2.0000
G00 X22.8537 Y20.9274
G01 F30.00
G01 Z-0.0900
G01 F60.00
G01 X22.9011 Y20.9222
G01 X24.5884 Y20.9222
G01 X24.6357 Y20.9274
G01 X24.7513 Y20.9707
G01 X24.8489 Y21.0438
G01 X24.9220 Y21.1414
G01 X24.9653 Y21.2570
G01 X24.9705 Y21.3043
G01 X24.9705 Y22.9916
G01 X24.9653 Y23.0390
G01 X24.9220 Y23.1545
G01 X24.8489 Y23.2521
G01 X24.7513 Y23.3253
G01 X24.6357 Y23.3686
G01 X24.5884 Y23.3737
G01 X22.9011 Y23.3737
G01 X22.8537 Y23.3686
G01 X22.7382 Y23.3253
G01 X22.6406 Y23.2521
G01 X22.5674 Y23.1545
G01 X22.5241 Y23.0390
G01 X22.5190 Y22.9916
G01 X22.5190 Y21.3043
G01 X22.5241 Y21.2570
G01 X22.5674 Y21.1414
G01 X22.6406 Y21.0438
G01 X22.7382 Y20.9707
G01 X22.8537 Y20.9274
G00 Z2.0000
G00 X19.7292 Y23.2601
G01 F30.00
G01 Z-0.0900
G01 F60.00
G01 X19.7190 Y23.2607
G01 X17.7170 Y23.2607
G01 X17.7049 Y23.2595
G01 X17.6950 Y23.2572
G01 X17.6836 Y23.2528
G01 X17.6731 Y23.2468
G01 X17.6650 Y23.2406
G01 X17.6564 Y23.2320
G01 X17.6491 Y23.2222
G01 X17.6434 Y23.2115
G01 X17.6405 Y23.2039
G01 X17.6383 Y23.1961
G01 X17.6367 Y23.1861
G01 X17.6363 Y23.1780
G01 X17.6363 Y18.5780
G01 X17.6372 Y18.5658
G01 X17.6398 Y18.5540
G01 X17.6442 Y18.5426
G01 X17.6502 Y18.5320
G01 X17.6577 Y18.5224
G01 X17.6665 Y18.5140
G01 X17.6748 Y18.5081
G01 X17.6855 Y18.5023
G01 X17.6931 Y18.4994
G01 X17.7009 Y18.4972
G01 X17.7109 Y18.4956
G01 X17.7190 Y18.4952
G01 X19.7211 Y18.4953
G01 X19.7312 Y18.4961
G01 X19.7430 Y18.4988
G01 X19.7544 Y18.5032
G01 X19.7650 Y18.5092
G01 X19.7746 Y18.5167
G01 X19.7830 Y18.5255
G01 X19.7900 Y18.5354
G01 X19.7947 Y18.5444
G01 X19.7976 Y18.5520
G01 X19.7998 Y18.5598
G01 X19.8014 Y18.5699
G01 X19.8018 Y18.5780
G01 X19.8017 Y23.1800
G01 X19.8014 Y23.1861
G01 X19.8002 Y23.1941
G01 X19.7988 Y23.2000
G01 X19.7962 Y23.2078
G01 X19.7938 Y23.2134
G01 X19.7900 Y23.2205
G01 X19.7855 Y23.2273
G01 X19.7803 Y23.2335
G01 X19.7746 Y23.2393
G01 X19.7699 Y23.2432
G01 X19.7650 Y23.2468
G01 X19.7580 Y23.2510
G01 X19.7507 Y23.2544
G01 X19.7430 Y23.2572
G01 X19.7372 Y23.2587
G01 X19.7292 Y23.2601
G00 Z2.0000
G00 X19.7474 Y23.4079
G01 F30.00
G01 Z-0.0900
G01 F60.00
G01 X19.7304 Y23.4094
G01 X19.7190 Y23.4097
G01 X17.7190 Y23.4097
G01 X17.7020 Y23.4090
G01 X17.6850 Y23.4072
G01 X17.6683 Y23.4040
G01 X17.6572 Y23.4013
G01 X17.6410 Y23.3961
G01 X17.6251 Y23.3898
G01 X17.6098 Y23.3823
G01 X17.5951 Y23.3737
G01 X17.5810 Y23.3641
G01 X17.5677 Y23.3534
G01 X17.5552 Y23.3418
G01 X17.5473 Y23.3336
G01 X17.5364 Y23.3205
G01 X17.5264 Y23.3067
G01 X17.5203 Y23.2971
G01 X17.5121 Y23.2821
G01 X17.5050 Y23.2666
G01 X17.5009 Y23.2560
G01 X17.4973 Y23.2452
G01 X17.4943 Y23.2343
G01 X17.4918 Y23.2232
G01 X17.4898 Y23.2120
G01 X17.4884 Y23.2007
G01 X17.4876 Y23.1893
G01 X17.4873 Y23.1780
G01 X17.4874 Y18.5723
G01 X17.4884 Y18.5553
G01 X17.4907 Y18.5384
G01 X17.4943 Y18.5217
G01 X17.4990 Y18.5053
G01 X17.5050 Y18.4893
G01 X17.5121 Y18.4738
G01 X17.5203 Y18.4589
G01 X17.5296 Y18.4446
G01 X17.5399 Y18.4310
G01 X17.5512 Y18.4182
G01 X17.5634 Y18.4063
G01 X17.5765 Y18.3953
G01 X17.5903 Y18.3853
G01 X17.5999 Y18.3792
G01 X17.6149 Y18.3710
G01 X17.6304 Y18.3639
G01 X17.6410 Y18.3598
G01 X17.6518 Y18.3563
G01 X17.6627 Y18.3532
G01 X17.6738 Y18.3507
G01 X17.6850 Y18.3488
G01 X17.6963 Y18.3474
G01 X17.7077 Y18.3466
G01 X17.7190 Y18.3463
G01 X19.7190 Y18.3463
G01 X19.7304 Y18.3466
G01 X19.7474 Y18.3480
G01 X19.7586 Y18.3497
G01 X19.7753 Y18.3532
G01 X19.7917 Y18.3580
G01 X19.8077 Y18.3639
G01 X19.8232 Y18.3710
G01 X19.8381 Y18.3792
G01 X19.8524 Y18.3885
G01 X19.8660 Y18.3989
G01 X19.8788 Y18.4102
G01 X19.8907 Y18.4224
G01 X19.9017 Y18.4354
G01 X19.9117 Y18.4492
G01 X19.9206 Y18.4638
G01 X19.9285 Y18.4789
G01 X19.9331 Y18.4893
G01 X19.9372 Y18.4999
G01 X19.9407 Y18.5107
G01 X19.9438 Y18.5217
G01 X19.9463 Y18.5328
G01 X19.9482 Y18.5440
G01 X19.9496 Y18.5553
G01 X19.9504 Y18.5666
G01 X19.9507 Y18.5780
G01 X19.9507 Y23.1780
G01 X19.9504 Y23.1893
G01 X19.9490 Y23.2063
G01 X19.9473 Y23.2176
G01 X19.9451 Y23.2287
G01 X19.9423 Y23.2398
G01 X19.9390 Y23.2507
G01 X19.9331 Y23.2666
G01 X19.9260 Y23.2821
G01 X19.9206 Y23.2922
G01 X19.9148 Y23.3019
G01 X19.9051 Y23.3160
G01 X19.8981 Y23.3250
G01 X19.8907 Y23.3336
G01 X19.8829 Y23.3418
G01 X19.8746 Y23.3497
G01 X19.8660 Y23.3571
G01 X19.8570 Y23.3641
G01 X19.8430 Y23.3737
G01 X19.8332 Y23.3796
G01 X19.8232 Y23.3849
G01 X19.8077 Y23.3920
G01 X19.7971 Y23.3961
G01 X19.7863 Y23.3997
G01 X19.7753 Y23.4027
G01 X19.7642 Y23.4052
G01 X19.7474 Y23.4079
G00 Z2.0000
G00 X17.6627 Y18.3034
G01 F30.00
G01 Z-0.0900
G01 F60.00
G01 X17.6834 Y18.3012
G01 X19.7546 Y18.3012
G01 X19.7753 Y18.3034
G01 X19.8533 Y18.3327
G01 X19.9168 Y18.3802
G01 X19.9643 Y18.4437
G01 X19.9936 Y18.5217
G01 X19.9958 Y18.5424
G01 X19.9958 Y23.2136
G01 X19.9936 Y23.2343
G01 X19.9643 Y23.3123
G01 X19.9168 Y23.3757
G01 X19.8533 Y23.4233
G01 X19.7753 Y23.4525
G01 X19.7546 Y23.4548
G01 X17.6834 Y23.4548
G01 X17.6627 Y23.4525
G01 X17.5847 Y23.4233
G01 X17.5213 Y23.3757
G01 X17.4737 Y23.3123
G01 X17.4445 Y23.2343
G01 X17.4422 Y23.2136
G01 X17.4422 Y18.5424
G01 X17.4445 Y18.5217
G01 X17.4737 Y18.4437
G01 X17.5213 Y18.3802
G01 X17.5847 Y18.3327
G01 X17.6627 Y18.3034
G00 Z2.0000
G00 X17.6280 Y18.1574
G01 F30.00
G01 Z-0.0900
G01 F60.00
G01 X17.6754 Y18.1522
G01 X19.7627 Y18.1522
G01 X19.8100 Y18.1574
G01 X19.9256 Y18.2007
G01 X20.0232 Y18.2738
G01 X20.0963 Y18.3714
G01 X20.1396 Y18.4870
G01 X20.1448 Y18.5343
G01 X20.1448 Y23.2216
G01 X20.1396 Y23.2690
G01 X20.0963 Y23.3845
G01 X20.0232 Y23.4821
G01 X19.9256 Y23.5553
G01 X19.8100 Y23.5986
G01 X19.7627 Y23.6037
G01 X17.6754 Y23.6037
G01 X17.6280 Y23.5986
G01 X17.5125 Y23.5553
G01 X17.4149 Y23.4821
G01 X17.3417 Y23.3845
G01 X17.2984 Y23.2690
G01 X17.2933 Y23.2216
G01 X17.2933 Y18.5343
G01 X17.2984 Y18.4870
G01 X17.3417 Y18.3714
G01 X17.4149 Y18.2738
G01 X17.5125 Y18.2007
G01 X17.6280 Y18.1574
G00 Z2.0000
G00 X14.4676 Y17.2835
G01 F30.00
G01 Z-0.0900
G01 F60.00
G01 X14.3724 Y17.2597
G01 X14.3615 Y17.2566
G01 X14.3507 Y17.2531
G01 X14.2583 Y17.2200
G01 X14.2477 Y17.2159
G01 X14.2373 Y17.2113
G01 X14.1486 Y17.1694
G01 X14.1384 Y17.1642
G01 X14.1285 Y17.1586
G01 X14.0443 Y17.1082
G01 X14.0347 Y17.1021
G01 X14.0254 Y17.0955
G01 X13.9466 Y17.0371
G01 X13.9376 Y17.0301
G01 X13.9290 Y17.0227
G01 X13.8563 Y16.9568
G01 X13.8481 Y16.9489
G01 X13.8402 Y16.9407
G01 X13.7743 Y16.8680
G01 X13.7669 Y16.8594
G01 X13.7599 Y16.8504
G01 X13.7015 Y16.7716
G01 X13.6949 Y16.7623
G01 X13.6888 Y16.7527
G01 X13.6384 Y16.6685
G01 X13.6328 Y16.6586
G01 X13.6276 Y16.6484
G01 X13.5857 Y16.5597
G01 X13.5811 Y16.5493
G01 X13.5770 Y16.5387
G01 X13.5439 Y16.4463
G01 X13.5404 Y16.4355
G01 X13.5373 Y16.4246
G01 X13.5135 Y16.3294
G01 X13.5110 Y16.3183
G01 X13.5090 Y16.3071
G01 X13.4946 Y16.2100
G01 X13.4933 Y16.1987
G01 X13.4924 Y16.1874
G01 X13.4876 Y16.0893
G01 X13.4873 Y16.0780
G01 X13.4876 Y16.0666
G01 X13.4924 Y15.9686
G01 X13.4933 Y15.9572
G01 X13.4946 Y15.9460
G01 X13.5090 Y15.8489
G01 X13.5110 Y15.8377
G01 X13.5135 Y15.8266
G01 X13.5373 Y15.7314
G01 X13.5404 Y15.7204
G01 X13.5439 Y15.7096
G01 X13.5770 Y15.6172
G01 X13.5811 Y15.6066
G01 X13.5857 Y15.5962
G01 X13.6276 Y15.5075
G01 X13.6328 Y15.4974
G01 X13.6384 Y15.4875
G01 X13.6888 Y15.4033
G01 X13.6949 Y15.3937
G01 X13.7015 Y15.3844
G01 X13.7599 Y15.3056
G01 X13.7669 Y15.2966
G01 X13.7743 Y15.2880
G01 X13.8402 Y15.2153
G01 X13.8481 Y15.2070
G01 X13.8563 Y15.1992
G01 X13.9290 Y15.1333
G01 X13.9376 Y15.1259
G01 X13.9466 Y15.1189
G01 X14.0254 Y15.0604
G01 X14.0347 Y15.0539
G01 X14.0443 Y15.0478
G01 X14.1285 Y14.9973
G01 X14.1435 Y14.9891
G01 X14.2373 Y14.9446
G01 X14.2477 Y14.9400
G01 X14.2583 Y14.9359
G01 X14.3507 Y14.9029
G01 X14.3615 Y14.8993
G01 X14.3724 Y14.8963
G01 X14.4676 Y14.8724
G01 X14.4787 Y14.8699
G01 X14.4899 Y14.8680
G01 X14.5870 Y14.8536
G01 X14.5983 Y14.8522
G01 X14.6096 Y14.8514
G01 X14.7077 Y14.8466
G01 X14.7190 Y14.8463
G01 X16.9190 Y14.8463
G01 X16.9304 Y14.8466
G01 X17.0284 Y14.8514
G01 X17.0454 Y14.8528
G01 X17.1481 Y14.8680
G01 X17.1593 Y14.8699
G01 X17.1704 Y14.8724
G01 X17.2656 Y14.8963
G01 X17.2766 Y14.8993
G01 X17.2874 Y14.9029
G01 X17.3798 Y14.9359
G01 X17.3904 Y14.9400
G01 X17.4008 Y14.9446
G01 X17.4895 Y14.9866
G01 X17.4996 Y14.9917
G01 X17.5095 Y14.9973
G01 X17.5937 Y15.0478
G01 X17.6033 Y15.0539
G01 X17.6126 Y15.0604
G01 X17.6914 Y15.1189
G01 X17.7004 Y15.1259
G01 X17.7090 Y15.1333
G01 X17.7817 Y15.1992
G01 X17.7900 Y15.2070
G01 X17.7978 Y15.2153
G01 X17.8637 Y15.2880
G01 X17.8711 Y15.2966
G01 X17.8781 Y15.3056
G01 X17.9366 Y15.3844
G01 X17.9431 Y15.3937
G01 X17.9492 Y15.4033
G01 X17.9997 Y15.4875
G01 X18.0079 Y15.5024
G01 X18.0524 Y15.5962
G01 X18.0570 Y15.6066
G01 X18.0611 Y15.6172
G01 X18.0941 Y15.7096
G01 X18.0977 Y15.7204
G01 X18.1007 Y15.7314
G01 X18.1246 Y15.8266
G01 X18.1271 Y15.8377
G01 X18.1290 Y15.8489
G01 X18.1434 Y15.9460
G01 X18.1448 Y15.9572
G01 X18.1456 Y15.9686
G01 X18.1504 Y16.0666
G01 X18.1507 Y16.0780
G01 X18.1504 Y16.0893
G01 X18.1456 Y16.1874
G01 X18.1448 Y16.1987
G01 X18.1434 Y16.2100
G01 X18.1290 Y16.3071
G01 X18.1271 Y16.3183
G01 X18.1246 Y16.3294
G01 X18.1007 Y16.4246
G01 X18.0977 Y16.4355
G01 X18.0941 Y16.4463
G01 X18.0611 Y16.5387
G01 X18.0570 Y16.5493
G01 X18.0524 Y16.5597
G01 X18.0104 Y16.6484
G01 X18.0053 Y16.6586
G01 X17.9997 Y16.6685
G01 X17.9492 Y16.7527
G01 X17.9431 Y16.7623
G01 X17.9366 Y16.7716
G01 X17.8781 Y16.8504
G01 X17.8711 Y16.8594
G01 X17.8637 Y16.8680
G01 X17.7978 Y16.9407
G01 X17.7900 Y16.9489
G01 X17.7817 Y16.9568
G01 X17.7090 Y17.0227
G01 X17.7004 Y17.0301
G01 X17.6914 Y17.0371
G01 X17.6126 Y17.0955
G01 X17.6033 Y17.1021
G01 X17.5937 Y17.1082
G01 X17.5095 Y17.1586
G01 X17.4946 Y17.1669
G01 X17.4008 Y17.2113
G01 X17.3904 Y17.2159
G01 X17.3798 Y17.2200
G01 X17.2874 Y17.2531
G01 X17.2766 Y17.2566
G01 X17.2656 Y17.2597
G01 X17.1704 Y17.2835
G01 X17.1593 Y17.2860
G01 X17.1481 Y17.2880
G01 X17.0510 Y17.3024
G01 X17.0398 Y17.3037
G01 X17.0284 Y17.3046
G01 X16.9304 Y17.3094
G01 X16.9190 Y17.3097
G01 X14.7190 Y17.3097
G01 X14.7077 Y17.3094
G01 X14.6096 Y17.3046
G01 X14.5983 Y17.3037
G01 X14.5870 Y17.3024
G01 X14.4899 Y17.2880
G01 X14.4787 Y17.2860
G01 X14.4676 Y17.2835
G00 Z2.0000
G00 X14.5038 Y17.1390
G01 F30.00
G01 Z-0.0900
G01 F60.00
G01 X14.4047 Y17.1141
G01 X14.3085 Y17.0798
G01 X14.3010 Y17.0767
G01 X14.2122 Y17.0347
G01 X14.2051 Y17.0309
G01 X14.1175 Y16.9782
G01 X14.0321 Y16.9150
G01 X13.9534 Y16.8436
G01 X13.8847 Y16.7679
G01 X13.8795 Y16.7617
G01 X13.8211 Y16.6828
G01 X13.8166 Y16.6761
G01 X13.7641 Y16.5884
G01 X13.7187 Y16.4923
G01 X13.6829 Y16.3923
G01 X13.6580 Y16.2932
G01 X13.6564 Y16.2852
G01 X13.6415 Y16.1841
G01 X13.6364 Y16.0820
G01 X13.6364 Y16.0739
G01 X13.6415 Y15.9718
G01 X13.6571 Y15.8667
G01 X13.6829 Y15.7637
G01 X13.7172 Y15.6674
G01 X13.7203 Y15.6599
G01 X13.7623 Y15.5712
G01 X13.7661 Y15.5640
G01 X13.8188 Y15.4764
G01 X13.8820 Y15.3911
G01 X13.9534 Y15.3124
G01 X14.0291 Y15.2437
G01 X14.0353 Y15.2385
G01 X14.1142 Y15.1800
G01 X14.1209 Y15.1755
G01 X14.2086 Y15.1231
G01 X14.3028 Y15.0784
G01 X14.4047 Y15.0418
G01 X14.5078 Y15.0160
G01 X14.6129 Y15.0004
G01 X14.7170 Y14.9953
G01 X16.9190 Y14.9952
G01 X17.0252 Y15.0004
G01 X17.1283 Y15.0157
G01 X17.2333 Y15.0418
G01 X17.3296 Y15.0762
G01 X17.3371 Y15.0793
G01 X17.4294 Y15.1231
G01 X17.5171 Y15.1755
G01 X17.5239 Y15.1800
G01 X17.6059 Y15.2410
G01 X17.6846 Y15.3124
G01 X17.7533 Y15.3880
G01 X17.7585 Y15.3943
G01 X17.8193 Y15.4764
G01 X17.8719 Y15.5640
G01 X17.8758 Y15.5712
G01 X17.9186 Y15.6618
G01 X17.9552 Y15.7637
G01 X17.9810 Y15.8667
G01 X17.9966 Y15.9718
G01 X18.0018 Y16.0780
G01 X17.9966 Y16.1841
G01 X17.9810 Y16.2892
G01 X17.9552 Y16.3923
G01 X17.9194 Y16.4923
G01 X17.8739 Y16.5884
G01 X17.8193 Y16.6795
G01 X17.7560 Y16.7649
G01 X17.6846 Y16.8436
G01 X17.6059 Y16.9150
G01 X17.5206 Y16.9782
G01 X17.4294 Y17.0329
G01 X17.3352 Y17.0775
G01 X17.2333 Y17.1141
G01 X17.1303 Y17.1399
G01 X17.0252 Y17.1555
G01 X16.9211 Y17.1607
G01 X14.7190 Y17.1607
G01 X14.6129 Y17.1555
G01 X14.5118 Y17.1406
G01 X14.5038 Y17.1390
G00 Z2.0000
G00 X13.2364 Y18.6049
G01 F30.00
G01 Z-0.0900
G01 F60.00
G01 X13.4110 Y18.7483
G01 X13.4134 Y18.7507
G01 X13.5628 Y18.9201
G01 X13.5649 Y18.9229
G01 X13.6853 Y19.1141
G01 X13.6869 Y19.1171
G01 X13.7751 Y19.3250
G01 X13.7762 Y19.3283
G01 X13.8301 Y19.5477
G01 X13.8307 Y19.5511
G01 X13.8442 Y19.7195
G01 X13.8443 Y20.5412
G01 X13.5018 Y20.5412
G01 X13.5017 Y19.7739
G01 X13.4966 Y19.6718
G01 X13.4817 Y19.5707
G01 X13.4801 Y19.5628
G01 X13.4562 Y19.4676
G01 X13.4539 Y19.4598
G01 X13.4208 Y19.3674
G01 X13.4177 Y19.3599
G01 X13.3739 Y19.2676
G01 X13.3215 Y19.1799
G01 X13.3170 Y19.1731
G01 X13.2560 Y19.0911
G01 X13.1846 Y19.0124
G01 X13.1059 Y18.9410
G01 X13.0239 Y18.8800
G01 X13.0171 Y18.8755
G01 X12.9330 Y18.8251
G01 X12.9258 Y18.8212
G01 X12.8334 Y18.7776
G01 X12.7558 Y18.7498
G01 X12.7558 Y18.3923
G01 X12.8210 Y18.4059
G01 X12.8244 Y18.4069
G01 X13.0352 Y18.4878
G01 X13.0384 Y18.4893
G01 X13.2336 Y18.6030
G01 X13.2364 Y18.6049
G00 Z2.0000
G00 X13.6340 Y19.3738
G01 F30.00
G01 Z-0.0900
G01 F60.00
G01 X13.6830 Y19.5733
G01 X13.6953 Y19.7263
G01 X13.6953 Y20.3923
G01 X13.6507 Y20.3923
G01 X13.6507 Y19.7780
G01 X13.6504 Y19.7666
G01 X13.6456 Y19.6686
G01 X13.6448 Y19.6572
G01 X13.6434 Y19.6460
G01 X13.6290 Y19.5489
G01 X13.6271 Y19.5377
G01 X13.6246 Y19.5266
G01 X13.6007 Y19.4314
G01 X13.5977 Y19.4204
G01 X13.5941 Y19.4096
G01 X13.5611 Y19.3172
G01 X13.5547 Y19.3014
G01 X13.5104 Y19.2075
G01 X13.5053 Y19.1974
G01 X13.4997 Y19.1875
G01 X13.4492 Y19.1033
G01 X13.4431 Y19.0937
G01 X13.4366 Y19.0844
G01 X13.3781 Y19.0056
G01 X13.3711 Y18.9966
G01 X13.3637 Y18.9880
G01 X13.2978 Y18.9153
G01 X13.2900 Y18.9070
G01 X13.2817 Y18.8992
G01 X13.2090 Y18.8333
G01 X13.2004 Y18.8259
G01 X13.1914 Y18.8189
G01 X13.1126 Y18.7604
G01 X13.1033 Y18.7539
G01 X13.0937 Y18.7478
G01 X13.0095 Y18.6973
G01 X12.9996 Y18.6917
G01 X12.9047 Y18.6465
G01 X12.9047 Y18.5973
G01 X12.9723 Y18.6232
G01 X13.1498 Y18.7265
G01 X13.3085 Y18.8569
G01 X13.4443 Y19.0110
G01 X13.5538 Y19.1847
G01 X13.6340 Y19.3738
G00 Z2.0000
G00 X11.4675 Y18.9212
G01 F30.00
G01 Z-0.0900
G01 F60.00
G01 X11.6167 Y18.7801
G01 X11.7865 Y18.6646
G01 X11.9333 Y18.5962
G01 X11.9333 Y18.6465
G01 X11.8384 Y18.6917
G01 X11.8285 Y18.6973
G01 X11.7443 Y18.7478
G01 X11.7347 Y18.7539
G01 X11.7254 Y18.7604
G01 X11.6466 Y18.8189
G01 X11.6376 Y18.8259
G01 X11.6290 Y18.8333
G01 X11.5563 Y18.8992
G01 X11.5481 Y18.9070
G01 X11.5402 Y18.9153
G01 X11.4743 Y18.9880
G01 X11.4669 Y18.9966
G01 X11.4599 Y19.0056
G01 X11.4015 Y19.0844
G01 X11.3949 Y19.0937
G01 X11.3888 Y19.1033
G01 X11.3384 Y19.1875
G01 X11.3328 Y19.1974
G01 X11.3276 Y19.2075
G01 X11.2833 Y19.3014
G01 X11.2770 Y19.3172
G01 X11.2439 Y19.4096
G01 X11.2404 Y19.4204
G01 X11.2373 Y19.4314
G01 X11.2135 Y19.5266
G01 X11.2110 Y19.5377
G01 X11.2090 Y19.5489
G01 X11.1946 Y19.6460
G01 X11.1933 Y19.6572
G01 X11.1924 Y19.6686
G01 X11.1876 Y19.7666
G01 X11.1873 Y19.7780
G01 X11.1873 Y20.3923
G01 X11.1427 Y20.3923
G01 X11.1427 Y19.6752
G01 X11.1431 Y19.6659
G01 X11.1788 Y19.4595
G01 X11.2457 Y19.2653
G01 X11.3427 Y19.0843
G01 X11.4675 Y18.9212
G00 Z2.0000
G00 X11.0346 Y19.4207
G01 F30.00
G01 Z-0.0900
G01 F60.00
G01 X11.1082 Y19.2072
G01 X11.1095 Y19.2040
G01 X11.2163 Y19.0049
G01 X11.2182 Y19.0020
G01 X11.3554 Y18.8226
G01 X11.3577 Y18.8200
G01 X11.5218 Y18.6648
G01 X11.5245 Y18.6626
G01 X11.7113 Y18.5357
G01 X11.7143 Y18.5340
G01 X11.9190 Y18.4385
G01 X11.9223 Y18.4373
G01 X12.0823 Y18.3920
G01 X12.0823 Y18.7498
G01 X12.0047 Y18.7776
G01 X11.9122 Y18.8212
G01 X11.9051 Y18.8251
G01 X11.8209 Y18.8755
G01 X11.8142 Y18.8800
G01 X11.7321 Y18.9410
G01 X11.6534 Y19.0124
G01 X11.5820 Y19.0911
G01 X11.5211 Y19.1731
G01 X11.5166 Y19.1799
G01 X11.4661 Y19.2640
G01 X11.4623 Y19.2712
G01 X11.4187 Y19.3636
G01 X11.3842 Y19.4598
G01 X11.3818 Y19.4676
G01 X11.3580 Y19.5628
G01 X11.3564 Y19.5707
G01 X11.3415 Y19.6718
G01 X11.3364 Y19.7739
G01 X11.3363 Y20.5412
G01 X10.9938 Y20.5412
G01 X10.9938 Y19.6713
G01 X10.9950 Y19.6485
G01 X11.0338 Y19.4241
G01 X11.0346 Y19.4207
G00 Z2.0000
G00 X11.1928 Y22.0930
G01 F30.00
G01 Z-0.0900
G01 F60.00
G01 X11.1946 Y22.1100
G01 X11.2090 Y22.2071
G01 X11.2110 Y22.2183
G01 X11.2135 Y22.2294
G01 X11.2373 Y22.3246
G01 X11.2404 Y22.3355
G01 X11.2439 Y22.3463
G01 X11.2770 Y22.4387
G01 X11.2811 Y22.4493
G01 X11.2857 Y22.4597
G01 X11.3276 Y22.5484
G01 X11.3328 Y22.5586
G01 X11.3384 Y22.5685
G01 X11.3888 Y22.6527
G01 X11.3981 Y22.6670
G01 X11.4599 Y22.7504
G01 X11.4669 Y22.7594
G01 X11.4743 Y22.7680
G01 X11.5402 Y22.8407
G01 X11.5481 Y22.8489
G01 X11.5563 Y22.8568
G01 X11.6290 Y22.9227
G01 X11.6376 Y22.9301
G01 X11.6466 Y22.9371
G01 X11.7254 Y22.9955
G01 X11.7347 Y23.0021
G01 X11.7443 Y23.0082
G01 X11.8285 Y23.0586
G01 X11.8384 Y23.0642
G01 X11.9333 Y23.1094
G01 X11.9333 Y23.1587
G01 X11.8658 Y23.1327
G01 X11.6882 Y23.0294
G01 X11.5295 Y22.8991
G01 X11.3937 Y22.7450
G01 X11.2843 Y22.5712
G01 X11.2040 Y22.3822
G01 X11.1550 Y22.1827
G01 X11.1427 Y22.0296
G01 X11.1427 Y21.3637
G01 X11.1873 Y21.3637
G01 X11.1873 Y21.9780
G01 X11.1876 Y21.9893
G01 X11.1928 Y22.0930
G00 Z2.0000
G00 X11.3413 Y22.0821
G01 F30.00
G01 Z-0.0900
G01 F60.00
G01 X11.3564 Y22.1852
G01 X11.3580 Y22.1932
G01 X11.3829 Y22.2923
G01 X11.4187 Y22.3923
G01 X11.4641 Y22.4884
G01 X11.5166 Y22.5761
G01 X11.5211 Y22.5828
G01 X11.5820 Y22.6649
G01 X11.6506 Y22.7407
G01 X11.6563 Y22.7464
G01 X11.7321 Y22.8150
G01 X11.8175 Y22.8782
G01 X11.9051 Y22.9309
G01 X11.9122 Y22.9347
G01 X12.0047 Y22.9783
G01 X12.0823 Y23.0062
G01 X12.0823 Y23.3637
G01 X12.0170 Y23.3500
G01 X12.0137 Y23.3491
G01 X11.8028 Y23.2681
G01 X11.7997 Y23.2666
G01 X11.6045 Y23.1530
G01 X11.6016 Y23.1510
G01 X11.4271 Y23.0076
G01 X11.4246 Y23.0053
G01 X11.2752 Y22.8358
G01 X11.2731 Y22.8331
G01 X11.1528 Y22.6419
G01 X11.1512 Y22.6388
G01 X11.0629 Y22.4309
G01 X11.0618 Y22.4276
G01 X11.0079 Y22.2083
G01 X11.0074 Y22.2049
G01 X10.9938 Y22.0348
G01 X10.9938 Y21.2147
G01 X11.3363 Y21.2147
G01 X11.3363 Y21.9780
G01 X11.3413 Y22.0821
G00 Z2.0000
G00 X12.9258 Y22.9347
G01 F30.00
G01 Z-0.0900
G01 F60.00
G01 X12.9330 Y22.9309
G01 X13.0206 Y22.8782
G01 X13.1059 Y22.8150
G01 X13.1846 Y22.7436
G01 X13.2560 Y22.6649
G01 X13.3193 Y22.5795
G01 X13.3739 Y22.4884
G01 X13.4194 Y22.3923
G01 X13.4545 Y22.2942
G01 X13.4801 Y22.1932
G01 X13.4817 Y22.1852
G01 X13.4966 Y22.0841
G01 X13.5017 Y21.9820
G01 X13.5018 Y21.2147
G01 X13.8443 Y21.2147
G01 X13.8443 Y22.0837
G01 X13.8433 Y22.1048
G01 X13.8043 Y22.3319
G01 X13.8034 Y22.3352
G01 X13.7299 Y22.5488
G01 X13.7285 Y22.5520
G01 X13.6218 Y22.7510
G01 X13.6199 Y22.7539
G01 X13.4827 Y22.9334
G01 X13.4804 Y22.9359
G01 X13.3163 Y23.0911
G01 X13.3136 Y23.0933
G01 X13.1267 Y23.2203
G01 X13.1237 Y23.2220
G01 X12.9190 Y23.3175
G01 X12.9158 Y23.3187
G01 X12.7558 Y23.3639
G01 X12.7558 Y23.0062
G01 X12.8334 Y22.9783
G01 X12.9258 Y22.9347
G00 Z2.0000
G00 X13.0095 Y23.0586
G01 F30.00
G01 Z-0.0900
G01 F60.00
G01 X13.0937 Y23.0082
G01 X13.1033 Y23.0021
G01 X13.1126 Y22.9955
G01 X13.1914 Y22.9371
G01 X13.2004 Y22.9301
G01 X13.2090 Y22.9227
G01 X13.2817 Y22.8568
G01 X13.2900 Y22.8489
G01 X13.2978 Y22.8407
G01 X13.3637 Y22.7680
G01 X13.3711 Y22.7594
G01 X13.3781 Y22.7504
G01 X13.4366 Y22.6716
G01 X13.4431 Y22.6623
G01 X13.4492 Y22.6527
G01 X13.4997 Y22.5685
G01 X13.5053 Y22.5586
G01 X13.5104 Y22.5484
G01 X13.5524 Y22.4597
G01 X13.5570 Y22.4493
G01 X13.5611 Y22.4387
G01 X13.5941 Y22.3463
G01 X13.5977 Y22.3355
G01 X13.6007 Y22.3246
G01 X13.6246 Y22.2294
G01 X13.6271 Y22.2183
G01 X13.6290 Y22.2071
G01 X13.6434 Y22.1100
G01 X13.6448 Y22.0987
G01 X13.6456 Y22.0874
G01 X13.6504 Y21.9893
G01 X13.6507 Y21.9780
G01 X13.6507 Y21.3637
G01 X13.6953 Y21.3637
G01 X13.6953 Y22.0808
G01 X13.6949 Y22.0900
G01 X13.6593 Y22.2964
G01 X13.5924 Y22.4906
G01 X13.4953 Y22.6716
G01 X13.3706 Y22.8348
G01 X13.2214 Y22.9759
G01 X13.0515 Y23.0913
G01 X12.9047 Y23.1598
G01 X12.9047 Y23.1094
G01 X12.9895 Y23.0694
G01 X12.9996 Y23.0642
G01 X13.0095 Y23.0586
G00 Z2.0000
G00 X10.0263 Y27.1290
G01 F30.00
G01 Z-0.0900
G01 F60.00
G01 X10.0128 Y27.1539
G01 X10.0013 Y27.1798
G01 X9.9946 Y27.1975
G01 X9.9864 Y27.2246
G01 X9.9820 Y27.2430
G01 X9.9785 Y27.2616
G01 X9.9676 Y27.3413
G01 X9.9655 Y27.3601
G01 X9.9642 Y27.3884
G01 X9.9644 Y27.4073
G01 X9.9666 Y27.4356
G01 X9.9692 Y27.4543
G01 X9.9749 Y27.4821
G01 X9.9798 Y27.5003
G01 X9.9856 Y27.5183
G01 X9.9944 Y27.5410
G01 X9.9110 Y27.5369
G01 X9.9194 Y27.5183
G01 X9.9263 Y27.5007
G01 X9.9323 Y27.4827
G01 X9.9396 Y27.4553
G01 X9.9554 Y27.3861
G01 X9.9591 Y27.3676
G01 X9.9630 Y27.3395
G01 X9.9648 Y27.3112
G01 X9.9644 Y27.2828
G01 X9.9630 Y27.2640
G01 X9.9591 Y27.2359
G01 X9.9554 Y27.2174
G01 X9.9508 Y27.1990
G01 X9.9452 Y27.1810
G01 X9.9232 Y27.1198
G01 X10.0319 Y27.1198
G01 X10.0263 Y27.1290
G00 Z2.0000
G00 X8.7557 Y27.9696
G01 F30.00
G01 Z-0.0900
G01 F60.00
G01 X8.9752 Y27.8383
G01 X9.2105 Y27.7379
G01 X9.4573 Y27.6704
G01 X9.5110 Y27.6632
G01 X9.5285 Y27.6598
G01 X9.5400 Y27.6567
G01 X9.5886 Y27.6412
G01 X9.6046 Y27.6354
G01 X9.6150 Y27.6309
G01 X9.6252 Y27.6259
G01 X9.6400 Y27.6175
G01 X9.6495 Y27.6113
G01 X9.6586 Y27.6046
G01 X9.6718 Y27.5937
G01 X9.6801 Y27.5860
G01 X9.7348 Y27.5322
G01 X9.7463 Y27.5194
G01 X9.7569 Y27.5057
G01 X9.7664 Y27.4913
G01 X9.7721 Y27.4813
G01 X9.7774 Y27.4711
G01 X9.7843 Y27.4553
G01 X9.7899 Y27.4390
G01 X9.7930 Y27.4279
G01 X9.8101 Y27.3531
G01 X9.8124 Y27.3418
G01 X9.8148 Y27.3247
G01 X9.8156 Y27.3132
G01 X9.8159 Y27.3017
G01 X9.8156 Y27.2902
G01 X9.8141 Y27.2730
G01 X9.8114 Y27.2560
G01 X9.8088 Y27.2448
G01 X9.8057 Y27.2337
G01 X9.8021 Y27.2228
G01 X9.7759 Y27.1506
G01 X9.7714 Y27.1400
G01 X9.7664 Y27.1296
G01 X9.7610 Y27.1195
G01 X9.7550 Y27.1097
G01 X9.7485 Y27.1002
G01 X9.7416 Y27.0910
G01 X9.7342 Y27.0821
G01 X9.7264 Y27.0737
G01 X9.7140 Y27.0617
G01 X9.7007 Y27.0508
G01 X9.6453 Y27.0085
G01 X9.6361 Y27.0018
G01 X9.6267 Y26.9956
G01 X9.6169 Y26.9899
G01 X9.6018 Y26.9823
G01 X9.5833 Y26.9737
G01 X9.5535 Y26.9614
G01 X9.5030 Y26.9325
G01 X9.4571 Y26.9091
G01 X9.4301 Y26.8905
G01 X9.3963 Y26.8601
G01 X9.3755 Y26.8426
G01 X9.3560 Y26.8238
G01 X9.3222 Y26.7934
G01 X9.3012 Y26.7688
G01 X9.2929 Y26.7600
G01 X8.7730 Y26.2401
G01 X8.7642 Y26.2318
G01 X8.7396 Y26.2108
G01 X8.7092 Y26.1770
G01 X8.6904 Y26.1575
G01 X8.6729 Y26.1367
G01 X8.6425 Y26.1029
G01 X8.6239 Y26.0759
G01 X8.6005 Y26.0300
G01 X8.5716 Y25.9795
G01 X8.5591 Y25.9492
G01 X8.5456 Y25.8995
G01 X8.5279 Y25.8441
G01 X8.5220 Y25.8119
G01 X8.5196 Y25.7665
G01 X8.5172 Y25.7394
G01 X8.5167 Y25.7123
G01 X8.5144 Y25.6669
G01 X8.5169 Y25.6347
G01 X8.5172 Y25.6226
G01 X8.5172 Y7.3704
G01 X8.5169 Y7.3583
G01 X8.5144 Y7.3260
G01 X8.5167 Y7.2806
G01 X8.5172 Y7.2535
G01 X8.5196 Y7.2265
G01 X8.5220 Y7.1811
G01 X8.5279 Y7.1489
G01 X8.5456 Y7.0935
G01 X8.5591 Y7.0437
G01 X8.5716 Y7.0134
G01 X8.6005 Y6.9630
G01 X8.6239 Y6.9170
G01 X8.6425 Y6.8900
G01 X8.6729 Y6.8562
G01 X8.6904 Y6.8355
G01 X8.7092 Y6.8160
G01 X8.7396 Y6.7822
G01 X8.7642 Y6.7612
G01 X8.7730 Y6.7528
G01 X11.1979 Y4.3280
G01 X11.2062 Y4.3192
G01 X11.2272 Y4.2946
G01 X11.2610 Y4.2641
G01 X11.2805 Y4.2453
G01 X11.3013 Y4.2279
G01 X11.3351 Y4.1974
G01 X11.3621 Y4.1789
G01 X11.4080 Y4.1554
G01 X11.4585 Y4.1266
G01 X11.4888 Y4.1140
G01 X11.5448 Y4.0987
G01 X11.5939 Y4.0829
G01 X11.6261 Y4.0769
G01 X11.6715 Y4.0745
G01 X11.6986 Y4.0722
G01 X11.7257 Y4.0717
G01 X11.7711 Y4.0693
G01 X11.8033 Y4.0719
G01 X11.8154 Y4.0722
G01 X25.9105 Y4.0722
G01 X25.9291 Y4.0714
G01 X25.9733 Y4.0665
G01 X25.9901 Y4.0632
G01 X26.0011 Y4.0603
G01 X26.0119 Y4.0569
G01 X26.0279 Y4.0509
G01 X26.0433 Y4.0436
G01 X26.1202 Y4.0014
G01 X26.1295 Y3.9955
G01 X26.1385 Y3.9891
G01 X26.1471 Y3.9822
G01 X26.1555 Y3.9750
G01 X26.1635 Y3.9674
G01 X26.8703 Y3.2606
G01 X26.8781 Y3.2524
G01 X26.8890 Y3.2394
G01 X26.9143 Y3.2054
G01 X26.9238 Y3.1917
G01 X26.9296 Y3.1822
G01 X26.9373 Y3.1674
G01 X26.9440 Y3.1521
G01 X26.9495 Y3.1364
G01 X26.9526 Y3.1257
G01 X26.9551 Y3.1149
G01 X26.9697 Y3.0454
G01 X26.9725 Y3.0291
G01 X26.9738 Y3.0181
G01 X26.9745 Y3.0071
G01 X26.9747 Y2.9961
G01 X26.9743 Y2.9851
G01 X26.9633 Y2.8440
G01 X26.9790 Y2.6436
G01 X27.0260 Y2.4482
G01 X27.1029 Y2.2625
G01 X27.1605 Y2.1685
G01 X27.2079 Y2.0912
G01 X27.3384 Y1.9383
G01 X27.4912 Y1.8078
G01 X27.6626 Y1.7028
G01 X27.8483 Y1.6259
G01 X28.0437 Y1.5790
G01 X28.2440 Y1.5632
G01 X28.4444 Y1.5790
G01 X28.6398 Y1.6259
G01 X28.8255 Y1.7028
G01 X28.9968 Y1.8078
G01 X29.1497 Y1.9383
G01 X29.2802 Y2.0912
G01 X29.3852 Y2.2625
G01 X29.4621 Y2.4482
G01 X29.5090 Y2.6436
G01 X29.5248 Y2.8440
G01 X29.5090 Y3.0443
G01 X29.4621 Y3.2398
G01 X29.3852 Y3.4254
G01 X29.2802 Y3.5968
G01 X29.1497 Y3.7496
G01 X28.9968 Y3.8801
G01 X28.8255 Y3.9851
G01 X28.6398 Y4.0620
G01 X28.4444 Y4.1090
G01 X28.2440 Y4.1247
G01 X28.1084 Y4.1141
G01 X28.0971 Y4.1134
G01 X28.0858 Y4.1134
G01 X28.0745 Y4.1139
G01 X28.0323 Y4.1168
G01 X28.0158 Y4.1189
G01 X27.9994 Y4.1222
G01 X27.9834 Y4.1267
G01 X27.9677 Y4.1323
G01 X27.9574 Y4.1367
G01 X27.9425 Y4.1442
G01 X27.8707 Y4.1837
G01 X27.8569 Y4.1928
G01 X27.8480 Y4.1994
G01 X27.8395 Y4.2064
G01 X27.8274 Y4.2177
G01 X26.8752 Y5.1700
G01 X26.8668 Y5.1788
G01 X26.8458 Y5.2034
G01 X26.8120 Y5.2338
G01 X26.7925 Y5.2526
G01 X26.7718 Y5.2701
G01 X26.7380 Y5.3005
G01 X26.7110 Y5.3191
G01 X26.6650 Y5.3425
G01 X26.6146 Y5.3714
G01 X26.5843 Y5.3839
G01 X26.5345 Y5.3974
G01 X26.4791 Y5.4151
G01 X26.4469 Y5.4210
G01 X26.4015 Y5.4234
G01 X26.3745 Y5.4258
G01 X26.3474 Y5.4263
G01 X26.3020 Y5.4286
G01 X26.2697 Y5.4261
G01 X26.2576 Y5.4258
G01 X12.1625 Y5.4258
G01 X12.1439 Y5.4265
G01 X12.1053 Y5.4307
G01 X12.0941 Y5.4324
G01 X12.0830 Y5.4347
G01 X12.0665 Y5.4392
G01 X12.0557 Y5.4429
G01 X12.0452 Y5.4471
G01 X12.0297 Y5.4543
G01 X11.9528 Y5.4965
G01 X11.9436 Y5.5025
G01 X11.9302 Y5.5123
G01 X11.9217 Y5.5193
G01 X11.9135 Y5.5267
G01 X9.9756 Y7.4645
G01 X9.9630 Y7.4782
G01 X9.9386 Y7.5084
G01 X9.9287 Y7.5224
G01 X9.9227 Y7.5320
G01 X9.9172 Y7.5420
G01 X9.9122 Y7.5522
G01 X9.9056 Y7.5679
G01 X9.9002 Y7.5841
G01 X9.8774 Y7.6629
G01 X9.8750 Y7.6736
G01 X9.8725 Y7.6900
G01 X9.8711 Y7.7065
G01 X9.8708 Y7.7175
G01 X9.8709 Y25.2817
G01 X9.8722 Y25.3002
G01 X9.8757 Y25.3327
G01 X9.8775 Y25.3439
G01 X9.8798 Y25.3550
G01 X9.8827 Y25.3660
G01 X9.8880 Y25.3823
G01 X9.8921 Y25.3928
G01 X9.8968 Y25.4032
G01 X9.9020 Y25.4133
G01 X9.9416 Y25.4852
G01 X9.9475 Y25.4944
G01 X9.9539 Y25.5034
G01 X9.9643 Y25.5163
G01 X9.9717 Y25.5245
G01 X10.0090 Y25.5617
G01 X10.0230 Y25.5740
G01 X10.0485 Y25.5944
G01 X10.0577 Y25.6011
G01 X10.0672 Y25.6073
G01 X10.0820 Y25.6158
G01 X10.0974 Y25.6231
G01 X10.1080 Y25.6274
G01 X10.1187 Y25.6311
G01 X10.1976 Y25.6543
G01 X10.2137 Y25.6580
G01 X10.2246 Y25.6598
G01 X10.2410 Y25.6616
G01 X10.2575 Y25.6622
G01 X27.1805 Y25.6622
G01 X27.1929 Y25.6618
G01 X27.2053 Y25.6608
G01 X27.2377 Y25.6573
G01 X27.2489 Y25.6555
G01 X27.2601 Y25.6532
G01 X27.2711 Y25.6503
G01 X27.2873 Y25.6450
G01 X27.3031 Y25.6386
G01 X27.3183 Y25.6310
G01 X27.3807 Y25.5969
G01 X27.3949 Y25.5885
G01 X27.4040 Y25.5823
G01 X27.4128 Y25.5757
G01 X27.4255 Y25.5650
G01 X27.4335 Y25.5574
G01 X31.3145 Y21.6764
G01 X31.3263 Y21.6639
G01 X31.3339 Y21.6553
G01 X31.3445 Y21.6418
G01 X31.3540 Y21.6275
G01 X31.3598 Y21.6176
G01 X31.3675 Y21.6022
G01 X31.3970 Y21.5377
G01 X31.4036 Y21.5217
G01 X31.4073 Y21.5108
G01 X31.4105 Y21.4998
G01 X31.4131 Y21.4885
G01 X31.4152 Y21.4772
G01 X31.4172 Y21.4601
G01 X31.4178 Y21.4486
G01 X31.4179 Y21.4371
G01 X31.4174 Y21.4256
G01 X31.4156 Y21.4084
G01 X31.4036 Y21.3268
G01 X31.3996 Y21.3100
G01 X31.3963 Y21.2990
G01 X31.3903 Y21.2828
G01 X31.3857 Y21.2723
G01 X31.3805 Y21.2620
G01 X31.3748 Y21.2520
G01 X31.3687 Y21.2423
G01 X31.3586 Y21.2283
G01 X31.3512 Y21.2194
G01 X31.3009 Y21.1614
G01 X31.2930 Y21.1531
G01 X31.2846 Y21.1452
G01 X31.2759 Y21.1377
G01 X31.2668 Y21.1307
G01 X31.2525 Y21.1210
G01 X31.2426 Y21.1152
G01 X31.2324 Y21.1098
G01 X31.2166 Y21.1027
G01 X31.2059 Y21.0987
G01 X31.1949 Y21.0952
G01 X31.1268 Y21.0752
G01 X31.1108 Y21.0711
G01 X31.0945 Y21.0681
G01 X31.0781 Y21.0664
G01 X31.0615 Y21.0658
G01 X30.6898 Y21.0658
G01 X30.6537 Y21.0595
G01 X30.6378 Y21.0573
G01 X30.5963 Y21.0535
G01 X30.5609 Y21.0440
G01 X30.5453 Y21.0405
G01 X30.5043 Y21.0331
G01 X30.4698 Y21.0206
G01 X30.4546 Y21.0157
G01 X30.4143 Y21.0047
G01 X30.3811 Y20.9893
G01 X30.3663 Y20.9831
G01 X30.3272 Y20.9686
G01 X30.2955 Y20.9503
G01 X30.2813 Y20.9429
G01 X30.2436 Y20.9251
G01 X30.2093 Y20.9013
G01 X30.1957 Y20.8928
G01 X30.1640 Y20.8744
G01 X30.1360 Y20.8509
G01 X30.1233 Y20.8411
G01 X30.0892 Y20.8170
G01 X27.2678 Y17.9955
G01 X27.2541 Y17.9829
G01 X27.2239 Y17.9586
G01 X27.2147 Y17.9519
G01 X27.2052 Y17.9456
G01 X27.1904 Y17.9372
G01 X27.1750 Y17.9298
G01 X27.1644 Y17.9256
G01 X27.1537 Y17.9218
G01 X27.0748 Y17.8987
G01 X27.0641 Y17.8961
G01 X27.0478 Y17.8931
G01 X27.0314 Y17.8914
G01 X27.0204 Y17.8908
G01 X24.3398 Y17.8908
G01 X24.3037 Y17.8845
G01 X24.2878 Y17.8823
G01 X24.2463 Y17.8785
G01 X24.2109 Y17.8690
G01 X24.1953 Y17.8655
G01 X24.1543 Y17.8581
G01 X24.1198 Y17.8456
G01 X24.1046 Y17.8407
G01 X24.0643 Y17.8297
G01 X24.0311 Y17.8143
G01 X24.0163 Y17.8081
G01 X23.9772 Y17.7936
G01 X23.9455 Y17.7753
G01 X23.9313 Y17.7679
G01 X23.8936 Y17.7501
G01 X23.8593 Y17.7263
G01 X23.8457 Y17.7178
G01 X23.8140 Y17.6994
G01 X23.7860 Y17.6759
G01 X23.7733 Y17.6661
G01 X23.7392 Y17.6420
G01 X22.3360 Y16.2388
G01 X22.3119 Y16.2047
G01 X22.3021 Y16.1921
G01 X22.2786 Y16.1640
G01 X22.2602 Y16.1323
G01 X22.2517 Y16.1187
G01 X22.2279 Y16.0844
G01 X22.2101 Y16.0467
G01 X22.2026 Y16.0325
G01 X22.1844 Y16.0008
G01 X22.1699 Y15.9617
G01 X22.1637 Y15.9469
G01 X22.1483 Y15.9137
G01 X22.1373 Y15.8734
G01 X22.1324 Y15.8582
G01 X22.1199 Y15.8237
G01 X22.1125 Y15.7827
G01 X22.1090 Y15.7671
G01 X22.0995 Y15.7317
G01 X22.0957 Y15.6902
G01 X22.0935 Y15.6743
G01 X22.0872 Y15.6382
G01 X22.0872 Y14.6885
G01 X22.0869 Y14.6770
G01 X22.0861 Y14.6656
G01 X22.0847 Y14.6542
G01 X22.0827 Y14.6429
G01 X22.0801 Y14.6317
G01 X22.0770 Y14.6206
G01 X22.0518 Y14.5393
G01 X22.0455 Y14.5236
G01 X22.0407 Y14.5135
G01 X22.0354 Y14.5035
G01 X22.0265 Y14.4892
G01 X22.0200 Y14.4800
G01 X22.0095 Y14.4668
G01 X21.9980 Y14.4544
G01 X21.9899 Y14.4466
G01 X21.9222 Y14.3904
G01 X21.9129 Y14.3835
G01 X21.8985 Y14.3741
G01 X21.8885 Y14.3684
G01 X21.8782 Y14.3632
G01 X21.8623 Y14.3564
G01 X21.8460 Y14.3509
G01 X21.8349 Y14.3478
G01 X21.8237 Y14.3453
G01 X21.8066 Y14.3426
G01 X21.7304 Y14.3336
G01 X21.7132 Y14.3326
G01 X21.6959 Y14.3329
G01 X21.6787 Y14.3345
G01 X21.6617 Y14.3374
G01 X21.6450 Y14.3415
G01 X21.6286 Y14.3468
G01 X21.6179 Y14.3511
G01 X21.6074 Y14.3558
G01 X21.5435 Y14.3869
G01 X21.5333 Y14.3922
G01 X21.5234 Y14.3979
G01 X21.5090 Y14.4075
G01 X21.4954 Y14.4181
G01 X21.4826 Y14.4298
G01 X21.4746 Y14.4380
G01 X21.4670 Y14.4467
G01 X21.4565 Y14.4603
G01 X21.4500 Y14.4698
G01 X21.4072 Y14.5401
G01 X21.4019 Y14.5497
G01 X21.3971 Y14.5597
G01 X21.3907 Y14.5749
G01 X21.3855 Y14.5906
G01 X21.3804 Y14.6093
G01 X21.3082 Y14.7642
G01 X21.2102 Y14.9042
G01 X21.0893 Y15.0251
G01 X20.9493 Y15.1231
G01 X20.7944 Y15.1954
G01 X20.6293 Y15.2396
G01 X20.4590 Y15.2545
G01 X20.2888 Y15.2396
G01 X20.1237 Y15.1954
G01 X19.9688 Y15.1231
G01 X19.8288 Y15.0251
G01 X19.7079 Y14.9042
G01 X19.6099 Y14.7642
G01 X19.5376 Y14.6093
G01 X19.4934 Y14.4442
G01 X19.4785 Y14.2740
G01 X19.4934 Y14.1037
G01 X19.5376 Y13.9386
G01 X19.6099 Y13.7837
G01 X19.7079 Y13.6437
G01 X19.8288 Y13.5228
G01 X19.9688 Y13.4248
G01 X20.1237 Y13.3526
G01 X20.2888 Y13.3083
G01 X20.4590 Y13.2934
G01 X20.6293 Y13.3083
G01 X20.7944 Y13.3526
G01 X20.9493 Y13.4248
G01 X21.0893 Y13.5228
G01 X21.2102 Y13.6437
G01 X21.3082 Y13.7837
G01 X21.3804 Y13.9386
G01 X21.3856 Y13.9575
G01 X21.3891 Y13.9685
G01 X21.3954 Y13.9845
G01 X21.4002 Y13.9949
G01 X21.4056 Y14.0051
G01 X21.4114 Y14.0150
G01 X21.4537 Y14.0823
G01 X21.4601 Y14.0916
G01 X21.4706 Y14.1048
G01 X21.4820 Y14.1173
G01 X21.4942 Y14.1289
G01 X21.5073 Y14.1395
G01 X21.5212 Y14.1492
G01 X21.5357 Y14.1578
G01 X21.5508 Y14.1654
G01 X21.6153 Y14.1949
G01 X21.6313 Y14.2015
G01 X21.6422 Y14.2052
G01 X21.6588 Y14.2098
G01 X21.6701 Y14.2121
G01 X21.6815 Y14.2139
G01 X21.6987 Y14.2155
G01 X21.7102 Y14.2158
G01 X21.7217 Y14.2156
G01 X21.7331 Y14.2148
G01 X21.7446 Y14.2135
G01 X21.8205 Y14.2025
G01 X21.8318 Y14.2003
G01 X21.8430 Y14.1975
G01 X21.8540 Y14.1942
G01 X21.8649 Y14.1904
G01 X21.8755 Y14.1860
G01 X21.8859 Y14.1811
G01 X21.8961 Y14.1757
G01 X21.9059 Y14.1697
G01 X21.9155 Y14.1633
G01 X21.9292 Y14.1529
G01 X21.9873 Y14.1027
G01 X21.9999 Y14.0909
G01 X22.0078 Y14.0825
G01 X22.0188 Y14.0693
G01 X22.0256 Y14.0600
G01 X22.0320 Y14.0504
G01 X22.0378 Y14.0405
G01 X22.0432 Y14.0303
G01 X22.0480 Y14.0199
G01 X22.0524 Y14.0092
G01 X22.0578 Y13.9928
G01 X22.0807 Y13.9141
G01 X22.0830 Y13.9033
G01 X22.0849 Y13.8924
G01 X22.0862 Y13.8815
G01 X22.0872 Y13.8649
G01 X22.0872 Y11.6398
G01 X22.0935 Y11.6037
G01 X22.0957 Y11.5878
G01 X22.0995 Y11.5463
G01 X22.1090 Y11.5109
G01 X22.1125 Y11.4952
G01 X22.1199 Y11.4542
G01 X22.1324 Y11.4198
G01 X22.1373 Y11.4045
G01 X22.1483 Y11.3643
G01 X22.1637 Y11.3311
G01 X22.1699 Y11.3163
G01 X22.1844 Y11.2772
G01 X22.2027 Y11.2454
G01 X22.2101 Y11.2312
G01 X22.2279 Y11.1935
G01 X22.2517 Y11.1592
G01 X22.2602 Y11.1457
G01 X22.2786 Y11.1140
G01 X22.3021 Y11.0859
G01 X22.3119 Y11.0732
G01 X22.3360 Y11.0392
G01 X23.2312 Y10.1439
G01 X23.2653 Y10.1198
G01 X23.2779 Y10.1100
G01 X23.3060 Y10.0865
G01 X23.3420 Y10.0655
G01 X23.3555 Y10.0568
G01 X23.3856 Y10.0359
G01 X23.4233 Y10.0181
G01 X23.4375 Y10.0106
G01 X23.4692 Y9.9923
G01 X23.5036 Y9.9798
G01 X23.5185 Y9.9737
G01 X23.5563 Y9.9562
G01 X23.5917 Y9.9467
G01 X23.6070 Y9.9419
G01 X23.6463 Y9.9279
G01 X23.6873 Y9.9204
G01 X23.7029 Y9.9169
G01 X23.7383 Y9.9075
G01 X23.7798 Y9.9036
G01 X23.7957 Y9.9015
G01 X23.8318 Y9.8952
G01 X24.9389 Y9.8952
G01 X24.9616 Y9.8944
G01 X24.9726 Y9.8936
G01 X24.9836 Y9.8923
G01 X24.9944 Y9.8905
G01 X25.0052 Y9.8881
G01 X25.0211 Y9.8837
G01 X25.0366 Y9.8781
G01 X25.1079 Y9.8496
G01 X25.1235 Y9.8422
G01 X25.1385 Y9.8337
G01 X25.1528 Y9.8241
G01 X25.1664 Y9.8134
G01 X25.1750 Y9.8058
G01 X25.1832 Y9.7977
G01 X25.1910 Y9.7892
G01 X25.1984 Y9.7804
G01 X25.2053 Y9.7712
G01 X25.2498 Y9.7087
G01 X25.2589 Y9.6941
G01 X25.2670 Y9.6788
G01 X25.2717 Y9.6683
G01 X25.2777 Y9.6521
G01 X25.2811 Y9.6411
G01 X25.2839 Y9.6300
G01 X25.2862 Y9.6187
G01 X25.2879 Y9.6073
G01 X25.2894 Y9.5901
G01 X25.2928 Y9.5192
G01 X25.2930 Y9.5019
G01 X25.2919 Y9.4847
G01 X25.2896 Y9.4676
G01 X25.2859 Y9.4507
G01 X25.2811 Y9.4342
G01 X25.2771 Y9.4234
G01 X25.2727 Y9.4128
G01 X25.2677 Y9.4024
G01 X25.2268 Y9.3308
G01 X25.2210 Y9.3213
G01 X25.2149 Y9.3122
G01 X25.2048 Y9.2991
G01 X25.1938 Y9.2867
G01 X25.1565 Y9.2506
G01 X25.0351 Y9.0890
G01 X24.9460 Y8.9177
G01 X24.9995 Y8.9177
G01 X25.0290 Y8.9800
G01 X25.0369 Y8.9952
G01 X25.0878 Y9.0803
G01 X25.0971 Y9.0946
G01 X25.1561 Y9.1743
G01 X25.1631 Y9.1832
G01 X25.2333 Y9.2611
G01 X25.2412 Y9.2693
G01 X25.3187 Y9.3399
G01 X25.3273 Y9.3474
G01 X25.3362 Y9.3544
G01 X25.4206 Y9.4166
G01 X25.4302 Y9.4227
G01 X25.5153 Y9.4736
G01 X25.5305 Y9.4815
G01 X25.6150 Y9.5214
G01 X25.6254 Y9.5260
G01 X25.6360 Y9.5301
G01 X25.7348 Y9.5652
G01 X25.7457 Y9.5682
G01 X25.8419 Y9.5922
G01 X25.8587 Y9.5954
G01 X25.9512 Y9.6091
G01 X25.9681 Y9.6110
G01 X26.0728 Y9.6161
G01 X26.1735 Y9.6162
G01 X26.2783 Y9.6113
G01 X26.2896 Y9.6105
G01 X26.3009 Y9.6091
G01 X26.4046 Y9.5934
G01 X26.4156 Y9.5909
G01 X26.5173 Y9.5652
G01 X26.6161 Y9.5301
G01 X26.6267 Y9.5260
G01 X26.6371 Y9.5214
G01 X26.7318 Y9.4763
G01 X26.7416 Y9.4707
G01 X26.8267 Y9.4197
G01 X26.8407 Y9.4101
G01 X26.9158 Y9.3544
G01 X26.9248 Y9.3474
G01 X26.9334 Y9.3399
G01 X27.0109 Y9.2693
G01 X27.0187 Y9.2611
G01 X27.0853 Y9.1876
G01 X27.0959 Y9.1743
G01 X27.1516 Y9.0992
G01 X27.1613 Y9.0851
G01 X27.2123 Y9.0001
G01 X27.2179 Y8.9902
G01 X27.2525 Y8.9177
G01 X27.3052 Y8.9177
G01 X27.2982 Y8.9374
G01 X27.2005 Y9.1143
G01 X27.0753 Y9.2729
G01 X26.9238 Y9.4107
G01 X26.9117 Y9.4203
G01 X26.8788 Y9.4485
G01 X26.8707 Y9.4564
G01 X26.8630 Y9.4646
G01 X26.8523 Y9.4777
G01 X26.8457 Y9.4868
G01 X26.8367 Y9.5011
G01 X26.8287 Y9.5160
G01 X26.7975 Y9.5797
G01 X26.7927 Y9.5902
G01 X26.7884 Y9.6008
G01 X26.7830 Y9.6172
G01 X26.7800 Y9.6284
G01 X26.7777 Y9.6396
G01 X26.7758 Y9.6510
G01 X26.7746 Y9.6624
G01 X26.7739 Y9.6739
G01 X26.7738 Y9.6854
G01 X26.7743 Y9.6969
G01 X26.7753 Y9.7084
G01 X26.7835 Y9.7789
G01 X26.7861 Y9.7959
G01 X26.7886 Y9.8072
G01 X26.7916 Y9.8183
G01 X26.7951 Y9.8292
G01 X26.7992 Y9.8400
G01 X26.8039 Y9.8505
G01 X26.8090 Y9.8608
G01 X26.8146 Y9.8709
G01 X26.8240 Y9.8853
G01 X26.8345 Y9.8991
G01 X26.8795 Y9.9540
G01 X26.8867 Y9.9624
G01 X26.8942 Y9.9704
G01 X26.9022 Y9.9780
G01 X26.9148 Y9.9887
G01 X26.9236 Y9.9954
G01 X26.9498 Y10.0133
G01 X27.0960 Y10.1530
G01 X27.2173 Y10.3147
G01 X27.3107 Y10.4940
G01 X27.3735 Y10.6861
G01 X27.4040 Y10.8859
G01 X27.4016 Y11.0881
G01 X27.3661 Y11.2871
G01 X27.2986 Y11.4776
G01 X27.2010 Y11.6546
G01 X27.1124 Y11.7668
G01 X27.1050 Y11.7774
G01 X27.0903 Y11.7997
G01 X27.0845 Y11.8095
G01 X27.0767 Y11.8247
G01 X27.0700 Y11.8405
G01 X27.0662 Y11.8512
G01 X27.0630 Y11.8622
G01 X27.0603 Y11.8732
G01 X27.0429 Y11.9539
G01 X27.0406 Y11.9710
G01 X27.0397 Y11.9882
G01 X27.0401 Y12.0055
G01 X27.0417 Y12.0227
G01 X27.0435 Y12.0340
G01 X27.0458 Y12.0453
G01 X27.0504 Y12.0619
G01 X27.0541 Y12.0728
G01 X27.0831 Y12.1501
G01 X27.0879 Y12.1605
G01 X27.0932 Y12.1707
G01 X27.0990 Y12.1807
G01 X27.1053 Y12.1903
G01 X27.1156 Y12.2041
G01 X27.1270 Y12.2172
G01 X27.1392 Y12.2293
G01 X27.1524 Y12.2405
G01 X27.2181 Y12.2899
G01 X27.2272 Y12.2961
G01 X27.2367 Y12.3019
G01 X27.2463 Y12.3072
G01 X27.2592 Y12.3133
G01 X27.3238 Y12.3617
G01 X27.3713 Y12.4252
G01 X27.4006 Y12.5032
G01 X27.4028 Y12.5239
G01 X27.4028 Y14.5001
G01 X27.4006 Y14.5208
G01 X27.3713 Y14.5988
G01 X27.3238 Y14.6622
G01 X27.2603 Y14.7098
G01 X27.1823 Y14.7390
G01 X27.1616 Y14.7413
G01 X25.0904 Y14.7413
G01 X25.0697 Y14.7390
G01 X24.9917 Y14.7098
G01 X24.9283 Y14.6622
G01 X24.8810 Y14.5993
G01 X24.8689 Y14.5852
G01 X24.8466 Y14.5614
G01 X24.8343 Y14.5497
G01 X24.8211 Y14.5389
G01 X24.8072 Y14.5291
G01 X24.7925 Y14.5204
G01 X24.7773 Y14.5127
G01 X24.7074 Y14.4809
G01 X24.6913 Y14.4747
G01 X24.6748 Y14.4697
G01 X24.6636 Y14.4671
G01 X24.6523 Y14.4651
G01 X24.6409 Y14.4636
G01 X24.6294 Y14.4626
G01 X24.6179 Y14.4623
G01 X24.6064 Y14.4625
G01 X24.5949 Y14.4633
G01 X24.5835 Y14.4646
G01 X24.5132 Y14.4747
G01 X24.5019 Y14.4767
G01 X24.4906 Y14.4791
G01 X24.4740 Y14.4839
G01 X24.4578 Y14.4899
G01 X24.4421 Y14.4970
G01 X24.4320 Y14.5025
G01 X24.4173 Y14.5115
G01 X24.4079 Y14.5182
G01 X24.3988 Y14.5253
G01 X24.3408 Y14.5755
G01 X24.3323 Y14.5832
G01 X24.3203 Y14.5956
G01 X24.3092 Y14.6089
G01 X24.2992 Y14.6229
G01 X24.2931 Y14.6326
G01 X24.2875 Y14.6427
G01 X24.2824 Y14.6530
G01 X24.2778 Y14.6636
G01 X24.2719 Y14.6798
G01 X24.2487 Y14.7587
G01 X24.2461 Y14.7694
G01 X24.2440 Y14.7803
G01 X24.2419 Y14.7967
G01 X24.2411 Y14.8077
G01 X24.2408 Y14.8187
G01 X24.2409 Y14.9560
G01 X24.2422 Y14.9746
G01 X24.2457 Y15.0070
G01 X24.2475 Y15.0182
G01 X24.2512 Y15.0349
G01 X24.2561 Y15.0512
G01 X24.2600 Y15.0619
G01 X24.2668 Y15.0775
G01 X24.2720 Y15.0876
G01 X24.3116 Y15.1595
G01 X24.3175 Y15.1688
G01 X24.3239 Y15.1777
G01 X24.3343 Y15.1906
G01 X24.3456 Y15.2027
G01 X24.7797 Y15.6367
G01 X24.7937 Y15.6490
G01 X24.8237 Y15.6728
G01 X24.8379 Y15.6823
G01 X24.8477 Y15.6881
G01 X24.8578 Y15.6934
G01 X24.8733 Y15.7003
G01 X24.8894 Y15.7061
G01 X24.9682 Y15.7293
G01 X24.9790 Y15.7319
G01 X24.9952 Y15.7348
G01 X25.0117 Y15.7366
G01 X25.0282 Y15.7372
G01 X27.7032 Y15.7372
G01 X27.7393 Y15.7435
G01 X27.7552 Y15.7456
G01 X27.7967 Y15.7495
G01 X27.8321 Y15.7589
G01 X27.8478 Y15.7624
G01 X27.8888 Y15.7699
G01 X27.9232 Y15.7824
G01 X27.9385 Y15.7872
G01 X27.9787 Y15.7982
G01 X28.0166 Y15.8157
G01 X28.0314 Y15.8218
G01 X28.0658 Y15.8343
G01 X28.0976 Y15.8526
G01 X28.1118 Y15.8601
G01 X28.1495 Y15.8779
G01 X28.1838 Y15.9016
G01 X28.1973 Y15.9102
G01 X28.2290 Y15.9285
G01 X28.2571 Y15.9520
G01 X28.2698 Y15.9618
G01 X28.3038 Y15.9859
G01 X28.6295 Y16.3116
G01 X28.6506 Y16.3311
G01 X28.6596 Y16.3383
G01 X28.6688 Y16.3450
G01 X28.6834 Y16.3542
G01 X28.6934 Y16.3597
G01 X28.7683 Y16.3942
G01 X28.7788 Y16.3987
G01 X28.7896 Y16.4027
G01 X28.8006 Y16.4061
G01 X28.8118 Y16.4090
G01 X28.8230 Y16.4114
G01 X28.8344 Y16.4132
G01 X28.8458 Y16.4144
G01 X28.8573 Y16.4150
G01 X28.8688 Y16.4151
G01 X28.8861 Y16.4141
G01 X28.8975 Y16.4128
G01 X28.9735 Y16.4018
G01 X28.9847 Y16.3996
G01 X28.9959 Y16.3968
G01 X29.0124 Y16.3916
G01 X29.0231 Y16.3875
G01 X29.0337 Y16.3829
G01 X29.0490 Y16.3749
G01 X29.0637 Y16.3659
G01 X29.0731 Y16.3592
G01 X29.0821 Y16.3521
G01 X29.1402 Y16.3019
G01 X29.1487 Y16.2942
G01 X29.1568 Y16.2860
G01 X29.1645 Y16.2775
G01 X29.1718 Y16.2685
G01 X29.1818 Y16.2545
G01 X29.1908 Y16.2398
G01 X29.1961 Y16.2296
G01 X29.2010 Y16.2191
G01 X29.2053 Y16.2085
G01 X29.2108 Y16.1921
G01 X29.2336 Y16.1133
G01 X29.2369 Y16.0971
G01 X29.2385 Y16.0862
G01 X29.2396 Y16.0752
G01 X29.2401 Y16.0587
G01 X29.2401 Y5.1077
G01 X49.8588 Y5.1077
G01 X49.8587 Y16.8363
G01 X30.0177 Y16.8363
G01 X29.9947 Y16.8370
G01 X29.9833 Y16.8380
G01 X29.9720 Y16.8395
G01 X29.9551 Y16.8429
G01 X29.9441 Y16.8458
G01 X29.9331 Y16.8493
G01 X29.8612 Y16.8760
G01 X29.8453 Y16.8826
G01 X29.8299 Y16.8904
G01 X29.8200 Y16.8963
G01 X29.8104 Y16.9026
G01 X29.8011 Y16.9094
G01 X29.7921 Y16.9166
G01 X29.7835 Y16.9243
G01 X29.7753 Y16.9324
G01 X29.7638 Y16.9452
G01 X29.7142 Y17.0111
G01 X29.7075 Y17.0205
G01 X29.7013 Y17.0302
G01 X29.6956 Y17.0402
G01 X29.6904 Y17.0504
G01 X29.6857 Y17.0609
G01 X29.6816 Y17.0717
G01 X29.6780 Y17.0826
G01 X29.6736 Y17.0993
G01 X29.6713 Y17.1106
G01 X29.6697 Y17.1220
G01 X29.6635 Y17.2042
G01 X29.6629 Y17.2215
G01 X29.6636 Y17.2387
G01 X29.6648 Y17.2502
G01 X29.6676 Y17.2672
G01 X29.6702 Y17.2784
G01 X29.6733 Y17.2895
G01 X29.6770 Y17.3004
G01 X29.6835 Y17.3164
G01 X29.6885 Y17.3267
G01 X29.7280 Y17.3989
G01 X29.7337 Y17.4083
G01 X29.7431 Y17.4219
G01 X29.7535 Y17.4348
G01 X29.7648 Y17.4469
G01 X31.1297 Y18.8117
G01 X31.1437 Y18.8240
G01 X31.1737 Y18.8478
G01 X31.1831 Y18.8543
G01 X31.1927 Y18.8603
G01 X31.2027 Y18.8658
G01 X31.2129 Y18.8708
G01 X31.2286 Y18.8774
G01 X31.2448 Y18.8828
G01 X31.3129 Y18.9028
G01 X31.3236 Y18.9056
G01 X31.3344 Y18.9080
G01 X31.3452 Y18.9098
G01 X31.3562 Y18.9111
G01 X31.3672 Y18.9119
G01 X31.3782 Y18.9122
G01 X62.5748 Y18.9122
G01 X62.5934 Y18.9114
G01 X62.6377 Y18.9065
G01 X62.6544 Y18.9032
G01 X62.6709 Y18.8987
G01 X62.6816 Y18.8950
G01 X62.6922 Y18.8909
G01 X62.7076 Y18.8836
G01 X62.7750 Y18.8469
G01 X62.7892 Y18.8385
G01 X62.7983 Y18.8323
G01 X62.8115 Y18.8222
G01 X62.8198 Y18.8150
G01 X62.8278 Y18.8074
G01 X65.1625 Y16.4727
G01 X65.1710 Y16.4637
G01 X65.1790 Y16.4543
G01 X65.1994 Y16.4288
G01 X65.2093 Y16.4149
G01 X65.2153 Y16.4053
G01 X65.2234 Y16.3902
G01 X65.2304 Y16.3747
G01 X65.2362 Y16.3586
G01 X65.2578 Y16.2851
G01 X65.2619 Y16.2690
G01 X65.2640 Y16.2582
G01 X65.2662 Y16.2418
G01 X65.2670 Y16.2308
G01 X65.2672 Y16.2198
G01 X65.2672 Y11.2455
G01 X65.2666 Y11.2340
G01 X65.2654 Y11.2224
G01 X65.2637 Y11.2110
G01 X65.2614 Y11.1996
G01 X65.2400 Y11.1226
G01 X65.2346 Y11.1061
G01 X65.2281 Y11.0900
G01 X65.2230 Y11.0796
G01 X65.2175 Y11.0694
G01 X65.2029 Y11.0454
G01 X65.1260 Y10.8597
G01 X65.0790 Y10.6643
G01 X65.0633 Y10.4640
G01 X65.0790 Y10.2636
G01 X65.1260 Y10.0682
G01 X65.2029 Y9.8825
G01 X65.3079 Y9.7112
G01 X65.4384 Y9.5583
G01 X65.5912 Y9.4278
G01 X65.7626 Y9.3228
G01 X65.9483 Y9.2459
G01 X66.1437 Y9.1990
G01 X66.3440 Y9.1832
G01 X66.5444 Y9.1990
G01 X66.7398 Y9.2459
G01 X66.9255 Y9.3228
G01 X67.0968 Y9.4278
G01 X67.2497 Y9.5583
G01 X67.3590 Y9.6864
G01 X67.3669 Y9.6951
G01 X67.3751 Y9.7034
G01 X67.4030 Y9.7288
G01 X67.4115 Y9.7362
G01 X67.4203 Y9.7431
G01 X67.4342 Y9.7527
G01 X67.4438 Y9.7585
G01 X67.4537 Y9.7638
G01 X67.4690 Y9.7709
G01 X67.4848 Y9.7769
G01 X67.5553 Y9.8006
G01 X67.5504 Y9.8117
G01 X67.5444 Y9.8279
G01 X67.5397 Y9.8445
G01 X67.5362 Y9.8614
G01 X67.5340 Y9.8785
G01 X67.5332 Y9.8900
G01 X67.5332 Y9.9073
G01 X67.5344 Y9.9245
G01 X67.5426 Y10.0005
G01 X67.5443 Y10.0114
G01 X67.5465 Y10.0222
G01 X67.5492 Y10.0329
G01 X67.5525 Y10.0435
G01 X67.5562 Y10.0538
G01 X67.5621 Y10.0682
G01 X67.6090 Y10.2636
G01 X67.6248 Y10.4640
G01 X67.6090 Y10.6643
G01 X67.5621 Y10.8597
G01 X67.4852 Y11.0454
G01 X67.4677 Y11.0744
G01 X67.4600 Y11.0900
G01 X67.4555 Y11.1007
G01 X67.4515 Y11.1115
G01 X67.4481 Y11.1226
G01 X67.4280 Y11.1940
G01 X67.4244 Y11.2110
G01 X67.4220 Y11.2282
G01 X67.4211 Y11.2397
G01 X67.4208 Y11.2513
G01 X67.4209 Y12.4125
G01 X67.4214 Y12.4234
G01 X67.4224 Y12.4343
G01 X67.4249 Y12.4505
G01 X67.4424 Y12.5241
G01 X67.4475 Y12.5406
G01 X67.4538 Y12.5566
G01 X67.4586 Y12.5671
G01 X67.4669 Y12.5822
G01 X67.4730 Y12.5920
G01 X67.4795 Y12.6014
G01 X67.4903 Y12.6150
G01 X67.4980 Y12.6235
G01 X67.5508 Y12.6792
G01 X67.5591 Y12.6872
G01 X67.5723 Y12.6983
G01 X67.5815 Y12.7052
G01 X67.5959 Y12.7146
G01 X67.6060 Y12.7203
G01 X67.6162 Y12.7254
G01 X67.6268 Y12.7301
G01 X67.6430 Y12.7361
G01 X67.6595 Y12.7408
G01 X67.7285 Y12.7579
G01 X67.7454 Y12.7614
G01 X67.7625 Y12.7636
G01 X67.7797 Y12.7646
G01 X67.7970 Y12.7642
G01 X67.8084 Y12.7633
G01 X67.8199 Y12.7618
G01 X67.8368 Y12.7585
G01 X67.8479 Y12.7556
G01 X67.8589 Y12.7522
G01 X67.9315 Y12.7273
G01 X67.9422 Y12.7230
G01 X67.9527 Y12.7183
G01 X67.9679 Y12.7101
G01 X67.9825 Y12.7009
G01 X67.9963 Y12.6906
G01 X68.0051 Y12.6832
G01 X68.0135 Y12.6753
G01 X68.0215 Y12.6670
G01 X68.0291 Y12.6584
G01 X68.0802 Y12.5939
G01 X68.0866 Y12.5850
G01 X68.0926 Y12.5758
G01 X68.1008 Y12.5614
G01 X68.1079 Y12.5465
G01 X68.1394 Y12.4689
G01 X68.2551 Y12.2697
G01 X68.3977 Y12.0888
G01 X68.5644 Y11.9298
G01 X68.7518 Y11.7958
G01 X68.9563 Y11.6896
G01 X69.1737 Y11.6133
G01 X69.3996 Y11.5684
G01 X69.6296 Y11.5557
G01 X69.8592 Y11.5756
G01 X70.0836 Y11.6276
G01 X70.2985 Y11.7107
G01 X70.4995 Y11.8233
G01 X70.6826 Y11.9631
G01 X70.8442 Y12.1272
G01 X70.9811 Y12.3126
G01 X71.0905 Y12.5153
G01 X71.1702 Y12.7314
G01 X71.2187 Y12.9567
G01 X71.2353 Y13.1910
G01 X71.2324 Y13.2844
G01 X71.2011 Y13.5172
G01 X71.1386 Y13.7389
G01 X71.0454 Y13.9497
G01 X70.9235 Y14.1451
G01 X70.7753 Y14.3215
G01 X70.6037 Y14.4752
G01 X70.4121 Y14.6032
G01 X70.2044 Y14.7029
G01 X69.9848 Y14.7724
G01 X69.7575 Y14.8102
G01 X69.5272 Y14.8156
G01 X69.2984 Y14.7886
G01 X69.0757 Y14.7295
G01 X68.8636 Y14.6397
G01 X68.6662 Y14.5209
G01 X68.4876 Y14.3754
G01 X68.3312 Y14.2062
G01 X68.2002 Y14.0167
G01 X68.0985 Y13.8132
G01 X68.0903 Y13.7982
G01 X68.0842 Y13.7886
G01 X68.0743 Y13.7747
G01 X68.0441 Y13.7358
G01 X68.0370 Y13.7271
G01 X68.0295 Y13.7188
G01 X68.0176 Y13.7071
G01 X68.0048 Y13.6962
G01 X67.9959 Y13.6895
G01 X67.9819 Y13.6802
G01 X67.9723 Y13.6746
G01 X67.9623 Y13.6695
G01 X67.8874 Y13.6353
G01 X67.8768 Y13.6310
G01 X67.8659 Y13.6273
G01 X67.8492 Y13.6228
G01 X67.8380 Y13.6204
G01 X67.8209 Y13.6180
G01 X67.8094 Y13.6170
G01 X67.7979 Y13.6167
G01 X67.7806 Y13.6172
G01 X67.7635 Y13.6190
G01 X67.6932 Y13.6291
G01 X67.6819 Y13.6311
G01 X67.6706 Y13.6335
G01 X67.6595 Y13.6366
G01 X67.6432 Y13.6422
G01 X67.6326 Y13.6465
G01 X67.6221 Y13.6515
G01 X67.6120 Y13.6569
G01 X67.6021 Y13.6628
G01 X67.5879 Y13.6726
G01 X67.5745 Y13.6834
G01 X67.5165 Y13.7337
G01 X67.5082 Y13.7416
G01 X67.5003 Y13.7500
G01 X67.4892 Y13.7633
G01 X67.4824 Y13.7725
G01 X67.4761 Y13.7821
G01 X67.4702 Y13.7920
G01 X67.4649 Y13.8022
G01 X67.4600 Y13.8127
G01 X67.4557 Y13.8233
G01 X67.4502 Y13.8397
G01 X67.4274 Y13.9185
G01 X67.4250 Y13.9292
G01 X67.4225 Y13.9456
G01 X67.4214 Y13.9566
G01 X67.4209 Y13.9676
G01 X67.4208 Y16.9082
G01 X67.4145 Y16.9443
G01 X67.4124 Y16.9602
G01 X67.4085 Y17.0017
G01 X67.3991 Y17.0371
G01 X67.3956 Y17.0527
G01 X67.3881 Y17.0937
G01 X67.3756 Y17.1282
G01 X67.3708 Y17.1434
G01 X67.3598 Y17.1837
G01 X67.3443 Y17.2169
G01 X67.3381 Y17.2317
G01 X67.3237 Y17.2708
G01 X67.3054 Y17.3025
G01 X67.2979 Y17.3167
G01 X67.2801 Y17.3544
G01 X67.2564 Y17.3887
G01 X67.2478 Y17.4023
G01 X67.2295 Y17.4340
G01 X67.2060 Y17.4620
G01 X67.1962 Y17.4747
G01 X67.1721 Y17.5088
G01 X64.0743 Y20.6065
G01 X64.0586 Y20.6233
G01 X64.0512 Y20.6321
G01 X64.0409 Y20.6459
G01 X64.0318 Y20.6604
G01 X64.0262 Y20.6704
G01 X64.0212 Y20.6807
G01 X63.9894 Y20.7506
G01 X63.9852 Y20.7612
G01 X63.9814 Y20.7721
G01 X63.9783 Y20.7832
G01 X63.9756 Y20.7944
G01 X63.9728 Y20.8114
G01 X63.9715 Y20.8229
G01 X63.9709 Y20.8344
G01 X63.9708 Y20.8459
G01 X63.9713 Y20.8574
G01 X63.9724 Y20.8688
G01 X63.9841 Y20.9505
G01 X63.9863 Y20.9618
G01 X63.9891 Y20.9729
G01 X63.9924 Y20.9840
G01 X63.9963 Y20.9948
G01 X64.0030 Y21.0107
G01 X64.0082 Y21.0210
G01 X64.0169 Y21.0359
G01 X64.0233 Y21.0454
G01 X64.0302 Y21.0547
G01 X64.0375 Y21.0635
G01 X64.0840 Y21.1172
G01 X64.0958 Y21.1298
G01 X64.1041 Y21.1377
G01 X64.1129 Y21.1452
G01 X64.1267 Y21.1556
G01 X64.1363 Y21.1619
G01 X64.1462 Y21.1678
G01 X64.1563 Y21.1731
G01 X64.1668 Y21.1780
G01 X64.1774 Y21.1823
G01 X64.1938 Y21.1878
G01 X64.2726 Y21.2106
G01 X64.2834 Y21.2130
G01 X64.2942 Y21.2148
G01 X64.3107 Y21.2166
G01 X64.3272 Y21.2172
G01 X64.7646 Y21.2171
G01 X64.7813 Y21.2161
G01 X64.8109 Y21.2132
G01 X64.8219 Y21.2116
G01 X64.8327 Y21.2095
G01 X64.8435 Y21.2068
G01 X64.8541 Y21.2037
G01 X64.8697 Y21.1981
G01 X64.8799 Y21.1937
G01 X64.9528 Y21.1561
G01 X64.9678 Y21.1476
G01 X64.9775 Y21.1414
G01 X64.9868 Y21.1346
G01 X64.9958 Y21.1274
G01 X65.0085 Y21.1158
G01 X65.0165 Y21.1075
G01 X65.0241 Y21.0988
G01 X65.0313 Y21.0898
G01 X65.0379 Y21.0805
G01 X65.0471 Y21.0658
G01 X65.0851 Y20.9994
G01 X65.0925 Y20.9846
G01 X65.0968 Y20.9745
G01 X65.1024 Y20.9589
G01 X65.1055 Y20.9483
G01 X65.1260 Y20.8632
G01 X65.2029 Y20.6775
G01 X65.3079 Y20.5062
G01 X65.4384 Y20.3533
G01 X65.5912 Y20.2228
G01 X65.7626 Y20.1178
G01 X65.9483 Y20.0409
G01 X66.1437 Y19.9940
G01 X66.3440 Y19.9782
G01 X66.5444 Y19.9940
G01 X66.7398 Y20.0409
G01 X66.9255 Y20.1178
G01 X67.0968 Y20.2228
G01 X67.2497 Y20.3533
G01 X67.3802 Y20.5062
G01 X67.4852 Y20.6775
G01 X67.5621 Y20.8632
G01 X67.6090 Y21.0586
G01 X67.6248 Y21.2590
G01 X67.6090 Y21.4593
G01 X67.5621 Y21.6548
G01 X67.4852 Y21.8404
G01 X67.3802 Y22.0118
G01 X67.2497 Y22.1646
G01 X67.0968 Y22.2951
G01 X66.9255 Y22.4001
G01 X66.7398 Y22.4770
G01 X66.5444 Y22.5240
G01 X66.3440 Y22.5397
G01 X66.1437 Y22.5240
G01 X66.1250 Y22.5201
G01 X66.1136 Y22.5186
G01 X66.1021 Y22.5176
G01 X66.0848 Y22.5172
G01 X66.0113 Y22.5184
G01 X65.9998 Y22.5194
G01 X65.9884 Y22.5210
G01 X65.9714 Y22.5244
G01 X65.9045 Y22.5423
G01 X65.8491 Y22.5601
G01 X65.8169 Y22.5660
G01 X65.7715 Y22.5684
G01 X65.7445 Y22.5708
G01 X65.7174 Y22.5713
G01 X65.6720 Y22.5736
G01 X65.6397 Y22.5711
G01 X65.6276 Y22.5708
G01 X54.5183 Y22.5708
G01 X54.5017 Y22.5714
G01 X54.4852 Y22.5732
G01 X54.4743 Y22.5750
G01 X54.4581 Y22.5787
G01 X54.3742 Y22.6054
G01 X54.3580 Y22.6113
G01 X54.3422 Y22.6184
G01 X54.3320 Y22.6237
G01 X54.3221 Y22.6296
G01 X54.3078 Y22.6393
G01 X54.2943 Y22.6500
G01 X54.2858 Y22.6577
G01 X54.2776 Y22.6658
G01 X54.2661 Y22.6787
G01 X54.2153 Y22.7437
G01 X54.2055 Y22.7579
G01 X54.1996 Y22.7678
G01 X54.1917 Y22.7831
G01 X54.1849 Y22.7990
G01 X54.1793 Y22.8153
G01 X54.1750 Y22.8320
G01 X54.1728 Y22.8433
G01 X54.1712 Y22.8547
G01 X54.1640 Y22.9311
G01 X54.1632 Y22.9426
G01 X54.1631 Y22.9599
G01 X54.1637 Y22.9714
G01 X54.1658 Y22.9885
G01 X54.1678 Y22.9998
G01 X54.1705 Y23.0110
G01 X54.1754 Y23.0276
G01 X54.1794 Y23.0384
G01 X54.1864 Y23.0541
G01 X54.2244 Y23.1274
G01 X54.2333 Y23.1422
G01 X54.2432 Y23.1563
G01 X54.2542 Y23.1696
G01 X54.2621 Y23.1780
G01 X54.2703 Y23.1860
G01 X54.2790 Y23.1936
G01 X54.2880 Y23.2007
G01 X54.2974 Y23.2074
G01 X54.3070 Y23.2136
G01 X54.3784 Y23.2546
G01 X54.3932 Y23.2620
G01 X54.4033 Y23.2663
G01 X54.4189 Y23.2719
G01 X54.4295 Y23.2749
G01 X54.5478 Y23.3034
G01 X54.7335 Y23.3803
G01 X54.9048 Y23.4853
G01 X55.0577 Y23.6158
G01 X55.1882 Y23.7687
G01 X55.2932 Y23.9400
G01 X55.3701 Y24.1257
G01 X55.4170 Y24.3211
G01 X55.4328 Y24.5215
G01 X55.4170 Y24.7218
G01 X55.3701 Y24.9173
G01 X55.2932 Y25.1029
G01 X55.1882 Y25.2743
G01 X55.0577 Y25.4271
G01 X54.9048 Y25.5576
G01 X54.7335 Y25.6626
G01 X54.5478 Y25.7395
G01 X54.3524 Y25.7865
G01 X54.1520 Y25.8022
G01 X53.9517 Y25.7865
G01 X53.7563 Y25.7395
G01 X53.5706 Y25.6626
G01 X53.3992 Y25.5576
G01 X53.2464 Y25.4271
G01 X53.1540 Y25.3189
G01 X53.1425 Y25.3065
G01 X53.1344 Y25.2986
G01 X53.1215 Y25.2876
G01 X53.1078 Y25.2776
G01 X53.0324 Y25.2294
G01 X53.0226 Y25.2240
G01 X53.0125 Y25.2192
G01 X53.0023 Y25.2148
G01 X52.9918 Y25.2109
G01 X52.9758 Y25.2061
G01 X52.9649 Y25.2035
G01 X52.9539 Y25.2014
G01 X52.9373 Y25.1993
G01 X52.9206 Y25.1984
G01 X52.8440 Y25.1989
G01 X52.8325 Y25.1993
G01 X52.8210 Y25.2002
G01 X52.8096 Y25.2017
G01 X52.7983 Y25.2038
G01 X52.7871 Y25.2064
G01 X52.7761 Y25.2096
G01 X52.7652 Y25.2133
G01 X52.7545 Y25.2176
G01 X52.7389 Y25.2250
G01 X52.7239 Y25.2335
G01 X52.6596 Y25.2754
G01 X52.6460 Y25.2849
G01 X52.6374 Y25.2918
G01 X52.6291 Y25.2991
G01 X52.6212 Y25.3068
G01 X52.6137 Y25.3148
G01 X52.5177 Y25.4271
G01 X52.3648 Y25.5576
G01 X52.1935 Y25.6626
G01 X52.0078 Y25.7395
G01 X51.8124 Y25.7865
G01 X51.6120 Y25.8022
G01 X51.4117 Y25.7865
G01 X51.2163 Y25.7395
G01 X51.0306 Y25.6626
G01 X50.8592 Y25.5576
G01 X50.7064 Y25.4271
G01 X50.6140 Y25.3189
G01 X50.6065 Y25.3105
G01 X50.5944 Y25.2986
G01 X50.5815 Y25.2876
G01 X50.5678 Y25.2776
G01 X50.5019 Y25.2352
G01 X50.4924 Y25.2294
G01 X50.4826 Y25.2240
G01 X50.4725 Y25.2192
G01 X50.4623 Y25.2148
G01 X50.4518 Y25.2109
G01 X50.4411 Y25.2076
G01 X50.4303 Y25.2047
G01 X50.4194 Y25.2024
G01 X50.4029 Y25.1999
G01 X50.3862 Y25.1986
G01 X50.3040 Y25.1989
G01 X50.2925 Y25.1993
G01 X50.2810 Y25.2002
G01 X50.2696 Y25.2017
G01 X50.2583 Y25.2038
G01 X50.2471 Y25.2064
G01 X50.2361 Y25.2096
G01 X50.2252 Y25.2133
G01 X50.2145 Y25.2176
G01 X50.1989 Y25.2250
G01 X50.1839 Y25.2335
G01 X50.1196 Y25.2754
G01 X50.1060 Y25.2849
G01 X50.0974 Y25.2918
G01 X50.0891 Y25.2991
G01 X50.0812 Y25.3068
G01 X50.0737 Y25.3148
G01 X49.9777 Y25.4271
G01 X49.8248 Y25.5576
G01 X49.6535 Y25.6626
G01 X49.4678 Y25.7395
G01 X49.2724 Y25.7865
G01 X49.0720 Y25.8022
G01 X48.8717 Y25.7865
G01 X48.6763 Y25.7395
G01 X48.4906 Y25.6626
G01 X48.3192 Y25.5576
G01 X48.1664 Y25.4271
G01 X48.0703 Y25.3147
G01 X48.0625 Y25.3065
G01 X48.0544 Y25.2986
G01 X48.0459 Y25.2912
G01 X48.0325 Y25.2808
G01 X47.9572 Y25.2322
G01 X47.9426 Y25.2240
G01 X47.9274 Y25.2169
G01 X47.9170 Y25.2128
G01 X47.9065 Y25.2092
G01 X47.8958 Y25.2061
G01 X47.8849 Y25.2035
G01 X47.8684 Y25.2006
G01 X47.8573 Y25.1993
G01 X47.8462 Y25.1986
G01 X47.8350 Y25.1984
G01 X47.7583 Y25.1990
G01 X47.7410 Y25.2002
G01 X47.7240 Y25.2027
G01 X47.7071 Y25.2064
G01 X47.6961 Y25.2096
G01 X47.6852 Y25.2133
G01 X47.6745 Y25.2176
G01 X47.6640 Y25.2224
G01 X47.6488 Y25.2305
G01 X47.6390 Y25.2366
G01 X47.5750 Y25.2785
G01 X47.5617 Y25.2883
G01 X47.5532 Y25.2954
G01 X47.5412 Y25.3068
G01 X47.5337 Y25.3148
G01 X47.4377 Y25.4271
G01 X47.2848 Y25.5576
G01 X47.1135 Y25.6626
G01 X46.9278 Y25.7395
G01 X46.7324 Y25.7865
G01 X46.5320 Y25.8022
G01 X46.3317 Y25.7865
G01 X46.1363 Y25.7395
G01 X45.9506 Y25.6626
G01 X45.7792 Y25.5576
G01 X45.6264 Y25.4271
G01 X45.4959 Y25.2743
G01 X45.3909 Y25.1029
G01 X45.3140 Y24.9172
G01 X45.2670 Y24.7218
G01 X45.2513 Y24.5215
G01 X45.2670 Y24.3211
G01 X45.3140 Y24.1257
G01 X45.3842 Y23.9561
G01 X45.3909 Y23.9400
G01 X45.4959 Y23.7687
G01 X45.6264 Y23.6158
G01 X45.7792 Y23.4853
G01 X45.9506 Y23.3803
G01 X46.1363 Y23.3034
G01 X46.2599 Y23.2735
G01 X46.2757 Y23.2682
G01 X46.2860 Y23.2641
G01 X46.3010 Y23.2571
G01 X46.3155 Y23.2490
G01 X46.3862 Y23.2059
G01 X46.4003 Y23.1961
G01 X46.4137 Y23.1852
G01 X46.4222 Y23.1774
G01 X46.4303 Y23.1691
G01 X46.4379 Y23.1605
G01 X46.4451 Y23.1516
G01 X46.4519 Y23.1423
G01 X46.4581 Y23.1326
G01 X46.4639 Y23.1227
G01 X46.4692 Y23.1124
G01 X46.5012 Y23.0427
G01 X46.5057 Y23.0321
G01 X46.5097 Y23.0213
G01 X46.5147 Y23.0048
G01 X46.5184 Y22.9879
G01 X46.5208 Y22.9708
G01 X46.5218 Y22.9593
G01 X46.5221 Y22.9421
G01 X46.5216 Y22.9306
G01 X46.5205 Y22.9191
G01 X46.5097 Y22.8432
G01 X46.5077 Y22.8318
G01 X46.5038 Y22.8150
G01 X46.4986 Y22.7985
G01 X46.4945 Y22.7878
G01 X46.4874 Y22.7721
G01 X46.4819 Y22.7619
G01 X46.4760 Y22.7521
G01 X46.4696 Y22.7425
G01 X46.4627 Y22.7333
G01 X46.4089 Y22.6707
G01 X46.4012 Y22.6622
G01 X46.3888 Y22.6502
G01 X46.3801 Y22.6427
G01 X46.3663 Y22.6324
G01 X46.3567 Y22.6260
G01 X46.3417 Y22.6174
G01 X46.3261 Y22.6100
G01 X46.3101 Y22.6037
G01 X46.2991 Y22.6002
G01 X46.2257 Y22.5787
G01 X46.2150 Y22.5761
G01 X46.1987 Y22.5731
G01 X46.1822 Y22.5714
G01 X46.1657 Y22.5708
G01 X32.4825 Y22.5708
G01 X32.4701 Y22.5711
G01 X32.4578 Y22.5721
G01 X32.4253 Y22.5757
G01 X32.4085 Y22.5785
G01 X32.3920 Y22.5826
G01 X32.3757 Y22.5879
G01 X32.3600 Y22.5944
G01 X32.3447 Y22.6020
G01 X32.2824 Y22.6360
G01 X32.2682 Y22.6445
G01 X32.2590 Y22.6506
G01 X32.2502 Y22.6573
G01 X32.2376 Y22.6679
G01 X32.2296 Y22.6755
G01 X28.1452 Y26.7600
G01 X28.1368 Y26.7688
G01 X28.1158 Y26.7934
G01 X28.0820 Y26.8238
G01 X28.0625 Y26.8426
G01 X28.0418 Y26.8601
G01 X28.0080 Y26.8905
G01 X27.9810 Y26.9091
G01 X27.9350 Y26.9325
G01 X27.8846 Y26.9614
G01 X27.8543 Y26.9739
G01 X27.8045 Y26.9874
G01 X27.7491 Y27.0051
G01 X27.7169 Y27.0110
G01 X27.6715 Y27.0134
G01 X27.6445 Y27.0158
G01 X27.6174 Y27.0163
G01 X27.5720 Y27.0186
G01 X27.5397 Y27.0161
G01 X27.5276 Y27.0158
G01 X26.9997 Y27.0159
G01 X26.9873 Y27.0165
G01 X26.9545 Y27.0200
G01 X26.9432 Y27.0214
G01 X26.9320 Y27.0235
G01 X26.9210 Y27.0261
G01 X26.9046 Y27.0310
G01 X26.8940 Y27.0349
G01 X26.8784 Y27.0417
G01 X26.8059 Y27.0809
G01 X26.7911 Y27.0897
G01 X26.7816 Y27.0962
G01 X26.7724 Y27.1032
G01 X26.7636 Y27.1106
G01 X26.7552 Y27.1184
G01 X26.7471 Y27.1266
G01 X26.7395 Y27.1352
G01 X26.7323 Y27.1442
G01 X26.7224 Y27.1583
G01 X26.7136 Y27.1732
G01 X26.6795 Y27.2355
G01 X26.6718 Y27.2509
G01 X26.6652 Y27.2669
G01 X26.6616 Y27.2778
G01 X26.6570 Y27.2944
G01 X26.6547 Y27.3057
G01 X26.6530 Y27.3171
G01 X26.6514 Y27.3343
G01 X26.6511 Y27.3515
G01 X26.6517 Y27.3630
G01 X26.6578 Y27.4453
G01 X26.6595 Y27.4567
G01 X26.6617 Y27.4680
G01 X26.6661 Y27.4847
G01 X26.6717 Y27.5010
G01 X26.6785 Y27.5168
G01 X26.6865 Y27.5321
G01 X26.6924 Y27.5420
G01 X26.7023 Y27.5562
G01 X26.7516 Y27.6217
G01 X26.7588 Y27.6301
G01 X26.7664 Y27.6380
G01 X26.7744 Y27.6457
G01 X26.7827 Y27.6529
G01 X26.8668 Y27.7162
G01 X26.9143 Y27.7797
G01 X26.9436 Y27.8577
G01 X26.9458 Y27.8784
G01 X26.9458 Y31.1496
G01 X26.9436 Y31.1703
G01 X26.9143 Y31.2483
G01 X26.8668 Y31.3117
G01 X26.8033 Y31.3593
G01 X26.7253 Y31.3885
G01 X26.7046 Y31.3908
G01 X23.4334 Y31.3908
G01 X23.4127 Y31.3885
G01 X23.3347 Y31.3593
G01 X23.2713 Y31.3117
G01 X23.2237 Y31.2483
G01 X23.1945 Y31.1703
G01 X23.1922 Y31.1496
G01 X23.1922 Y27.8784
G01 X23.1945 Y27.8577
G01 X23.2237 Y27.7797
G01 X23.2713 Y27.7162
G01 X23.3467 Y27.6597
G01 X23.3611 Y27.6480
G01 X23.3894 Y27.6216
G01 X23.4012 Y27.6092
G01 X23.4120 Y27.5960
G01 X23.4186 Y27.5868
G01 X23.4248 Y27.5773
G01 X23.4305 Y27.5675
G01 X23.4381 Y27.5522
G01 X23.4676 Y27.4877
G01 X23.4722 Y27.4771
G01 X23.4761 Y27.4663
G01 X23.4796 Y27.4553
G01 X23.4825 Y27.4442
G01 X23.4858 Y27.4272
G01 X23.4873 Y27.4158
G01 X23.4882 Y27.4043
G01 X23.4885 Y27.3871
G01 X23.4880 Y27.3756
G01 X23.4870 Y27.3641
G01 X23.4761 Y27.2882
G01 X23.4730 Y27.2712
G01 X23.4687 Y27.2545
G01 X23.4651 Y27.2435
G01 X23.4610 Y27.2328
G01 X23.4563 Y27.2223
G01 X23.4484 Y27.2069
G01 X23.4425 Y27.1971
G01 X23.4361 Y27.1875
G01 X23.4292 Y27.1783
G01 X23.4219 Y27.1694
G01 X23.3754 Y27.1157
G01 X23.3636 Y27.1031
G01 X23.3509 Y27.0914
G01 X23.3420 Y27.0842
G01 X23.3327 Y27.0774
G01 X23.3182 Y27.0680
G01 X23.3081 Y27.0624
G01 X23.2978 Y27.0573
G01 X23.2873 Y27.0527
G01 X23.2765 Y27.0487
G01 X23.1974 Y27.0252
G01 X23.1868 Y27.0223
G01 X23.1760 Y27.0200
G01 X23.1651 Y27.0181
G01 X23.1542 Y27.0168
G01 X23.1432 Y27.0160
G01 X23.1322 Y27.0158
G01 X10.4694 Y27.0158
G01 X10.4526 Y27.0164
G01 X10.4415 Y27.0175
G01 X10.4249 Y27.0201
G01 X10.4086 Y27.0239
G01 X10.3342 Y27.0460
G01 X10.3232 Y27.0496
G01 X10.3124 Y27.0537
G01 X10.2965 Y27.0609
G01 X10.2813 Y27.0693
G01 X10.2667 Y27.0788
G01 X10.2574 Y27.0857
G01 X10.2485 Y27.0931
G01 X10.2399 Y27.1009
G01 X10.2318 Y27.1091
G01 X10.1780 Y27.1718
G01 X10.1673 Y27.1853
G01 X10.1576 Y27.1996
G01 X10.1491 Y27.2146
G01 X10.1440 Y27.2249
G01 X10.1373 Y27.2408
G01 X10.1319 Y27.2572
G01 X10.1289 Y27.2683
G01 X10.1256 Y27.2853
G01 X10.1152 Y27.3613
G01 X10.1139 Y27.3727
G01 X10.1131 Y27.3900
G01 X10.1133 Y27.4015
G01 X10.1140 Y27.4130
G01 X10.1153 Y27.4244
G01 X10.1183 Y27.4414
G01 X10.1226 Y27.4581
G01 X10.1281 Y27.4745
G01 X10.1348 Y27.4904
G01 X10.1648 Y27.5547
G01 X10.1699 Y27.5650
G01 X10.1756 Y27.5750
