(G-CODE GENERATED BY FLATCAM v8.994 - www.flatcam.org - Version Date: 2020/11/7)

(Name: pet_puller_shield-B_Cu.gbr_iso_combined_cnc)
(Type: G-code from Geometry)
(Units: MM)

(Created on Saturday, 08 February 2025 at 18:55)

(This preprocessor is the default preprocessor used by FlatCAM.)
(It is made to work with MACH3 compatible motion controllers.)

(TOOL DIAMETER: 0.1655 mm)
(Feedrate_XY: 60.0 mm/min)
(Feedrate_Z: 30.0 mm/min)
(Feedrate rapids 1500.0 mm/min)

(Z_Cut: -0.09 mm)
(Z_Move: 2.0 mm)
(Z Start: None mm)
(Z End: 15.0 mm)
(X,Y End: None mm)
(Steps per circle: 64)
(Preprocessor Geometry: default)

(X range:    0.1779 ...   75.3602  mm)
(Y range:    0.6630 ...   54.2553  mm)

(Spindle Speed: 10000.0 RPM)
G21
G90
G94

G01 F60.00

M5
G00 Z15.0000
G00 X0.0000 Y0.0000
T2
M6    
(MSG, Change to Tool Dia = 0.1655)
M0
G00 Z15.0000

M03 S10000.0
G01 F60.00
G00 X19.7601 Y1.9668
G01 F30.00
G01 Z-0.0900
G01 F60.00
G01 X19.8966 Y1.8302
G01 X19.8995 Y1.8278
G01 X20.0577 Y1.7170
G01 X20.0609 Y1.7152
G01 X20.2360 Y1.6335
G01 X20.2395 Y1.6323
G01 X20.2873 Y1.6195
G01 X20.2873 Y1.9885
G01 X20.2533 Y2.0048
G01 X20.1875 Y2.0445
G01 X20.1275 Y2.0891
G01 X20.0705 Y2.1407
G01 X20.0190 Y2.1976
G01 X19.9743 Y2.2576
G01 X19.9347 Y2.3234
G01 X19.9183 Y2.3574
G01 X19.5493 Y2.3574
G01 X19.5621 Y2.3097
G01 X19.5634 Y2.3061
G01 X19.6450 Y2.1311
G01 X19.6469 Y2.1279
G01 X19.7577 Y1.9697
G01 X19.7601 Y1.9668
G00 Z2.0000
G00 X20.1160 Y1.9134
G01 F30.00
G01 Z-0.0900
G01 F60.00
G01 X20.1064 Y1.9195
G01 X20.0971 Y1.9260
G01 X20.0330 Y1.9740
G01 X19.9735 Y2.0275
G01 X19.9612 Y2.0394
G01 X19.9112 Y2.0945
G01 X19.9003 Y2.1076
G01 X19.8526 Y2.1719
G01 X19.8462 Y2.1813
G01 X19.8299 Y2.2085
G01 X19.7733 Y2.2085
G01 X19.7753 Y2.2042
G01 X19.8733 Y2.0642
G01 X19.9941 Y1.9434
G01 X20.1340 Y1.8454
G01 X20.1383 Y1.8434
G01 X20.1383 Y1.9000
G01 X20.1160 Y1.9134
G00 Z2.0000
G00 X19.9357 Y3.0667
G01 F30.00
G01 Z-0.0900
G01 F60.00
G01 X19.9732 Y3.1290
G01 X20.0165 Y3.1875
G01 X20.0216 Y3.1938
G01 X20.0720 Y3.2491
G01 X20.1275 Y3.2992
G01 X20.1875 Y3.3439
G01 X20.2533 Y3.3835
G01 X20.2873 Y3.3999
G01 X20.2873 Y3.7689
G01 X20.2395 Y3.7561
G01 X20.2360 Y3.7548
G01 X20.0609 Y3.6732
G01 X20.0577 Y3.6713
G01 X19.8995 Y3.5605
G01 X19.8966 Y3.5581
G01 X19.7601 Y3.4216
G01 X19.7577 Y3.4187
G01 X19.6469 Y3.2605
G01 X19.6450 Y3.2573
G01 X19.5634 Y3.0822
G01 X19.5621 Y3.0787
G01 X19.5493 Y3.0309
G01 X19.9183 Y3.0309
G01 X19.9319 Y3.0595
G01 X19.9357 Y3.0667
G00 Z2.0000
G00 X19.8559 Y3.2211
G01 F30.00
G01 Z-0.0900
G01 F60.00
G01 X19.9038 Y3.2852
G01 X19.9574 Y3.3447
G01 X19.9693 Y3.3570
G01 X20.0243 Y3.4070
G01 X20.0374 Y3.4179
G01 X20.1017 Y3.4656
G01 X20.1112 Y3.4720
G01 X20.1383 Y3.4883
G01 X20.1383 Y3.5449
G01 X20.1340 Y3.5429
G01 X19.9941 Y3.4449
G01 X19.8733 Y3.3241
G01 X19.7753 Y3.1842
G01 X19.7733 Y3.1799
G01 X19.8299 Y3.1799
G01 X19.8462 Y3.2070
G01 X19.8559 Y3.2211
G00 Z2.0000
G00 X20.9965 Y3.3825
G01 F30.00
G01 Z-0.0900
G01 F60.00
G01 X21.0589 Y3.3450
G01 X21.1174 Y3.3017
G01 X21.1237 Y3.2966
G01 X21.1789 Y3.2462
G01 X21.2291 Y3.1907
G01 X21.2737 Y3.1307
G01 X21.3134 Y3.0649
G01 X21.3297 Y3.0309
G01 X21.6987 Y3.0309
G01 X21.6859 Y3.0787
G01 X21.6847 Y3.0822
G01 X21.6030 Y3.2573
G01 X21.6012 Y3.2605
G01 X21.4904 Y3.4187
G01 X21.4880 Y3.4216
G01 X21.3514 Y3.5581
G01 X21.3485 Y3.5605
G01 X21.1903 Y3.6713
G01 X21.1871 Y3.6732
G01 X21.0121 Y3.7548
G01 X21.0085 Y3.7561
G01 X20.9608 Y3.7689
G01 X20.9608 Y3.3999
G01 X20.9894 Y3.3863
G01 X20.9965 Y3.3825
G00 Z2.0000
G00 X21.1509 Y3.4623
G01 F30.00
G01 Z-0.0900
G01 F60.00
G01 X21.2151 Y3.4144
G01 X21.2746 Y3.3608
G01 X21.2868 Y3.3489
G01 X21.3368 Y3.2939
G01 X21.3478 Y3.2808
G01 X21.3955 Y3.2165
G01 X21.4018 Y3.2070
G01 X21.4182 Y3.1799
G01 X21.4748 Y3.1799
G01 X21.4728 Y3.1842
G01 X21.3748 Y3.3241
G01 X21.2540 Y3.4449
G01 X21.1140 Y3.5429
G01 X21.1097 Y3.5449
G01 X21.1097 Y3.4883
G01 X21.1369 Y3.4720
G01 X21.1509 Y3.4623
G00 Z2.0000
G00 X21.4182 Y2.2085
G01 F30.00
G01 Z-0.0900
G01 F60.00
G01 X21.4018 Y2.1813
G01 X21.3955 Y2.1719
G01 X21.3478 Y2.1076
G01 X21.3368 Y2.0945
G01 X21.2828 Y2.0354
G01 X21.2237 Y1.9814
G01 X21.2106 Y1.9704
G01 X21.1463 Y1.9227
G01 X21.1369 Y1.9164
G01 X21.1097 Y1.9000
G01 X21.1097 Y1.8434
G01 X21.1140 Y1.8454
G01 X21.2540 Y1.9434
G01 X21.3748 Y2.0642
G01 X21.4728 Y2.2042
G01 X21.4748 Y2.2085
G01 X21.4182 Y2.2085
G00 Z2.0000
G00 X21.3485 Y1.8278
G01 F30.00
G01 Z-0.0900
G01 F60.00
G01 X21.3514 Y1.8302
G01 X21.4880 Y1.9668
G01 X21.4904 Y1.9697
G01 X21.6012 Y2.1279
G01 X21.6030 Y2.1311
G01 X21.6847 Y2.3061
G01 X21.6859 Y2.3097
G01 X21.6987 Y2.3574
G01 X21.3297 Y2.3574
G01 X21.3134 Y2.3234
G01 X21.2737 Y2.2576
G01 X21.2291 Y2.1976
G01 X21.1775 Y2.1407
G01 X21.1206 Y2.0891
G01 X21.0606 Y2.0445
G01 X20.9948 Y2.0048
G01 X20.9608 Y1.9885
G01 X20.9608 Y1.6195
G01 X21.0085 Y1.6323
G01 X21.0121 Y1.6335
G01 X21.1871 Y1.7152
G01 X21.1903 Y1.7170
G01 X21.3485 Y1.8278
G00 Z2.0000
G00 X20.4674 Y8.5410
G01 F30.00
G01 Z-0.0900
G01 F60.00
G01 X20.3968 Y8.5232
G01 X20.3245 Y8.4973
G01 X20.2550 Y8.4645
G01 X20.1892 Y8.4250
G01 X20.1275 Y8.3792
G01 X20.0705 Y8.3277
G01 X20.0190 Y8.2707
G01 X19.9732 Y8.2090
G01 X19.9337 Y8.1432
G01 X19.9009 Y8.0737
G01 X19.8750 Y8.0014
G01 X19.8563 Y7.9269
G01 X19.8450 Y7.8509
G01 X19.8413 Y7.7742
G01 X19.8450 Y7.6975
G01 X19.8563 Y7.6215
G01 X19.8750 Y7.5470
G01 X19.9009 Y7.4746
G01 X19.9337 Y7.4052
G01 X19.9732 Y7.3393
G01 X20.0190 Y7.2776
G01 X20.0705 Y7.2207
G01 X20.1275 Y7.1691
G01 X20.1892 Y7.1233
G01 X20.2550 Y7.0839
G01 X20.3245 Y7.0510
G01 X20.3968 Y7.0251
G01 X20.4713 Y7.0065
G01 X20.5473 Y6.9952
G01 X20.6240 Y6.9914
G01 X20.7007 Y6.9952
G01 X20.7767 Y7.0065
G01 X20.8512 Y7.0251
G01 X20.9236 Y7.0510
G01 X20.9930 Y7.0839
G01 X21.0589 Y7.1233
G01 X21.1206 Y7.1691
G01 X21.1775 Y7.2207
G01 X21.2291 Y7.2776
G01 X21.2749 Y7.3393
G01 X21.3143 Y7.4052
G01 X21.3472 Y7.4746
G01 X21.3731 Y7.5470
G01 X21.3917 Y7.6215
G01 X21.4030 Y7.6975
G01 X21.4068 Y7.7742
G01 X21.4030 Y7.8509
G01 X21.3917 Y7.9269
G01 X21.3731 Y8.0014
G01 X21.3472 Y8.0737
G01 X21.3143 Y8.1432
G01 X21.2749 Y8.2090
G01 X21.2291 Y8.2707
G01 X21.1775 Y8.3277
G01 X21.1206 Y8.3792
G01 X21.0589 Y8.4250
G01 X20.9930 Y8.4645
G01 X20.9236 Y8.4973
G01 X20.8512 Y8.5232
G01 X20.7767 Y8.5419
G01 X20.7007 Y8.5532
G01 X20.6240 Y8.5569
G01 X20.5473 Y8.5532
G01 X20.4753 Y8.5426
G01 X20.4674 Y8.5410
G00 Z2.0000
G00 X20.4312 Y8.6855
G01 F30.00
G01 Z-0.0900
G01 F60.00
G01 X20.3536 Y8.6658
G01 X20.2781 Y8.6390
G01 X20.2675 Y8.6350
G01 X20.2571 Y8.6303
G01 X20.1848 Y8.5959
G01 X20.1160 Y8.5549
G01 X20.1064 Y8.5489
G01 X20.0971 Y8.5423
G01 X20.0330 Y8.4944
G01 X19.9735 Y8.4408
G01 X19.9652 Y8.4330
G01 X19.9574 Y8.4247
G01 X19.9038 Y8.3652
G01 X19.8559 Y8.3011
G01 X19.8493 Y8.2918
G01 X19.8433 Y8.2822
G01 X19.8023 Y8.2134
G01 X19.7679 Y8.1411
G01 X19.7632 Y8.1307
G01 X19.7592 Y8.1201
G01 X19.7324 Y8.0446
G01 X19.7127 Y7.9670
G01 X19.7102 Y7.9559
G01 X19.7083 Y7.9447
G01 X19.6968 Y7.8655
G01 X19.6960 Y7.8542
G01 X19.6923 Y7.7742
G01 X19.6960 Y7.6942
G01 X19.6968 Y7.6829
G01 X19.7083 Y7.6036
G01 X19.7102 Y7.5924
G01 X19.7127 Y7.5813
G01 X19.7324 Y7.5037
G01 X19.7592 Y7.4282
G01 X19.7632 Y7.4176
G01 X19.7972 Y7.3451
G01 X19.8023 Y7.3350
G01 X19.8079 Y7.3251
G01 X19.8493 Y7.2566
G01 X19.8968 Y7.1921
G01 X19.9038 Y7.1831
G01 X19.9574 Y7.1236
G01 X19.9652 Y7.1154
G01 X19.9735 Y7.1075
G01 X20.0330 Y7.0540
G01 X20.0971 Y7.0060
G01 X20.1064 Y6.9995
G01 X20.1160 Y6.9934
G01 X20.1848 Y6.9525
G01 X20.1950 Y6.9474
G01 X20.2675 Y6.9134
G01 X20.3428 Y6.8862
G01 X20.3536 Y6.8826
G01 X20.4312 Y6.8629
G01 X20.4423 Y6.8604
G01 X20.4535 Y6.8584
G01 X20.5327 Y6.8470
G01 X20.6127 Y6.8428
G01 X20.6240 Y6.8425
G01 X20.6354 Y6.8428
G01 X20.7153 Y6.8470
G01 X20.7946 Y6.8584
G01 X20.8058 Y6.8604
G01 X20.8169 Y6.8629
G01 X20.8945 Y6.8826
G01 X20.9700 Y6.9093
G01 X20.9806 Y6.9134
G01 X20.9910 Y6.9180
G01 X21.0632 Y6.9525
G01 X21.1320 Y6.9934
G01 X21.1416 Y6.9995
G01 X21.1509 Y7.0060
G01 X21.2151 Y7.0540
G01 X21.2746 Y7.1075
G01 X21.2828 Y7.1154
G01 X21.2907 Y7.1236
G01 X21.3442 Y7.1831
G01 X21.3922 Y7.2473
G01 X21.3987 Y7.2566
G01 X21.4048 Y7.2662
G01 X21.4457 Y7.3350
G01 X21.4802 Y7.4072
G01 X21.4848 Y7.4176
G01 X21.4889 Y7.4282
G01 X21.5156 Y7.5037
G01 X21.5353 Y7.5813
G01 X21.5378 Y7.5924
G01 X21.5398 Y7.6036
G01 X21.5512 Y7.6829
G01 X21.5521 Y7.6942
G01 X21.5557 Y7.7742
G01 X21.5521 Y7.8542
G01 X21.5512 Y7.8655
G01 X21.5398 Y7.9447
G01 X21.5378 Y7.9559
G01 X21.5353 Y7.9670
G01 X21.5156 Y8.0446
G01 X21.4889 Y8.1201
G01 X21.4848 Y8.1307
G01 X21.4508 Y8.2032
G01 X21.4457 Y8.2134
G01 X21.4401 Y8.2233
G01 X21.3987 Y8.2918
G01 X21.3512 Y8.3563
G01 X21.3442 Y8.3652
G01 X21.2907 Y8.4247
G01 X21.2828 Y8.4330
G01 X21.2746 Y8.4408
G01 X21.2151 Y8.4944
G01 X21.1509 Y8.5423
G01 X21.1416 Y8.5489
G01 X21.1320 Y8.5549
G01 X21.0632 Y8.5959
G01 X21.0531 Y8.6010
G01 X20.9806 Y8.6350
G01 X20.9053 Y8.6622
G01 X20.8945 Y8.6658
G01 X20.8169 Y8.6855
G01 X20.8058 Y8.6880
G01 X20.7946 Y8.6899
G01 X20.7153 Y8.7014
G01 X20.6354 Y8.7056
G01 X20.6240 Y8.7059
G01 X20.6127 Y8.7056
G01 X20.5327 Y8.7014
G01 X20.4535 Y8.6899
G01 X20.4423 Y8.6880
G01 X20.4312 Y8.6855
G00 Z2.0000
G00 X19.8321 Y8.9247
G01 F30.00
G01 Z-0.0900
G01 F60.00
G01 X19.8454 Y8.9131
G01 X19.8536 Y8.9052
G01 X19.8651 Y8.8926
G01 X19.8756 Y8.8792
G01 X19.8820 Y8.8698
G01 X19.8893 Y8.8578
G01 X19.9130 Y8.8270
G01 X19.9226 Y8.8129
G01 X19.9284 Y8.8032
G01 X19.9337 Y8.7932
G01 X19.9385 Y8.7829
G01 X19.9428 Y8.7724
G01 X19.9483 Y8.7564
G01 X19.9513 Y8.7454
G01 X19.9548 Y8.7288
G01 X19.9570 Y8.7119
G01 X19.9625 Y8.6355
G01 X19.9631 Y8.6240
G01 X19.9630 Y8.6125
G01 X19.9624 Y8.6010
G01 X19.9605 Y8.5838
G01 X19.9572 Y8.5668
G01 X19.9543 Y8.5557
G01 X19.9509 Y8.5447
G01 X19.9448 Y8.5285
G01 X19.9374 Y8.5129
G01 X19.9055 Y8.4510
G01 X19.8997 Y8.4410
G01 X19.8935 Y8.4314
G01 X19.8868 Y8.4221
G01 X19.8756 Y8.4083
G01 X19.7749 Y8.2644
G01 X19.7026 Y8.1095
G01 X19.6584 Y7.9444
G01 X19.6435 Y7.7742
G01 X19.6584 Y7.6039
G01 X19.7026 Y7.4388
G01 X19.7749 Y7.2839
G01 X19.8729 Y7.1439
G01 X19.9938 Y7.0230
G01 X20.1338 Y6.9250
G01 X20.2887 Y6.8528
G01 X20.4538 Y6.8085
G01 X20.6240 Y6.7936
G01 X20.7943 Y6.8085
G01 X20.9594 Y6.8528
G01 X21.1143 Y6.9250
G01 X21.2543 Y7.0230
G01 X21.3752 Y7.1439
G01 X21.4732 Y7.2839
G01 X21.5454 Y7.4388
G01 X21.5897 Y7.6039
G01 X21.6046 Y7.7742
G01 X21.5897 Y7.9444
G01 X21.5554 Y8.0721
G01 X21.5454 Y8.1095
G01 X21.4732 Y8.2644
G01 X21.3752 Y8.4044
G01 X21.2509 Y8.5287
G01 X21.2376 Y8.5402
G01 X21.2295 Y8.5481
G01 X21.2180 Y8.5608
G01 X21.2109 Y8.5696
G01 X21.2010 Y8.5836
G01 X21.1937 Y8.5956
G01 X21.1667 Y8.6310
G01 X21.1604 Y8.6404
G01 X21.1547 Y8.6501
G01 X21.1469 Y8.6653
G01 X21.1402 Y8.6809
G01 X21.1348 Y8.6970
G01 X21.1318 Y8.7079
G01 X21.1293 Y8.7190
G01 X21.1274 Y8.7302
G01 X21.1256 Y8.7471
G01 X21.1205 Y8.8179
G01 X21.1199 Y8.8351
G01 X21.1206 Y8.8524
G01 X21.1226 Y8.8695
G01 X21.1259 Y8.8865
G01 X21.1304 Y8.9032
G01 X21.1361 Y8.9195
G01 X21.1430 Y8.9353
G01 X21.1749 Y8.9973
G01 X21.1833 Y9.0123
G01 X21.1928 Y9.0266
G01 X21.1998 Y9.0358
G01 X21.2074 Y9.0450
G01 X21.3082 Y9.1889
G01 X21.3804 Y9.3438
G01 X21.4247 Y9.5089
G01 X21.4396 Y9.6792
G01 X21.4247 Y9.8494
G01 X21.3818 Y10.0094
G01 X21.3804 Y10.0145
G01 X21.3082 Y10.1694
G01 X21.2102 Y10.3094
G01 X21.0893 Y10.4303
G01 X20.9493 Y10.5283
G01 X20.7944 Y10.6006
G01 X20.6293 Y10.6448
G01 X20.4590 Y10.6597
G01 X20.2888 Y10.6448
G01 X20.1237 Y10.6006
G01 X19.9688 Y10.5283
G01 X19.8288 Y10.4303
G01 X19.7079 Y10.3094
G01 X19.6099 Y10.1694
G01 X19.5376 Y10.0145
G01 X19.4934 Y9.8494
G01 X19.4785 Y9.6792
G01 X19.4934 Y9.5089
G01 X19.5376 Y9.3438
G01 X19.6099 Y9.1889
G01 X19.7079 Y9.0489
G01 X19.8321 Y8.9247
G00 Z2.0000
G00 X19.5934 Y8.9528
G01 F30.00
G01 Z-0.0900
G01 F60.00
G01 X19.7327 Y8.8134
G01 X19.7427 Y8.8052
G01 X19.7485 Y8.7996
G01 X19.7525 Y8.7950
G01 X19.7573 Y8.7884
G01 X19.7604 Y8.7832
G01 X19.7635 Y8.7770
G01 X19.7954 Y8.7355
G01 X19.7995 Y8.7285
G01 X19.8037 Y8.7193
G01 X19.8067 Y8.7096
G01 X19.8083 Y8.7017
G01 X19.8140 Y8.6248
G01 X19.8139 Y8.6125
G01 X19.8132 Y8.6064
G01 X19.8116 Y8.5984
G01 X19.8091 Y8.5905
G01 X19.8068 Y8.5848
G01 X19.7811 Y8.5372
G01 X19.7774 Y8.5277
G01 X19.7727 Y8.5187
G01 X19.7668 Y8.5104
G01 X19.7584 Y8.5007
G01 X19.6454 Y8.3392
G01 X19.5621 Y8.1607
G01 X19.5111 Y7.9704
G01 X19.4940 Y7.7742
G01 X19.5111 Y7.5779
G01 X19.5621 Y7.3877
G01 X19.6454 Y7.2091
G01 X19.7584 Y7.0478
G01 X19.8976 Y6.9085
G01 X20.0590 Y6.7955
G01 X20.2375 Y6.7123
G01 X20.4278 Y6.6613
G01 X20.6240 Y6.6441
G01 X20.8203 Y6.6613
G01 X21.0105 Y6.7123
G01 X21.1891 Y6.7955
G01 X21.3504 Y6.9085
G01 X21.4897 Y7.0478
G01 X21.6027 Y7.2092
G01 X21.6505 Y7.3116
G01 X21.6859 Y7.3877
G01 X21.7369 Y7.5779
G01 X21.7541 Y7.7742
G01 X21.7369 Y7.9704
G01 X21.6993 Y8.1107
G01 X21.6859 Y8.1607
G01 X21.6027 Y8.3392
G01 X21.4897 Y8.5006
G01 X21.3503 Y8.6399
G01 X21.3388 Y8.6495
G01 X21.3305 Y8.6584
G01 X21.3247 Y8.6667
G01 X21.3196 Y8.6763
G01 X21.2912 Y8.7130
G01 X21.2855 Y8.7213
G01 X21.2826 Y8.7267
G01 X21.2794 Y8.7341
G01 X21.2769 Y8.7418
G01 X21.2751 Y8.7497
G01 X21.2741 Y8.7577
G01 X21.2689 Y8.8347
G01 X21.2693 Y8.8429
G01 X21.2705 Y8.8510
G01 X21.2732 Y8.8609
G01 X21.2762 Y8.8685
G01 X21.3020 Y8.9161
G01 X21.3056 Y8.9257
G01 X21.3115 Y8.9363
G01 X21.3162 Y8.9429
G01 X21.3246 Y8.9527
G01 X21.4377 Y9.1142
G01 X21.5209 Y9.2927
G01 X21.5719 Y9.4829
G01 X21.5891 Y9.6792
G01 X21.5719 Y9.8754
G01 X21.5209 Y10.0657
G01 X21.4377 Y10.2442
G01 X21.3247 Y10.4056
G01 X21.1854 Y10.5448
G01 X21.0240 Y10.6578
G01 X20.8455 Y10.7411
G01 X20.6553 Y10.7921
G01 X20.4590 Y10.8092
G01 X20.2628 Y10.7921
G01 X20.0725 Y10.7411
G01 X19.8940 Y10.6578
G01 X19.7326 Y10.5448
G01 X19.5934 Y10.4056
G01 X19.4804 Y10.2442
G01 X19.3971 Y10.0657
G01 X19.3461 Y9.8754
G01 X19.3290 Y9.6792
G01 X19.3461 Y9.4829
G01 X19.3971 Y9.2927
G01 X19.4804 Y9.1141
G01 X19.5934 Y8.9528
G00 Z2.0000
G00 X20.3024 Y10.4460
G01 F30.00
G01 Z-0.0900
G01 F60.00
G01 X20.2318 Y10.4282
G01 X20.1595 Y10.4023
G01 X20.0900 Y10.3695
G01 X20.0242 Y10.3300
G01 X19.9625 Y10.2842
G01 X19.9055 Y10.2327
G01 X19.8540 Y10.1757
G01 X19.8082 Y10.1140
G01 X19.7687 Y10.0482
G01 X19.7359 Y9.9787
G01 X19.7100 Y9.9064
G01 X19.6913 Y9.8319
G01 X19.6800 Y9.7559
G01 X19.6763 Y9.6792
G01 X19.6800 Y9.6025
G01 X19.6913 Y9.5265
G01 X19.7100 Y9.4520
G01 X19.7359 Y9.3796
G01 X19.7687 Y9.3102
G01 X19.8082 Y9.2443
G01 X19.8540 Y9.1826
G01 X19.9055 Y9.1257
G01 X19.9625 Y9.0741
G01 X20.0242 Y9.0283
G01 X20.0900 Y8.9889
G01 X20.1595 Y8.9560
G01 X20.2318 Y8.9301
G01 X20.3063 Y8.9115
G01 X20.3823 Y8.9002
G01 X20.4590 Y8.8964
G01 X20.5357 Y8.9002
G01 X20.6117 Y8.9115
G01 X20.6862 Y8.9301
G01 X20.7586 Y8.9560
G01 X20.8280 Y8.9889
G01 X20.8939 Y9.0283
G01 X20.9556 Y9.0741
G01 X21.0125 Y9.1257
G01 X21.0641 Y9.1826
G01 X21.1099 Y9.2443
G01 X21.1493 Y9.3102
G01 X21.1822 Y9.3796
G01 X21.2081 Y9.4520
G01 X21.2267 Y9.5265
G01 X21.2380 Y9.6025
G01 X21.2418 Y9.6792
G01 X21.2380 Y9.7559
G01 X21.2267 Y9.8319
G01 X21.2081 Y9.9064
G01 X21.1822 Y9.9787
G01 X21.1493 Y10.0482
G01 X21.1099 Y10.1140
G01 X21.0641 Y10.1757
G01 X21.0125 Y10.2327
G01 X20.9556 Y10.2842
G01 X20.8939 Y10.3300
G01 X20.8280 Y10.3695
G01 X20.7586 Y10.4023
G01 X20.6862 Y10.4282
G01 X20.6117 Y10.4469
G01 X20.5357 Y10.4582
G01 X20.4590 Y10.4619
G01 X20.3823 Y10.4582
G01 X20.3103 Y10.4476
G01 X20.3024 Y10.4460
G00 Z2.0000
G00 X20.2662 Y10.5905
G01 F30.00
G01 Z-0.0900
G01 F60.00
G01 X20.1886 Y10.5708
G01 X20.1131 Y10.5440
G01 X20.1025 Y10.5400
G01 X20.0921 Y10.5353
G01 X20.0198 Y10.5009
G01 X19.9510 Y10.4599
G01 X19.9414 Y10.4539
G01 X19.9321 Y10.4473
G01 X19.8680 Y10.3994
G01 X19.8085 Y10.3458
G01 X19.8002 Y10.3380
G01 X19.7924 Y10.3297
G01 X19.7388 Y10.2702
G01 X19.6909 Y10.2061
G01 X19.6843 Y10.1968
G01 X19.6783 Y10.1872
G01 X19.6373 Y10.1184
G01 X19.6029 Y10.0461
G01 X19.5982 Y10.0357
G01 X19.5942 Y10.0251
G01 X19.5674 Y9.9496
G01 X19.5477 Y9.8720
G01 X19.5452 Y9.8609
G01 X19.5433 Y9.8497
G01 X19.5318 Y9.7705
G01 X19.5310 Y9.7592
G01 X19.5273 Y9.6792
G01 X19.5310 Y9.5992
G01 X19.5318 Y9.5879
G01 X19.5433 Y9.5086
G01 X19.5452 Y9.4974
G01 X19.5477 Y9.4863
G01 X19.5674 Y9.4087
G01 X19.5942 Y9.3332
G01 X19.5982 Y9.3226
G01 X19.6322 Y9.2501
G01 X19.6373 Y9.2400
G01 X19.6429 Y9.2301
G01 X19.6843 Y9.1616
G01 X19.7318 Y9.0971
G01 X19.7388 Y9.0881
G01 X19.7924 Y9.0286
G01 X19.8002 Y9.0204
G01 X19.8085 Y9.0125
G01 X19.8680 Y8.9590
G01 X19.9321 Y8.9110
G01 X19.9414 Y8.9045
G01 X19.9510 Y8.8984
G01 X20.0198 Y8.8575
G01 X20.0300 Y8.8524
G01 X20.1025 Y8.8184
G01 X20.1778 Y8.7912
G01 X20.1886 Y8.7876
G01 X20.2662 Y8.7679
G01 X20.2773 Y8.7654
G01 X20.2885 Y8.7634
G01 X20.3677 Y8.7520
G01 X20.4477 Y8.7478
G01 X20.4590 Y8.7475
G01 X20.4704 Y8.7478
G01 X20.5503 Y8.7520
G01 X20.6296 Y8.7634
G01 X20.6408 Y8.7654
G01 X20.6519 Y8.7679
G01 X20.7295 Y8.7876
G01 X20.8050 Y8.8143
G01 X20.8156 Y8.8184
G01 X20.8260 Y8.8230
G01 X20.8982 Y8.8575
G01 X20.9670 Y8.8984
G01 X20.9766 Y8.9045
G01 X20.9859 Y8.9110
G01 X21.0501 Y8.9590
G01 X21.1096 Y9.0125
G01 X21.1178 Y9.0204
G01 X21.1257 Y9.0286
G01 X21.1792 Y9.0881
G01 X21.2272 Y9.1523
G01 X21.2337 Y9.1616
G01 X21.2398 Y9.1712
G01 X21.2807 Y9.2400
G01 X21.3152 Y9.3122
G01 X21.3198 Y9.3226
G01 X21.3239 Y9.3332
G01 X21.3506 Y9.4087
G01 X21.3703 Y9.4863
G01 X21.3728 Y9.4974
G01 X21.3748 Y9.5086
G01 X21.3862 Y9.5879
G01 X21.3871 Y9.5992
G01 X21.3907 Y9.6792
G01 X21.3871 Y9.7592
G01 X21.3862 Y9.7705
G01 X21.3748 Y9.8497
G01 X21.3728 Y9.8609
G01 X21.3703 Y9.8720
G01 X21.3506 Y9.9496
G01 X21.3239 Y10.0251
G01 X21.3198 Y10.0357
G01 X21.2858 Y10.1082
G01 X21.2807 Y10.1184
G01 X21.2751 Y10.1283
G01 X21.2337 Y10.1968
G01 X21.1862 Y10.2613
G01 X21.1792 Y10.2702
G01 X21.1257 Y10.3297
G01 X21.1178 Y10.3380
G01 X21.1096 Y10.3458
G01 X21.0501 Y10.3994
G01 X20.9859 Y10.4473
G01 X20.9766 Y10.4539
G01 X20.9670 Y10.4599
G01 X20.8982 Y10.5009
G01 X20.8881 Y10.5060
G01 X20.8156 Y10.5400
G01 X20.7403 Y10.5672
G01 X20.7295 Y10.5708
G01 X20.6519 Y10.5905
G01 X20.6408 Y10.5930
G01 X20.6296 Y10.5949
G01 X20.5503 Y10.6064
G01 X20.4704 Y10.6106
G01 X20.4590 Y10.6109
G01 X20.4477 Y10.6106
G01 X20.3677 Y10.6064
G01 X20.2885 Y10.5949
G01 X20.2773 Y10.5930
G01 X20.2662 Y10.5905
G00 Z2.0000
G00 X20.3024 Y15.5260
G01 F30.00
G01 Z-0.0900
G01 F60.00
G01 X20.2318 Y15.5082
G01 X20.1595 Y15.4823
G01 X20.0900 Y15.4495
G01 X20.0242 Y15.4100
G01 X19.9625 Y15.3642
G01 X19.9055 Y15.3127
G01 X19.8540 Y15.2557
G01 X19.8082 Y15.1940
G01 X19.7687 Y15.1282
G01 X19.7359 Y15.0587
G01 X19.7100 Y14.9864
G01 X19.6913 Y14.9119
G01 X19.6800 Y14.8359
G01 X19.6763 Y14.7592
G01 X19.6800 Y14.6825
G01 X19.6913 Y14.6065
G01 X19.7100 Y14.5320
G01 X19.7359 Y14.4596
G01 X19.7687 Y14.3902
G01 X19.8082 Y14.3243
G01 X19.8540 Y14.2626
G01 X19.9055 Y14.2057
G01 X19.9625 Y14.1541
G01 X20.0242 Y14.1083
G01 X20.0900 Y14.0689
G01 X20.1595 Y14.0360
G01 X20.2318 Y14.0101
G01 X20.3063 Y13.9915
G01 X20.3823 Y13.9802
G01 X20.4590 Y13.9764
G01 X20.5357 Y13.9802
G01 X20.6117 Y13.9915
G01 X20.6862 Y14.0101
G01 X20.7586 Y14.0360
G01 X20.8280 Y14.0689
G01 X20.8939 Y14.1083
G01 X20.9556 Y14.1541
G01 X21.0125 Y14.2057
G01 X21.0641 Y14.2626
G01 X21.1099 Y14.3243
G01 X21.1493 Y14.3902
G01 X21.1822 Y14.4596
G01 X21.2081 Y14.5320
G01 X21.2267 Y14.6065
G01 X21.2380 Y14.6825
G01 X21.2418 Y14.7592
G01 X21.2380 Y14.8359
G01 X21.2267 Y14.9119
G01 X21.2081 Y14.9864
G01 X21.1822 Y15.0587
G01 X21.1493 Y15.1282
G01 X21.1099 Y15.1940
G01 X21.0641 Y15.2557
G01 X21.0125 Y15.3127
G01 X20.9556 Y15.3642
G01 X20.8939 Y15.4100
G01 X20.8280 Y15.4495
G01 X20.7586 Y15.4823
G01 X20.6862 Y15.5082
G01 X20.6117 Y15.5269
G01 X20.5357 Y15.5382
G01 X20.4590 Y15.5419
G01 X20.3823 Y15.5382
G01 X20.3103 Y15.5276
G01 X20.3024 Y15.5260
G00 Z2.0000
G00 X20.2662 Y15.6705
G01 F30.00
G01 Z-0.0900
G01 F60.00
G01 X20.1886 Y15.6508
G01 X20.1131 Y15.6240
G01 X20.1025 Y15.6200
G01 X20.0921 Y15.6153
G01 X20.0198 Y15.5809
G01 X19.9510 Y15.5399
G01 X19.9414 Y15.5339
G01 X19.9321 Y15.5273
G01 X19.8680 Y15.4794
G01 X19.8085 Y15.4258
G01 X19.8002 Y15.4180
G01 X19.7924 Y15.4097
G01 X19.7388 Y15.3502
G01 X19.6909 Y15.2861
G01 X19.6843 Y15.2768
G01 X19.6783 Y15.2672
G01 X19.6373 Y15.1984
G01 X19.6029 Y15.1261
G01 X19.5982 Y15.1157
G01 X19.5942 Y15.1051
G01 X19.5674 Y15.0296
G01 X19.5477 Y14.9520
G01 X19.5452 Y14.9409
G01 X19.5433 Y14.9297
G01 X19.5318 Y14.8505
G01 X19.5310 Y14.8392
G01 X19.5273 Y14.7592
G01 X19.5310 Y14.6792
G01 X19.5318 Y14.6679
G01 X19.5433 Y14.5886
G01 X19.5452 Y14.5774
G01 X19.5477 Y14.5663
G01 X19.5674 Y14.4887
G01 X19.5942 Y14.4132
G01 X19.5982 Y14.4026
G01 X19.6322 Y14.3301
G01 X19.6373 Y14.3200
G01 X19.6429 Y14.3101
G01 X19.6843 Y14.2416
G01 X19.7318 Y14.1771
G01 X19.7388 Y14.1681
G01 X19.7924 Y14.1086
G01 X19.8002 Y14.1004
G01 X19.8085 Y14.0925
G01 X19.8680 Y14.0390
G01 X19.9321 Y13.9910
G01 X19.9414 Y13.9845
G01 X19.9510 Y13.9784
G01 X20.0198 Y13.9375
G01 X20.0300 Y13.9324
G01 X20.1025 Y13.8984
G01 X20.1778 Y13.8712
G01 X20.1886 Y13.8676
G01 X20.2662 Y13.8479
G01 X20.2773 Y13.8454
G01 X20.2885 Y13.8434
G01 X20.3677 Y13.8320
G01 X20.4477 Y13.8278
G01 X20.4590 Y13.8275
G01 X20.4704 Y13.8278
G01 X20.5503 Y13.8320
G01 X20.6296 Y13.8434
G01 X20.6408 Y13.8454
G01 X20.6519 Y13.8479
G01 X20.7295 Y13.8676
G01 X20.8050 Y13.8943
G01 X20.8156 Y13.8984
G01 X20.8260 Y13.9030
G01 X20.8982 Y13.9375
G01 X20.9670 Y13.9784
G01 X20.9766 Y13.9845
G01 X20.9859 Y13.9910
G01 X21.0501 Y14.0390
G01 X21.1096 Y14.0925
G01 X21.1178 Y14.1004
G01 X21.1257 Y14.1086
G01 X21.1792 Y14.1681
G01 X21.2272 Y14.2323
G01 X21.2337 Y14.2416
G01 X21.2398 Y14.2512
G01 X21.2807 Y14.3200
G01 X21.3152 Y14.3922
G01 X21.3198 Y14.4026
G01 X21.3239 Y14.4132
G01 X21.3506 Y14.4887
G01 X21.3703 Y14.5663
G01 X21.3728 Y14.5774
G01 X21.3748 Y14.5886
G01 X21.3862 Y14.6679
G01 X21.3871 Y14.6792
G01 X21.3907 Y14.7592
G01 X21.3871 Y14.8392
G01 X21.3862 Y14.8505
G01 X21.3748 Y14.9297
G01 X21.3728 Y14.9409
G01 X21.3703 Y14.9520
G01 X21.3506 Y15.0296
G01 X21.3239 Y15.1051
G01 X21.3198 Y15.1157
G01 X21.2858 Y15.1882
G01 X21.2807 Y15.1984
G01 X21.2751 Y15.2083
G01 X21.2337 Y15.2768
G01 X21.1862 Y15.3413
G01 X21.1792 Y15.3502
G01 X21.1257 Y15.4097
G01 X21.1178 Y15.4180
G01 X21.1096 Y15.4258
G01 X21.0501 Y15.4794
G01 X20.9859 Y15.5273
G01 X20.9766 Y15.5339
G01 X20.9670 Y15.5399
G01 X20.8982 Y15.5809
G01 X20.8881 Y15.5860
G01 X20.8156 Y15.6200
G01 X20.7403 Y15.6472
G01 X20.7295 Y15.6508
G01 X20.6519 Y15.6705
G01 X20.6408 Y15.6730
G01 X20.6296 Y15.6749
G01 X20.5503 Y15.6864
G01 X20.4704 Y15.6906
G01 X20.4590 Y15.6909
G01 X20.4477 Y15.6906
G01 X20.3677 Y15.6864
G01 X20.2885 Y15.6749
G01 X20.2773 Y15.6730
G01 X20.2662 Y15.6705
G00 Z2.0000
G00 X22.1369 Y16.1303
G01 F30.00
G01 Z-0.0900
G01 F60.00
G01 X22.1322 Y16.0405
G01 X22.1319 Y16.0292
G01 X22.1319 Y12.2192
G01 X22.1322 Y12.2078
G01 X22.1369 Y12.1180
G01 X22.1498 Y12.0290
G01 X22.1518 Y12.0178
G01 X22.1542 Y12.0067
G01 X22.1764 Y11.9196
G01 X22.2064 Y11.8348
G01 X22.2105 Y11.8242
G01 X22.2487 Y11.7428
G01 X22.2538 Y11.7326
G01 X22.2594 Y11.7228
G01 X22.2998 Y11.6554
G01 X22.3091 Y11.6411
G01 X22.3592 Y11.5734
G01 X22.3662 Y11.5644
G01 X22.4264 Y11.4976
G01 X22.4342 Y11.4894
G01 X23.1962 Y10.7274
G01 X23.2627 Y10.6668
G01 X23.2713 Y10.6594
G01 X23.2802 Y10.6524
G01 X23.3526 Y10.5990
G01 X23.3622 Y10.5929
G01 X23.4395 Y10.5469
G01 X23.4497 Y10.5418
G01 X23.5311 Y10.5036
G01 X23.5417 Y10.4995
G01 X23.6210 Y10.4712
G01 X23.6374 Y10.4665
G01 X23.7136 Y10.4474
G01 X23.7247 Y10.4449
G01 X23.7359 Y10.4430
G01 X23.8249 Y10.4300
G01 X23.8362 Y10.4292
G01 X23.9203 Y10.4251
G01 X25.4993 Y10.4251
G01 X25.5153 Y10.4155
G01 X25.5305 Y10.4077
G01 X25.6150 Y10.3677
G01 X25.6254 Y10.3631
G01 X25.6360 Y10.3590
G01 X25.7348 Y10.3240
G01 X25.8364 Y10.2982
G01 X25.8475 Y10.2957
G01 X25.8587 Y10.2938
G01 X25.9625 Y10.2787
G01 X26.0672 Y10.2733
G01 X26.0785 Y10.2730
G01 X26.1792 Y10.2730
G01 X26.2839 Y10.2782
G01 X26.3009 Y10.2801
G01 X26.4046 Y10.2957
G01 X26.5063 Y10.3209
G01 X26.5173 Y10.3240
G01 X26.5281 Y10.3275
G01 X26.6161 Y10.3590
G01 X26.6267 Y10.3631
G01 X26.6371 Y10.3677
G01 X26.7318 Y10.4128
G01 X26.8218 Y10.4665
G01 X26.8314 Y10.4725
G01 X26.8407 Y10.4791
G01 X26.9248 Y10.5418
G01 X27.0026 Y10.6120
G01 X27.0109 Y10.6198
G01 X27.0187 Y10.6281
G01 X27.0889 Y10.7059
G01 X27.1516 Y10.7900
G01 X27.1582 Y10.7993
G01 X27.1642 Y10.8089
G01 X27.2179 Y10.8989
G01 X27.2630 Y10.9936
G01 X27.2676 Y11.0040
G01 X27.2717 Y11.0146
G01 X27.3032 Y11.1026
G01 X27.3067 Y11.1134
G01 X27.3098 Y11.1244
G01 X27.3350 Y11.2261
G01 X27.3506 Y11.3298
G01 X27.3520 Y11.3411
G01 X27.3529 Y11.3524
G01 X27.3577 Y11.4572
G01 X27.3529 Y11.5619
G01 X27.3520 Y11.5732
G01 X27.3506 Y11.5845
G01 X27.3350 Y11.6882
G01 X27.3098 Y11.7900
G01 X27.3067 Y11.8009
G01 X27.3032 Y11.8117
G01 X27.2697 Y11.9051
G01 X27.2630 Y11.9207
G01 X27.2179 Y12.0154
G01 X27.1642 Y12.1055
G01 X27.1582 Y12.1151
G01 X27.1516 Y12.1244
G01 X27.0889 Y12.2084
G01 X27.0187 Y12.2863
G01 X27.0109 Y12.2945
G01 X27.0026 Y12.3024
G01 X26.9248 Y12.3726
G01 X26.8407 Y12.4353
G01 X26.8314 Y12.4418
G01 X26.7416 Y12.4959
G01 X26.7318 Y12.5015
G01 X26.7216 Y12.5067
G01 X26.6267 Y12.5512
G01 X26.5281 Y12.5868
G01 X26.5173 Y12.5904
G01 X26.5063 Y12.5934
G01 X26.4156 Y12.6161
G01 X26.4046 Y12.6186
G01 X26.3933 Y12.6206
G01 X26.2896 Y12.6357
G01 X26.1849 Y12.6411
G01 X26.1735 Y12.6414
G01 X26.0728 Y12.6413
G01 X25.9738 Y12.6365
G01 X25.9625 Y12.6357
G01 X25.9512 Y12.6343
G01 X25.8475 Y12.6186
G01 X25.7457 Y12.5934
G01 X25.7293 Y12.5887
G01 X25.6360 Y12.5553
G01 X25.6201 Y12.5490
G01 X25.5253 Y12.5042
G01 X25.5153 Y12.4988
G01 X25.4993 Y12.4893
G01 X24.3535 Y12.4893
G01 X24.1961 Y12.6467
G01 X24.1961 Y15.6017
G01 X24.8615 Y16.2671
G01 X27.6090 Y16.2671
G01 X27.6204 Y16.2674
G01 X27.6988 Y16.2712
G01 X27.7102 Y16.2720
G01 X27.7215 Y16.2734
G01 X27.8104 Y16.2869
G01 X27.8977 Y16.3085
G01 X27.9086 Y16.3115
G01 X27.9194 Y16.3151
G01 X28.0040 Y16.3456
G01 X28.0854 Y16.3838
G01 X28.0956 Y16.3889
G01 X28.1054 Y16.3945
G01 X28.1824 Y16.4410
G01 X28.2548 Y16.4944
G01 X28.2638 Y16.5014
G01 X28.2724 Y16.5088
G01 X28.3388 Y16.5694
G01 X31.2115 Y19.4421
G01 X62.7415 Y19.4421
G01 X65.3119 Y16.8717
G01 X65.3119 Y11.6207
G01 X65.2578 Y11.5298
G01 X65.2526 Y11.5196
G01 X65.2107 Y11.4309
G01 X65.2061 Y11.4205
G01 X65.2020 Y11.4099
G01 X65.1689 Y11.3175
G01 X65.1654 Y11.3067
G01 X65.1623 Y11.2958
G01 X65.1385 Y11.2006
G01 X65.1360 Y11.1895
G01 X65.1340 Y11.1783
G01 X65.1196 Y11.0812
G01 X65.1183 Y11.0699
G01 X65.1174 Y11.0586
G01 X65.1126 Y10.9605
G01 X65.1123 Y10.9492
G01 X65.1126 Y10.9378
G01 X65.1174 Y10.8398
G01 X65.1183 Y10.8284
G01 X65.1196 Y10.8172
G01 X65.1340 Y10.7201
G01 X65.1360 Y10.7089
G01 X65.1385 Y10.6978
G01 X65.1623 Y10.6026
G01 X65.1654 Y10.5916
G01 X65.1689 Y10.5808
G01 X65.2020 Y10.4884
G01 X65.2061 Y10.4778
G01 X65.2107 Y10.4674
G01 X65.2526 Y10.3787
G01 X65.2605 Y10.3636
G01 X65.3138 Y10.2745
G01 X65.3199 Y10.2649
G01 X65.3265 Y10.2556
G01 X65.3849 Y10.1768
G01 X65.3919 Y10.1678
G01 X65.3993 Y10.1592
G01 X65.4652 Y10.0865
G01 X65.4731 Y10.0782
G01 X65.4813 Y10.0704
G01 X65.5540 Y10.0045
G01 X65.5626 Y9.9971
G01 X65.5716 Y9.9901
G01 X65.6504 Y9.9316
G01 X65.6597 Y9.9251
G01 X65.6693 Y9.9190
G01 X65.7535 Y9.8685
G01 X65.7634 Y9.8629
G01 X65.7736 Y9.8578
G01 X65.8623 Y9.8158
G01 X65.8727 Y9.8112
G01 X65.8833 Y9.8071
G01 X65.9757 Y9.7741
G01 X65.9865 Y9.7705
G01 X65.9974 Y9.7675
G01 X66.0926 Y9.7436
G01 X66.1037 Y9.7411
G01 X66.1149 Y9.7392
G01 X66.2120 Y9.7248
G01 X66.2233 Y9.7234
G01 X66.2346 Y9.7226
G01 X66.3327 Y9.7178
G01 X66.3440 Y9.7175
G01 X66.3554 Y9.7178
G01 X66.4534 Y9.7226
G01 X66.4648 Y9.7234
G01 X66.4760 Y9.7248
G01 X66.5731 Y9.7392
G01 X66.5843 Y9.7411
G01 X66.5954 Y9.7436
G01 X66.6906 Y9.7675
G01 X66.7016 Y9.7705
G01 X66.7124 Y9.7741
G01 X66.8048 Y9.8071
G01 X66.8154 Y9.8112
G01 X66.8258 Y9.8158
G01 X66.9145 Y9.8578
G01 X66.9246 Y9.8629
G01 X66.9345 Y9.8685
G01 X67.0187 Y9.9190
G01 X67.0283 Y9.9251
G01 X67.0376 Y9.9316
G01 X67.1164 Y9.9901
G01 X67.1254 Y9.9971
G01 X67.1340 Y10.0045
G01 X67.2067 Y10.0704
G01 X67.2150 Y10.0782
G01 X67.2228 Y10.0865
G01 X67.2887 Y10.1592
G01 X67.2961 Y10.1678
G01 X67.3031 Y10.1768
G01 X67.3616 Y10.2556
G01 X67.3681 Y10.2649
G01 X67.3742 Y10.2745
G01 X67.4247 Y10.3587
G01 X67.4303 Y10.3686
G01 X67.4354 Y10.3787
G01 X67.4774 Y10.4674
G01 X67.4820 Y10.4778
G01 X67.4861 Y10.4884
G01 X67.5191 Y10.5808
G01 X67.5227 Y10.5916
G01 X67.5257 Y10.6026
G01 X67.5496 Y10.6978
G01 X67.5521 Y10.7089
G01 X67.5540 Y10.7201
G01 X67.5692 Y10.8228
G01 X67.5706 Y10.8398
G01 X67.5754 Y10.9378
G01 X67.5757 Y10.9492
G01 X67.5754 Y10.9605
G01 X67.5706 Y11.0586
G01 X67.5698 Y11.0699
G01 X67.5684 Y11.0812
G01 X67.5540 Y11.1783
G01 X67.5521 Y11.1895
G01 X67.5496 Y11.2006
G01 X67.5257 Y11.2958
G01 X67.5227 Y11.3067
G01 X67.5191 Y11.3175
G01 X67.4861 Y11.4099
G01 X67.4820 Y11.4205
G01 X67.4774 Y11.4309
G01 X67.4354 Y11.5196
G01 X67.4303 Y11.5298
G01 X67.3761 Y11.6207
G01 X67.3761 Y17.3049
G01 X67.3720 Y17.3890
G01 X67.3712 Y17.4003
G01 X67.3582 Y17.4893
G01 X67.3563 Y17.5005
G01 X67.3347 Y17.5878
G01 X67.3317 Y17.5988
G01 X67.3017 Y17.6835
G01 X67.2976 Y17.6941
G01 X67.2930 Y17.7045
G01 X67.2543 Y17.7857
G01 X67.2487 Y17.7956
G01 X67.2022 Y17.8726
G01 X67.1488 Y17.9450
G01 X67.1418 Y17.9539
G01 X67.1344 Y17.9625
G01 X67.0778 Y18.0249
G01 X63.8948 Y21.2080
G01 X63.8324 Y21.2646
G01 X63.8238 Y21.2720
G01 X63.7517 Y21.3258
G01 X63.7424 Y21.3323
G01 X63.7328 Y21.3384
G01 X63.6654 Y21.3788
G01 X63.6556 Y21.3844
G01 X63.6454 Y21.3895
G01 X63.5640 Y21.4277
G01 X63.4794 Y21.4583
G01 X63.4686 Y21.4618
G01 X63.3815 Y21.4840
G01 X63.3704 Y21.4864
G01 X63.3592 Y21.4884
G01 X63.2758 Y21.5007
G01 X63.2588 Y21.5021
G01 X63.1690 Y21.5063
G01 X30.7840 Y21.5063
G01 X30.6942 Y21.5021
G01 X30.6772 Y21.5007
G01 X30.5939 Y21.4884
G01 X30.5827 Y21.4864
G01 X30.4954 Y21.4649
G01 X30.4844 Y21.4618
G01 X30.4736 Y21.4583
G01 X30.3997 Y21.4318
G01 X30.3891 Y21.4277
G01 X30.3787 Y21.4231
G01 X30.2975 Y21.3844
G01 X30.2876 Y21.3788
G01 X30.2106 Y21.3323
G01 X30.2013 Y21.3258
G01 X30.1293 Y21.2720
G01 X30.0625 Y21.2118
G01 X30.0542 Y21.2040
G01 X27.1815 Y18.3313
G01 X24.4283 Y18.3312
G01 X24.3442 Y18.3271
G01 X24.3329 Y18.3263
G01 X24.2439 Y18.3134
G01 X24.2327 Y18.3114
G01 X24.1454 Y18.2899
G01 X24.1344 Y18.2868
G01 X24.0497 Y18.2568
G01 X24.0338 Y18.2505
G01 X23.9577 Y18.2145
G01 X23.9475 Y18.2094
G01 X23.9376 Y18.2038
G01 X23.8606 Y18.1573
G01 X23.8513 Y18.1508
G01 X23.7793 Y18.0970
G01 X23.7707 Y18.0896
G01 X23.7083 Y18.0330
G01 X22.4342 Y16.7590
G01 X22.3736 Y16.6925
G01 X22.3662 Y16.6839
G01 X22.3592 Y16.6750
G01 X22.3124 Y16.6119
G01 X22.3059 Y16.6026
G01 X22.2998 Y16.5930
G01 X22.2538 Y16.5157
G01 X22.2151 Y16.4345
G01 X22.2105 Y16.4241
G01 X22.2064 Y16.4135
G01 X22.1764 Y16.3288
G01 X22.1542 Y16.2416
G01 X22.1518 Y16.2305
G01 X22.1498 Y16.2193
G01 X22.1369 Y16.1303
G00 Z2.0000
G00 X22.2851 Y16.1157
G01 F30.00
G01 Z-0.0900
G01 F60.00
G01 X22.2809 Y16.0292
G01 X22.2809 Y12.2171
G01 X22.2851 Y12.1326
G01 X22.2971 Y12.0509
G01 X22.2987 Y12.0429
G01 X22.3189 Y11.9628
G01 X22.3481 Y11.8812
G01 X22.3833 Y11.8065
G01 X22.3872 Y11.7993
G01 X22.4309 Y11.7268
G01 X22.4813 Y11.6589
G01 X22.5395 Y11.5947
G01 X23.3015 Y10.8327
G01 X23.3627 Y10.7771
G01 X23.3690 Y10.7720
G01 X23.4354 Y10.7229
G01 X23.5097 Y10.6783
G01 X23.5881 Y10.6413
G01 X23.6677 Y10.6127
G01 X23.7498 Y10.5919
G01 X23.7577 Y10.5903
G01 X23.8395 Y10.5783
G01 X23.9240 Y10.5740
G01 X25.5405 Y10.5740
G01 X25.5923 Y10.5432
G01 X25.6842 Y10.5000
G01 X25.7780 Y10.4665
G01 X25.8766 Y10.4418
G01 X25.9771 Y10.4269
G01 X26.0745 Y10.4220
G01 X26.1756 Y10.4220
G01 X26.2730 Y10.4267
G01 X26.3755 Y10.4418
G01 X26.4701 Y10.4654
G01 X26.4779 Y10.4678
G01 X26.5659 Y10.4993
G01 X26.5734 Y10.5024
G01 X26.6615 Y10.5442
G01 X26.7452 Y10.5942
G01 X26.7520 Y10.5987
G01 X26.8303 Y10.6569
G01 X26.9056 Y10.7251
G01 X26.9738 Y10.8004
G01 X27.0320 Y10.8787
G01 X27.0365 Y10.8855
G01 X27.0865 Y10.9692
G01 X27.1283 Y11.0573
G01 X27.1314 Y11.0648
G01 X27.1629 Y11.1528
G01 X27.1653 Y11.1606
G01 X27.1889 Y11.2552
G01 X27.2038 Y11.3557
G01 X27.2088 Y11.4572
G01 X27.2041 Y11.5546
G01 X27.2033 Y11.5627
G01 X27.1889 Y11.6591
G01 X27.1653 Y11.7538
G01 X27.1629 Y11.7615
G01 X27.1300 Y11.8533
G01 X27.0865 Y11.9452
G01 X27.0365 Y12.0289
G01 X27.0320 Y12.0356
G01 X26.9738 Y12.1139
G01 X26.9084 Y12.1863
G01 X26.9026 Y12.1920
G01 X26.8303 Y12.2574
G01 X26.7487 Y12.3180
G01 X26.6651 Y12.3682
G01 X26.6579 Y12.3720
G01 X26.5697 Y12.4136
G01 X26.4779 Y12.4466
G01 X26.4701 Y12.4489
G01 X26.3775 Y12.4721
G01 X26.2750 Y12.4874
G01 X26.1735 Y12.4924
G01 X26.0765 Y12.4924
G01 X25.9791 Y12.4876
G01 X25.8806 Y12.4732
G01 X25.8726 Y12.4716
G01 X25.7780 Y12.4478
G01 X25.6842 Y12.4144
G01 X25.5923 Y12.3711
G01 X25.5405 Y12.3403
G01 X24.2918 Y12.3403
G01 X24.0472 Y12.5850
G01 X24.0472 Y15.6634
G01 X24.7998 Y16.4160
G01 X27.6111 Y16.4160
G01 X27.6915 Y16.4200
G01 X27.6996 Y16.4208
G01 X27.7813 Y16.4330
G01 X27.8615 Y16.4530
G01 X27.8692 Y16.4553
G01 X27.9470 Y16.4833
G01 X28.0271 Y16.5213
G01 X28.0997 Y16.5649
G01 X28.1661 Y16.6140
G01 X28.1724 Y16.6191
G01 X28.2335 Y16.6747
G01 X31.1498 Y19.5910
G01 X62.8032 Y19.5910
G01 X65.4609 Y16.9334
G01 X65.4609 Y11.5740
G01 X65.4426 Y11.5490
G01 X65.3882 Y11.4578
G01 X65.3437 Y11.3635
G01 X65.3085 Y11.2654
G01 X65.2830 Y11.1644
G01 X65.2814 Y11.1564
G01 X65.2665 Y11.0553
G01 X65.2613 Y10.9492
G01 X65.2662 Y10.8471
G01 X65.2670 Y10.8390
G01 X65.2821 Y10.7379
G01 X65.3068 Y10.6388
G01 X65.3092 Y10.6310
G01 X65.3437 Y10.5348
G01 X65.3891 Y10.4388
G01 X65.4438 Y10.3476
G01 X65.5045 Y10.2655
G01 X65.5097 Y10.2592
G01 X65.5756 Y10.1865
G01 X65.5813 Y10.1808
G01 X65.6571 Y10.1122
G01 X65.7425 Y10.0489
G01 X65.8336 Y9.9943
G01 X65.9260 Y9.9505
G01 X65.9335 Y9.9474
G01 X66.0259 Y9.9143
G01 X66.0336 Y9.9120
G01 X66.1328 Y9.8872
G01 X66.2379 Y9.8716
G01 X66.3400 Y9.8665
G01 X66.3481 Y9.8665
G01 X66.4502 Y9.8716
G01 X66.5553 Y9.8872
G01 X66.6544 Y9.9120
G01 X66.6622 Y9.9143
G01 X66.7584 Y9.9488
G01 X66.8544 Y9.9943
G01 X66.9456 Y10.0489
G01 X67.0277 Y10.1097
G01 X67.0340 Y10.1149
G01 X67.1067 Y10.1808
G01 X67.1124 Y10.1865
G01 X67.1810 Y10.2623
G01 X67.2443 Y10.3476
G01 X67.2989 Y10.4388
G01 X67.3427 Y10.5311
G01 X67.3458 Y10.5386
G01 X67.3789 Y10.6310
G01 X67.3812 Y10.6388
G01 X67.4060 Y10.7379
G01 X67.4213 Y10.8410
G01 X67.4268 Y10.9492
G01 X67.4216 Y11.0553
G01 X67.4060 Y11.1604
G01 X67.3807 Y11.2615
G01 X67.3444 Y11.3635
G01 X67.2999 Y11.4578
G01 X67.2454 Y11.5490
G01 X67.2272 Y11.5740
G01 X67.2272 Y17.2992
G01 X67.2229 Y17.3857
G01 X67.2102 Y17.4715
G01 X67.1891 Y17.5555
G01 X67.1607 Y17.6353
G01 X67.1229 Y17.7155
G01 X67.0783 Y17.7898
G01 X67.0267 Y17.8594
G01 X66.9699 Y17.9222
G01 X63.7921 Y21.1001
G01 X63.7293 Y21.1569
G01 X63.6630 Y21.2061
G01 X63.6562 Y21.2107
G01 X63.5889 Y21.2510
G01 X63.5817 Y21.2549
G01 X63.5070 Y21.2901
G01 X63.4254 Y21.3193
G01 X63.3413 Y21.3404
G01 X63.2576 Y21.3528
G01 X63.1690 Y21.3573
G01 X30.7840 Y21.3573
G01 X30.6954 Y21.3528
G01 X30.6117 Y21.3404
G01 X30.5316 Y21.3204
G01 X30.5238 Y21.3180
G01 X30.4498 Y21.2916
G01 X30.4423 Y21.2885
G01 X30.3677 Y21.2530
G01 X30.2934 Y21.2085
G01 X30.2238 Y21.1569
G01 X30.1625 Y21.1015
G01 X27.2432 Y18.1823
G01 X24.4320 Y18.1823
G01 X24.3475 Y18.1781
G01 X24.2617 Y18.1654
G01 X24.1777 Y18.1443
G01 X24.0961 Y18.1151
G01 X24.0177 Y18.0780
G01 X23.9434 Y18.0335
G01 X23.8738 Y17.9819
G01 X23.8110 Y17.9251
G01 X22.5395 Y16.6537
G01 X22.4840 Y16.5925
G01 X22.4788 Y16.5862
G01 X22.4321 Y16.5231
G01 X22.4275 Y16.5164
G01 X22.3852 Y16.4455
G01 X22.3481 Y16.3671
G01 X22.3189 Y16.2855
G01 X22.2987 Y16.2054
G01 X22.2971 Y16.1975
G01 X22.2851 Y16.1157
G00 Z2.0000
G00 X25.1073 Y12.6645
G01 F30.00
G01 Z-0.0900
G01 F60.00
G01 X25.0794 Y12.6669
G01 X25.0609 Y12.6696
G01 X25.0426 Y12.6733
G01 X25.0155 Y12.6804
G01 X24.9978 Y12.6863
G01 X24.9804 Y12.6930
G01 X24.9549 Y12.7047
G01 X24.9384 Y12.7135
G01 X24.9224 Y12.7231
G01 X24.8993 Y12.7389
G01 X24.8845 Y12.7504
G01 X24.8704 Y12.7626
G01 X24.8503 Y12.7822
G01 X24.8378 Y12.7960
G01 X24.8259 Y12.8105
G01 X24.8148 Y12.8255
G01 X24.8044 Y12.8410
G01 X24.7903 Y12.8652
G01 X24.7780 Y12.8904
G01 X24.7709 Y12.9077
G01 X24.7646 Y12.9253
G01 X24.7568 Y12.9522
G01 X24.7510 Y12.9796
G01 X24.7482 Y12.9981
G01 X24.7464 Y13.0167
G01 X24.7454 Y13.0447
G01 X24.7454 Y14.8210
G01 X24.7214 Y14.8133
G01 X24.7031 Y14.8085
G01 X24.6753 Y14.8031
G01 X24.6566 Y14.8006
G01 X24.6377 Y14.7991
G01 X24.6094 Y14.7986
G01 X24.5905 Y14.7994
G01 X24.5717 Y14.8012
G01 X24.4827 Y14.8140
G01 X24.4641 Y14.8176
G01 X24.4458 Y14.8221
G01 X24.4187 Y14.8306
G01 X24.3924 Y14.8411
G01 X24.3669 Y14.8535
G01 X24.3451 Y14.8661
G01 X24.3451 Y12.7084
G01 X24.4152 Y12.6382
G01 X25.4605 Y12.6382
G01 X25.5148 Y12.6640
G01 X25.1260 Y12.6640
G01 X25.1073 Y12.6645
G00 Z2.0000
G00 X26.9056 Y12.5829
G01 F30.00
G01 Z-0.0900
G01 F60.00
G01 X26.9145 Y12.6098
G01 X26.9346 Y12.6640
G01 X26.7372 Y12.6640
G01 X26.7853 Y12.6413
G01 X26.8020 Y12.6329
G01 X26.8182 Y12.6237
G01 X26.9029 Y12.5729
G01 X26.9056 Y12.5829
G00 Z2.0000
G00 X26.6249 Y10.1704
G01 F30.00
G01 Z-0.0900
G01 F60.00
G01 X26.6257 Y10.1919
G01 X26.6268 Y10.2046
G01 X26.5779 Y10.1872
G01 X26.6249 Y10.1704
G00 Z2.0000
G00 X25.3834 Y10.2615
G01 F30.00
G01 Z-0.0900
G01 F60.00
G01 X25.3972 Y10.2367
G01 X25.4053 Y10.2197
G01 X25.4126 Y10.2022
G01 X25.4219 Y10.1754
G01 X25.4270 Y10.1572
G01 X25.4329 Y10.1295
G01 X25.4357 Y10.1108
G01 X25.4379 Y10.0861
G01 X25.4501 Y10.0929
G01 X25.4668 Y10.1013
G01 X25.5513 Y10.1413
G01 X25.5684 Y10.1488
G01 X25.5858 Y10.1556
G01 X25.6741 Y10.1872
G01 X25.5858 Y10.2188
G01 X25.5684 Y10.2255
G01 X25.5513 Y10.2331
G01 X25.4605 Y10.2761
G01 X25.3740 Y10.2761
G01 X25.3834 Y10.2615
G00 Z2.0000
G00 X24.9281 Y8.1507
G01 F30.00
G01 Z-0.0900
G01 F60.00
G01 X25.0664 Y7.9757
G01 X25.0687 Y7.9731
G01 X25.2337 Y7.8230
G01 X25.2365 Y7.8209
G01 X25.4238 Y7.6997
G01 X25.4268 Y7.6981
G01 X25.6314 Y7.6092
G01 X25.6347 Y7.6080
G01 X25.7893 Y7.5692
G01 X25.7893 Y7.9236
G01 X25.7742 Y7.9278
G01 X25.6824 Y7.9607
G01 X25.5941 Y8.0023
G01 X25.5870 Y8.0062
G01 X25.5034 Y8.0564
G01 X25.4250 Y8.1144
G01 X25.4187 Y8.1196
G01 X25.3479 Y8.1837
G01 X25.2783 Y8.2604
G01 X25.2166 Y8.3437
G01 X25.1646 Y8.4310
G01 X25.1221 Y8.5210
G01 X25.1007 Y8.5804
G01 X24.7390 Y8.5804
G01 X24.7425 Y8.5624
G01 X24.8170 Y8.3521
G01 X24.8184 Y8.3489
G01 X24.9262 Y8.1537
G01 X24.9281 Y8.1507
G00 Z2.0000
G00 X25.6403 Y7.7677
G01 F30.00
G01 Z-0.0900
G01 F60.00
G01 X25.6403 Y7.8175
G01 X25.6254 Y7.8231
G01 X25.6150 Y7.8277
G01 X25.5203 Y7.8728
G01 X25.4302 Y7.9265
G01 X25.4206 Y7.9325
G01 X25.4113 Y7.9391
G01 X25.3273 Y8.0018
G01 X25.3187 Y8.0092
G01 X25.2452 Y8.0758
G01 X25.2333 Y8.0881
G01 X25.1631 Y8.1659
G01 X25.1561 Y8.1749
G01 X25.0971 Y8.2546
G01 X25.0878 Y8.2689
G01 X25.0369 Y8.3540
G01 X25.0290 Y8.3691
G01 X24.9995 Y8.4315
G01 X24.9469 Y8.4315
G01 X24.9539 Y8.4117
G01 X25.0515 Y8.2348
G01 X25.1767 Y8.0763
G01 X25.3262 Y7.9403
G01 X25.4959 Y7.8305
G01 X25.6403 Y7.7677
G00 Z2.0000
G00 X27.0421 Y7.8418
G01 F30.00
G01 Z-0.0900
G01 F60.00
G01 X27.0448 Y7.8440
G01 X27.2061 Y7.9981
G01 X27.2084 Y8.0007
G01 X27.3423 Y8.1791
G01 X27.3442 Y8.1821
G01 X27.4472 Y8.3799
G01 X27.4485 Y8.3831
G01 X27.5130 Y8.5804
G01 X27.1513 Y8.5804
G01 X27.1300 Y8.5210
G01 X27.0875 Y8.4310
G01 X27.0354 Y8.3437
G01 X26.9738 Y8.2604
G01 X26.9041 Y8.1837
G01 X26.8334 Y8.1196
G01 X26.8271 Y8.1144
G01 X26.7487 Y8.0564
G01 X26.6651 Y8.0062
G01 X26.6579 Y8.0023
G01 X26.5697 Y7.9607
G01 X26.4779 Y7.9278
G01 X26.4628 Y7.9236
G01 X26.4628 Y7.5676
G01 X26.6492 Y7.6193
G01 X26.6525 Y7.6205
G01 X26.8548 Y7.7144
G01 X26.8578 Y7.7161
G01 X27.0421 Y7.8418
G00 Z2.0000
G00 X27.2525 Y8.4315
G01 F30.00
G01 Z-0.0900
G01 F60.00
G01 X27.2179 Y8.3589
G01 X27.1642 Y8.2689
G01 X27.1582 Y8.2593
G01 X27.1516 Y8.2500
G01 X27.0889 Y8.1659
G01 X27.0815 Y8.1573
G01 X27.0149 Y8.0839
G01 X27.0026 Y8.0720
G01 X26.9248 Y8.0018
G01 X26.8407 Y7.9391
G01 X26.8314 Y7.9325
G01 X26.7416 Y7.8784
G01 X26.7318 Y7.8728
G01 X26.6371 Y7.8277
G01 X26.6267 Y7.8231
G01 X26.6117 Y7.8175
G01 X26.6117 Y7.7658
G01 X26.7826 Y7.8451
G01 X26.9495 Y7.9589
G01 X27.0956 Y8.0985
G01 X27.2169 Y8.2601
G01 X27.3061 Y8.4315
G01 X27.2525 Y8.4315
G00 Z2.0000
G00 X27.1362 Y15.0318
G01 F30.00
G01 Z-0.0900
G01 F60.00
G01 X27.1260 Y15.0324
G01 X25.1260 Y15.0324
G01 X25.1179 Y15.0320
G01 X25.1099 Y15.0308
G01 X25.1020 Y15.0289
G01 X25.0944 Y15.0261
G01 X25.0870 Y15.0227
G01 X25.0801 Y15.0185
G01 X25.0735 Y15.0136
G01 X25.0675 Y15.0082
G01 X25.0621 Y15.0022
G01 X25.0572 Y14.9956
G01 X25.0530 Y14.9887
G01 X25.0496 Y14.9813
G01 X25.0468 Y14.9737
G01 X25.0449 Y14.9658
G01 X25.0437 Y14.9578
G01 X25.0433 Y14.9497
G01 X25.0433 Y13.0426
G01 X25.0439 Y13.0345
G01 X25.0453 Y13.0265
G01 X25.0475 Y13.0187
G01 X25.0504 Y13.0111
G01 X25.0540 Y13.0039
G01 X25.0572 Y12.9987
G01 X25.0621 Y12.9922
G01 X25.0675 Y12.9862
G01 X25.0735 Y12.9807
G01 X25.0801 Y12.9759
G01 X25.0870 Y12.9717
G01 X25.0944 Y12.9682
G01 X25.1020 Y12.9655
G01 X25.1099 Y12.9635
G01 X25.1179 Y12.9623
G01 X25.1260 Y12.9619
G01 X27.1260 Y12.9619
G01 X27.1341 Y12.9623
G01 X27.1422 Y12.9635
G01 X27.1500 Y12.9655
G01 X27.1577 Y12.9682
G01 X27.1650 Y12.9717
G01 X27.1720 Y12.9759
G01 X27.1785 Y12.9807
G01 X27.1845 Y12.9862
G01 X27.1900 Y12.9922
G01 X27.1937 Y12.9970
G01 X27.1980 Y13.0039
G01 X27.2017 Y13.0111
G01 X27.2046 Y13.0187
G01 X27.2068 Y13.0265
G01 X27.2082 Y13.0345
G01 X27.2087 Y13.0426
G01 X27.2087 Y14.9517
G01 X27.2084 Y14.9578
G01 X27.2072 Y14.9658
G01 X27.2058 Y14.9717
G01 X27.2032 Y14.9795
G01 X27.1999 Y14.9869
G01 X27.1959 Y14.9939
G01 X27.1925 Y14.9990
G01 X27.1873 Y15.0052
G01 X27.1816 Y15.0110
G01 X27.1753 Y15.0161
G01 X27.1703 Y15.0196
G01 X27.1632 Y15.0236
G01 X27.1558 Y15.0269
G01 X27.1500 Y15.0289
G01 X27.1422 Y15.0308
G01 X27.1362 Y15.0318
G00 Z2.0000
G00 X27.1544 Y15.1796
G01 F30.00
G01 Z-0.0900
G01 F60.00
G01 X27.1374 Y15.1811
G01 X27.1260 Y15.1814
G01 X25.1203 Y15.1813
G01 X25.1090 Y15.1807
G01 X25.0977 Y15.1796
G01 X25.0864 Y15.1780
G01 X25.0753 Y15.1757
G01 X25.0642 Y15.1730
G01 X25.0533 Y15.1697
G01 X25.0426 Y15.1658
G01 X25.0321 Y15.1615
G01 X25.0219 Y15.1566
G01 X25.0118 Y15.1513
G01 X25.0021 Y15.1454
G01 X24.9926 Y15.1391
G01 X24.9835 Y15.1323
G01 X24.9747 Y15.1251
G01 X24.9663 Y15.1175
G01 X24.9582 Y15.1094
G01 X24.9469 Y15.0967
G01 X24.9399 Y15.0877
G01 X24.9334 Y15.0784
G01 X24.9273 Y15.0688
G01 X24.9217 Y15.0589
G01 X24.9166 Y15.0487
G01 X24.9120 Y15.0383
G01 X24.9079 Y15.0277
G01 X24.9043 Y15.0169
G01 X24.9013 Y15.0060
G01 X24.8988 Y14.9949
G01 X24.8968 Y14.9837
G01 X24.8954 Y14.9724
G01 X24.8944 Y14.9554
G01 X24.8943 Y13.0447
G01 X24.8946 Y13.0333
G01 X24.8954 Y13.0220
G01 X24.8968 Y13.0107
G01 X24.8988 Y12.9995
G01 X24.9013 Y12.9884
G01 X24.9043 Y12.9774
G01 X24.9099 Y12.9613
G01 X24.9142 Y12.9508
G01 X24.9191 Y12.9405
G01 X24.9244 Y12.9305
G01 X24.9303 Y12.9207
G01 X24.9366 Y12.9113
G01 X24.9434 Y12.9021
G01 X24.9506 Y12.8933
G01 X24.9582 Y12.8849
G01 X24.9663 Y12.8769
G01 X24.9747 Y12.8692
G01 X24.9835 Y12.8620
G01 X24.9926 Y12.8552
G01 X25.0021 Y12.8489
G01 X25.0168 Y12.8403
G01 X25.0270 Y12.8352
G01 X25.0374 Y12.8306
G01 X25.0533 Y12.8247
G01 X25.0642 Y12.8214
G01 X25.0753 Y12.8186
G01 X25.0864 Y12.8164
G01 X25.0977 Y12.8147
G01 X25.1090 Y12.8136
G01 X25.1203 Y12.8130
G01 X27.1260 Y12.8130
G01 X27.1374 Y12.8133
G01 X27.1544 Y12.8147
G01 X27.1656 Y12.8164
G01 X27.1768 Y12.8186
G01 X27.1878 Y12.8214
G01 X27.1987 Y12.8247
G01 X27.2094 Y12.8285
G01 X27.2199 Y12.8329
G01 X27.2302 Y12.8377
G01 X27.2402 Y12.8431
G01 X27.2500 Y12.8489
G01 X27.2594 Y12.8552
G01 X27.2686 Y12.8620
G01 X27.2774 Y12.8692
G01 X27.2858 Y12.8769
G01 X27.2938 Y12.8849
G01 X27.3015 Y12.8933
G01 X27.3087 Y12.9021
G01 X27.3155 Y12.9113
G01 X27.3218 Y12.9207
G01 X27.3276 Y12.9305
G01 X27.3330 Y12.9405
G01 X27.3401 Y12.9560
G01 X27.3442 Y12.9666
G01 X27.3477 Y12.9774
G01 X27.3508 Y12.9884
G01 X27.3533 Y12.9995
G01 X27.3560 Y13.0163
G01 X27.3571 Y13.0276
G01 X27.3577 Y13.0390
G01 X27.3577 Y14.9497
G01 X27.3574 Y14.9610
G01 X27.3566 Y14.9724
G01 X27.3552 Y14.9837
G01 X27.3521 Y15.0004
G01 X27.3493 Y15.0115
G01 X27.3460 Y15.0224
G01 X27.3401 Y15.0383
G01 X27.3330 Y15.0538
G01 X27.3276 Y15.0639
G01 X27.3218 Y15.0736
G01 X27.3155 Y15.0831
G01 X27.3087 Y15.0922
G01 X27.2977 Y15.1053
G01 X27.2899 Y15.1135
G01 X27.2816 Y15.1214
G01 X27.2686 Y15.1323
G01 X27.2594 Y15.1391
G01 X27.2500 Y15.1454
G01 X27.2402 Y15.1513
G01 X27.2302 Y15.1566
G01 X27.2199 Y15.1615
G01 X27.2094 Y15.1658
G01 X27.1933 Y15.1714
G01 X27.1768 Y15.1757
G01 X27.1656 Y15.1780
G01 X27.1544 Y15.1796
G00 Z2.0000
G00 X29.0261 Y17.0281
G01 F30.00
G01 Z-0.0900
G01 F60.00
G01 X29.0443 Y17.0231
G01 X29.0623 Y17.0172
G01 X29.0886 Y17.0067
G01 X29.1057 Y16.9986
G01 X29.1224 Y16.9897
G01 X29.1386 Y16.9800
G01 X29.1543 Y16.9695
G01 X29.1768 Y16.9523
G01 X29.2448 Y16.8934
G01 X29.2650 Y16.8736
G01 X29.2777 Y16.8595
G01 X29.2896 Y16.8449
G01 X29.3061 Y16.8218
G01 X29.3161 Y16.8058
G01 X29.3253 Y16.7893
G01 X29.3376 Y16.7637
G01 X29.3479 Y16.7373
G01 X29.3537 Y16.7193
G01 X29.3737 Y16.6512
G01 X29.3804 Y16.6248
G01 X29.3838 Y16.6070
G01 X29.3864 Y16.5891
G01 X29.3881 Y16.5711
G01 X29.3890 Y16.5530
G01 X29.3891 Y5.7418
G01 X49.7098 Y5.7418
G01 X49.7098 Y17.1725
G01 X30.0041 Y17.1728
G01 X29.9857 Y17.1735
G01 X29.9670 Y17.1751
G01 X29.9391 Y17.1793
G01 X29.9207 Y17.1832
G01 X29.9025 Y17.1880
G01 X29.8757 Y17.1968
G01 X29.8004 Y17.2251
G01 X29.7745 Y17.2366
G01 X29.7577 Y17.2454
G01 X29.7414 Y17.2549
G01 X29.7256 Y17.2653
G01 X29.7029 Y17.2823
G01 X29.6885 Y17.2945
G01 X29.6747 Y17.3075
G01 X29.6616 Y17.3211
G01 X29.6492 Y17.3353
G01 X29.6375 Y17.3502
G01 X29.5949 Y17.4070
G01 X29.5788 Y17.4303
G01 X29.5690 Y17.4465
G01 X29.5601 Y17.4632
G01 X29.5482 Y17.4889
G01 X29.5383 Y17.5155
G01 X29.5328 Y17.5336
G01 X29.5289 Y17.5488
G01 X29.0115 Y17.0313
G01 X29.0261 Y17.0281
G00 Z2.0000
G00 X27.5550 Y21.7844
G01 F30.00
G01 Z-0.0900
G01 F60.00
G01 X27.7648 Y21.8028
G01 X27.7685 Y21.8034
G01 X27.9720 Y21.8579
G01 X27.9755 Y21.8592
G01 X28.1503 Y21.9407
G01 X27.8920 Y22.1991
G01 X27.8094 Y22.1694
G01 X27.7253 Y22.1484
G01 X27.6396 Y22.1357
G01 X27.5531 Y22.1314
G01 X27.4666 Y22.1357
G01 X27.3809 Y22.1484
G01 X27.2969 Y22.1694
G01 X27.2143 Y22.1991
G01 X26.9559 Y21.9407
G01 X27.1308 Y21.8592
G01 X27.1343 Y21.8579
G01 X27.3377 Y21.8034
G01 X27.3414 Y21.8028
G01 X27.5513 Y21.7844
G01 X27.5550 Y21.7844
G00 Z2.0000
G00 X27.8526 Y22.0269
G01 F30.00
G01 Z-0.0900
G01 F60.00
G01 X27.7655 Y22.0048
G01 X27.7544 Y22.0023
G01 X27.7432 Y22.0004
G01 X27.6542 Y21.9874
G01 X27.5645 Y21.9828
G01 X27.5531 Y21.9825
G01 X27.5417 Y21.9828
G01 X27.4520 Y21.9874
G01 X27.3630 Y22.0004
G01 X27.3518 Y22.0023
G01 X27.3407 Y22.0048
G01 X27.2646 Y22.0239
G01 X27.2529 Y22.0271
G01 X27.2161 Y21.9902
G01 X27.3655 Y21.9502
G01 X27.5531 Y21.9338
G01 X27.7407 Y21.9502
G01 X27.8902 Y21.9902
G01 X27.8533 Y22.0271
G01 X27.8526 Y22.0269
G00 Z2.0000
G00 X28.3979 Y23.2704
G01 F30.00
G01 Z-0.0900
G01 F60.00
G01 X28.4189 Y23.1864
G01 X28.4316 Y23.1007
G01 X28.4359 Y23.0142
G01 X28.4319 Y22.9317
G01 X28.4311 Y22.9236
G01 X28.4196 Y22.8460
G01 X28.4180 Y22.8380
G01 X28.3979 Y22.7579
G01 X28.3682 Y22.6753
G01 X28.6266 Y22.4170
G01 X28.7081 Y22.5918
G01 X28.7094 Y22.5953
G01 X28.7639 Y22.7988
G01 X28.7645 Y22.8025
G01 X28.7829 Y23.0123
G01 X28.7829 Y23.0160
G01 X28.7645 Y23.2259
G01 X28.7639 Y23.2296
G01 X28.7094 Y23.4330
G01 X28.7081 Y23.4365
G01 X28.6266 Y23.6114
G01 X28.3682 Y23.3530
G01 X28.3979 Y23.2704
G00 Z2.0000
G00 X28.5650 Y23.2154
G01 F30.00
G01 Z-0.0900
G01 F60.00
G01 X28.5785 Y23.1266
G01 X28.5799 Y23.1153
G01 X28.5807 Y23.1040
G01 X28.5848 Y23.0142
G01 X28.5807 Y22.9244
G01 X28.5799 Y22.9131
G01 X28.5785 Y22.9018
G01 X28.5650 Y22.8129
G01 X28.5434 Y22.7256
G01 X28.5402 Y22.7140
G01 X28.5771 Y22.6771
G01 X28.6171 Y22.8266
G01 X28.6335 Y23.0142
G01 X28.6171 Y23.2018
G01 X28.5771 Y23.3512
G01 X28.5402 Y23.3143
G01 X28.5434 Y23.3027
G01 X28.5650 Y23.2154
G00 Z2.0000
G00 X27.2949 Y23.8583
G01 F30.00
G01 Z-0.0900
G01 F60.00
G01 X27.3809 Y23.8800
G01 X27.4626 Y23.8922
G01 X27.4706 Y23.8930
G01 X27.5491 Y23.8968
G01 X27.5572 Y23.8968
G01 X27.6396 Y23.8927
G01 X27.7253 Y23.8800
G01 X27.8094 Y23.8589
G01 X27.8920 Y23.8293
G01 X28.1503 Y24.0876
G01 X27.9755 Y24.1691
G01 X27.9720 Y24.1704
G01 X27.7685 Y24.2249
G01 X27.7648 Y24.2256
G01 X27.5550 Y24.2439
G01 X27.5513 Y24.2439
G01 X27.3414 Y24.2256
G01 X27.3377 Y24.2249
G01 X27.1343 Y24.1704
G01 X27.1308 Y24.1691
G01 X26.9559 Y24.0876
G01 X27.2143 Y23.8293
G01 X27.2949 Y23.8583
G00 Z2.0000
G00 X27.3463 Y24.0249
G01 F30.00
G01 Z-0.0900
G01 F60.00
G01 X27.3630 Y24.0280
G01 X27.4520 Y24.0409
G01 X27.5417 Y24.0456
G01 X27.5531 Y24.0459
G01 X27.5645 Y24.0456
G01 X27.6542 Y24.0409
G01 X27.7432 Y24.0280
G01 X27.7544 Y24.0261
G01 X27.7655 Y24.0236
G01 X27.8416 Y24.0045
G01 X27.8533 Y24.0012
G01 X27.8902 Y24.0381
G01 X27.7407 Y24.0782
G01 X27.5531 Y24.0946
G01 X27.3655 Y24.0782
G01 X27.2161 Y24.0381
G01 X27.2529 Y24.0012
G01 X27.2646 Y24.0045
G01 X27.3463 Y24.0249
G00 Z2.0000
G00 X26.5424 Y22.8073
G01 F30.00
G01 Z-0.0900
G01 F60.00
G01 X26.5393 Y22.8241
G01 X26.5264 Y22.9131
G01 X26.5217 Y23.0028
G01 X26.5214 Y23.0142
G01 X26.5217 Y23.0255
G01 X26.5264 Y23.1153
G01 X26.5393 Y23.2042
G01 X26.5412 Y23.2154
G01 X26.5437 Y23.2265
G01 X26.5628 Y23.3027
G01 X26.5661 Y23.3143
G01 X26.5292 Y23.3512
G01 X26.4891 Y23.2018
G01 X26.4727 Y23.0142
G01 X26.4891 Y22.8266
G01 X26.5292 Y22.6771
G01 X26.5661 Y22.7140
G01 X26.5628 Y22.7256
G01 X26.5424 Y22.8073
G00 Z2.0000
G00 X26.4797 Y22.4170
G01 F30.00
G01 Z-0.0900
G01 F60.00
G01 X26.7380 Y22.6753
G01 X26.7084 Y22.7579
G01 X26.6873 Y22.8420
G01 X26.6746 Y22.9277
G01 X26.6704 Y23.0142
G01 X26.6746 Y23.1007
G01 X26.6873 Y23.1864
G01 X26.7084 Y23.2704
G01 X26.7380 Y23.3530
G01 X26.4797 Y23.6114
G01 X26.3982 Y23.4365
G01 X26.3969 Y23.4330
G01 X26.3424 Y23.2296
G01 X26.3417 Y23.2259
G01 X26.3234 Y23.0160
G01 X26.3234 Y23.0123
G01 X26.3417 Y22.8025
G01 X26.3424 Y22.7988
G01 X26.3969 Y22.5953
G01 X26.3982 Y22.5918
G01 X26.4797 Y22.4170
G00 Z2.0000
G00 X24.5632 Y23.8963
G01 F30.00
G01 Z-0.0900
G01 F60.00
G01 X24.5531 Y23.8969
G01 X22.9511 Y23.8969
G01 X22.9430 Y23.8963
G01 X22.9350 Y23.8949
G01 X22.9272 Y23.8927
G01 X22.9196 Y23.8898
G01 X22.9123 Y23.8862
G01 X22.9055 Y23.8818
G01 X22.8991 Y23.8768
G01 X22.8932 Y23.8712
G01 X22.8879 Y23.8651
G01 X22.8832 Y23.8584
G01 X22.8801 Y23.8532
G01 X22.8767 Y23.8458
G01 X22.8739 Y23.8382
G01 X22.8720 Y23.8303
G01 X22.8708 Y23.8223
G01 X22.8704 Y23.8162
G01 X22.8704 Y22.2142
G01 X22.8708 Y22.2061
G01 X22.8720 Y22.1980
G01 X22.8739 Y22.1902
G01 X22.8767 Y22.1825
G01 X22.8811 Y22.1734
G01 X22.8855 Y22.1665
G01 X22.8905 Y22.1601
G01 X22.8961 Y22.1542
G01 X22.9022 Y22.1489
G01 X22.9088 Y22.1443
G01 X22.9159 Y22.1403
G01 X22.9215 Y22.1377
G01 X22.9291 Y22.1350
G01 X22.9370 Y22.1330
G01 X22.9450 Y22.1318
G01 X22.9511 Y22.1315
G01 X24.5531 Y22.1314
G01 X24.5612 Y22.1318
G01 X24.5693 Y22.1330
G01 X24.5771 Y22.1350
G01 X24.5867 Y22.1385
G01 X24.5939 Y22.1422
G01 X24.6008 Y22.1465
G01 X24.6072 Y22.1515
G01 X24.6131 Y22.1571
G01 X24.6171 Y22.1617
G01 X24.6219 Y22.1682
G01 X24.6261 Y22.1752
G01 X24.6296 Y22.1825
G01 X24.6323 Y22.1902
G01 X24.6343 Y22.1980
G01 X24.6355 Y22.2061
G01 X24.6358 Y22.2121
G01 X24.6358 Y23.8162
G01 X24.6352 Y23.8243
G01 X24.6339 Y23.8323
G01 X24.6323 Y23.8382
G01 X24.6296 Y23.8458
G01 X24.6261 Y23.8532
G01 X24.6230 Y23.8584
G01 X24.6196 Y23.8635
G01 X24.6144 Y23.8697
G01 X24.6102 Y23.8741
G01 X24.6040 Y23.8794
G01 X24.5991 Y23.8830
G01 X24.5921 Y23.8872
G01 X24.5848 Y23.8906
G01 X24.5771 Y23.8934
G01 X24.5712 Y23.8949
G01 X24.5632 Y23.8963
G00 Z2.0000
G00 X24.5815 Y24.0441
G01 F30.00
G01 Z-0.0900
G01 F60.00
G01 X24.5645 Y24.0456
G01 X24.5531 Y24.0459
G01 X22.9531 Y24.0459
G01 X22.9418 Y24.0456
G01 X22.9304 Y24.0448
G01 X22.9191 Y24.0434
G01 X22.9079 Y24.0414
G01 X22.8968 Y24.0389
G01 X22.8859 Y24.0359
G01 X22.8751 Y24.0323
G01 X22.8645 Y24.0282
G01 X22.8541 Y24.0236
G01 X22.8439 Y24.0185
G01 X22.8340 Y24.0129
G01 X22.8244 Y24.0068
G01 X22.8151 Y24.0003
G01 X22.8061 Y23.9933
G01 X22.7975 Y23.9859
G01 X22.7893 Y23.9780
G01 X22.7814 Y23.9698
G01 X22.7740 Y23.9612
G01 X22.7670 Y23.9522
G01 X22.7605 Y23.9429
G01 X22.7544 Y23.9333
G01 X22.7462 Y23.9183
G01 X22.7413 Y23.9081
G01 X22.7369 Y23.8976
G01 X22.7331 Y23.8869
G01 X22.7298 Y23.8760
G01 X22.7259 Y23.8594
G01 X22.7232 Y23.8425
G01 X22.7220 Y23.8312
G01 X22.7215 Y23.8199
G01 X22.7214 Y22.2142
G01 X22.7217 Y22.2028
G01 X22.7225 Y22.1915
G01 X22.7239 Y22.1802
G01 X22.7259 Y22.1690
G01 X22.7284 Y22.1579
G01 X22.7331 Y22.1415
G01 X22.7369 Y22.1308
G01 X22.7413 Y22.1203
G01 X22.7462 Y22.1100
G01 X22.7515 Y22.1000
G01 X22.7605 Y22.0854
G01 X22.7670 Y22.0762
G01 X22.7740 Y22.0672
G01 X22.7814 Y22.0586
G01 X22.7893 Y22.0503
G01 X22.7975 Y22.0425
G01 X22.8061 Y22.0351
G01 X22.8151 Y22.0281
G01 X22.8292 Y22.0184
G01 X22.8439 Y22.0098
G01 X22.8541 Y22.0047
G01 X22.8645 Y22.0001
G01 X22.8751 Y21.9960
G01 X22.8859 Y21.9925
G01 X22.8968 Y21.9894
G01 X22.9079 Y21.9869
G01 X22.9248 Y21.9842
G01 X22.9361 Y21.9831
G01 X22.9474 Y21.9825
G01 X24.5531 Y21.9825
G01 X24.5645 Y21.9828
G01 X24.5758 Y21.9836
G01 X24.5871 Y21.9850
G01 X24.5983 Y21.9869
G01 X24.6094 Y21.9894
G01 X24.6204 Y21.9925
G01 X24.6312 Y21.9960
G01 X24.6470 Y22.0024
G01 X24.6623 Y22.0098
G01 X24.6722 Y22.0154
G01 X24.6818 Y22.0215
G01 X24.6911 Y22.0281
G01 X24.7001 Y22.0351
G01 X24.7087 Y22.0425
G01 X24.7170 Y22.0503
G01 X24.7248 Y22.0586
G01 X24.7358 Y22.0716
G01 X24.7426 Y22.0808
G01 X24.7489 Y22.0902
G01 X24.7547 Y22.1000
G01 X24.7601 Y22.1100
G01 X24.7672 Y22.1255
G01 X24.7731 Y22.1415
G01 X24.7764 Y22.1524
G01 X24.7792 Y22.1634
G01 X24.7814 Y22.1746
G01 X24.7831 Y22.1858
G01 X24.7842 Y22.1971
G01 X24.7847 Y22.2085
G01 X24.7848 Y23.8142
G01 X24.7842 Y23.8312
G01 X24.7831 Y23.8425
G01 X24.7814 Y23.8538
G01 X24.7779 Y23.8705
G01 X24.7731 Y23.8869
G01 X24.7693 Y23.8976
G01 X24.7649 Y23.9081
G01 X24.7575 Y23.9234
G01 X24.7519 Y23.9333
G01 X24.7458 Y23.9429
G01 X24.7392 Y23.9522
G01 X24.7322 Y23.9612
G01 X24.7209 Y23.9739
G01 X24.7129 Y23.9820
G01 X24.7045 Y23.9896
G01 X24.6911 Y24.0003
G01 X24.6771 Y24.0099
G01 X24.6673 Y24.0158
G01 X24.6573 Y24.0211
G01 X24.6470 Y24.0260
G01 X24.6365 Y24.0303
G01 X24.6204 Y24.0359
G01 X24.6039 Y24.0402
G01 X24.5927 Y24.0425
G01 X24.5815 Y24.0441
G00 Z2.0000
G00 X22.8968 Y21.9396
G01 F30.00
G01 Z-0.0900
G01 F60.00
G01 X22.9175 Y21.9374
G01 X24.5887 Y21.9374
G01 X24.6094 Y21.9396
G01 X24.6874 Y21.9689
G01 X24.7509 Y22.0164
G01 X24.7984 Y22.0799
G01 X24.8277 Y22.1579
G01 X24.8299 Y22.1786
G01 X24.8299 Y23.8498
G01 X24.8277 Y23.8705
G01 X24.7984 Y23.9485
G01 X24.7509 Y24.0119
G01 X24.6874 Y24.0595
G01 X24.6094 Y24.0887
G01 X24.5887 Y24.0910
G01 X22.9175 Y24.0910
G01 X22.8968 Y24.0887
G01 X22.8188 Y24.0595
G01 X22.7554 Y24.0119
G01 X22.7078 Y23.9485
G01 X22.6786 Y23.8705
G01 X22.6763 Y23.8498
G01 X22.6763 Y22.1786
G01 X22.6786 Y22.1579
G01 X22.7078 Y22.0799
G01 X22.7554 Y22.0164
G01 X22.8188 Y21.9689
G01 X22.8968 Y21.9396
G00 Z2.0000
G00 X22.8621 Y21.7936
G01 F30.00
G01 Z-0.0900
G01 F60.00
G01 X22.9095 Y21.7884
G01 X24.5968 Y21.7884
G01 X24.6441 Y21.7936
G01 X24.7597 Y21.8369
G01 X24.8573 Y21.9100
G01 X24.9304 Y22.0076
G01 X24.9737 Y22.1232
G01 X24.9789 Y22.1705
G01 X24.9789 Y23.8578
G01 X24.9737 Y23.9052
G01 X24.9304 Y24.0207
G01 X24.8573 Y24.1183
G01 X24.7597 Y24.1915
G01 X24.6441 Y24.2348
G01 X24.5968 Y24.2399
G01 X22.9095 Y24.2399
G01 X22.8621 Y24.2348
G01 X22.7466 Y24.1915
G01 X22.6490 Y24.1183
G01 X22.5758 Y24.0207
G01 X22.5325 Y23.9052
G01 X22.5274 Y23.8578
G01 X22.5274 Y22.1705
G01 X22.5325 Y22.1232
G01 X22.5758 Y22.0076
G01 X22.6490 Y21.9100
G01 X22.7466 Y21.8369
G01 X22.8621 Y21.7936
G00 Z2.0000
G00 X19.7292 Y25.4113
G01 F30.00
G01 Z-0.0900
G01 F60.00
G01 X19.7190 Y25.4119
G01 X17.7170 Y25.4119
G01 X17.7049 Y25.4107
G01 X17.6950 Y25.4084
G01 X17.6836 Y25.4040
G01 X17.6731 Y25.3980
G01 X17.6650 Y25.3918
G01 X17.6564 Y25.3832
G01 X17.6491 Y25.3734
G01 X17.6434 Y25.3627
G01 X17.6405 Y25.3551
G01 X17.6383 Y25.3473
G01 X17.6367 Y25.3373
G01 X17.6363 Y25.3292
G01 X17.6363 Y20.7292
G01 X17.6372 Y20.7170
G01 X17.6398 Y20.7052
G01 X17.6442 Y20.6938
G01 X17.6502 Y20.6832
G01 X17.6577 Y20.6736
G01 X17.6665 Y20.6652
G01 X17.6748 Y20.6593
G01 X17.6855 Y20.6535
G01 X17.6931 Y20.6506
G01 X17.7009 Y20.6484
G01 X17.7109 Y20.6468
G01 X17.7190 Y20.6464
G01 X19.7211 Y20.6465
G01 X19.7312 Y20.6473
G01 X19.7430 Y20.6500
G01 X19.7544 Y20.6544
G01 X19.7650 Y20.6604
G01 X19.7746 Y20.6679
G01 X19.7830 Y20.6767
G01 X19.7900 Y20.6866
G01 X19.7947 Y20.6956
G01 X19.7976 Y20.7032
G01 X19.7998 Y20.7110
G01 X19.8014 Y20.7211
G01 X19.8018 Y20.7292
G01 X19.8017 Y25.3312
G01 X19.8014 Y25.3373
G01 X19.8002 Y25.3453
G01 X19.7988 Y25.3512
G01 X19.7962 Y25.3590
G01 X19.7938 Y25.3646
G01 X19.7900 Y25.3717
G01 X19.7855 Y25.3785
G01 X19.7803 Y25.3847
G01 X19.7746 Y25.3905
G01 X19.7699 Y25.3944
G01 X19.7650 Y25.3980
G01 X19.7580 Y25.4022
G01 X19.7507 Y25.4056
G01 X19.7430 Y25.4084
G01 X19.7372 Y25.4099
G01 X19.7292 Y25.4113
G00 Z2.0000
G00 X19.7474 Y25.5591
G01 F30.00
G01 Z-0.0900
G01 F60.00
G01 X19.7304 Y25.5606
G01 X19.7190 Y25.5609
G01 X17.7190 Y25.5609
G01 X17.7020 Y25.5602
G01 X17.6850 Y25.5584
G01 X17.6683 Y25.5552
G01 X17.6572 Y25.5525
G01 X17.6410 Y25.5473
G01 X17.6251 Y25.5410
G01 X17.6098 Y25.5335
G01 X17.5951 Y25.5249
G01 X17.5810 Y25.5153
G01 X17.5677 Y25.5046
G01 X17.5552 Y25.4930
G01 X17.5473 Y25.4848
G01 X17.5364 Y25.4717
G01 X17.5264 Y25.4579
G01 X17.5203 Y25.4483
G01 X17.5121 Y25.4333
G01 X17.5050 Y25.4178
G01 X17.5009 Y25.4072
G01 X17.4973 Y25.3964
G01 X17.4943 Y25.3855
G01 X17.4918 Y25.3744
G01 X17.4898 Y25.3632
G01 X17.4884 Y25.3519
G01 X17.4876 Y25.3405
G01 X17.4873 Y25.3292
G01 X17.4874 Y20.7235
G01 X17.4884 Y20.7065
G01 X17.4907 Y20.6896
G01 X17.4943 Y20.6729
G01 X17.4990 Y20.6565
G01 X17.5050 Y20.6405
G01 X17.5121 Y20.6250
G01 X17.5203 Y20.6101
G01 X17.5296 Y20.5958
G01 X17.5399 Y20.5822
G01 X17.5512 Y20.5694
G01 X17.5634 Y20.5575
G01 X17.5765 Y20.5465
G01 X17.5903 Y20.5365
G01 X17.5999 Y20.5304
G01 X17.6149 Y20.5222
G01 X17.6304 Y20.5151
G01 X17.6410 Y20.5110
G01 X17.6518 Y20.5075
G01 X17.6627 Y20.5044
G01 X17.6738 Y20.5019
G01 X17.6850 Y20.5000
G01 X17.6963 Y20.4986
G01 X17.7077 Y20.4978
G01 X17.7190 Y20.4975
G01 X19.7190 Y20.4975
G01 X19.7304 Y20.4978
G01 X19.7474 Y20.4992
G01 X19.7586 Y20.5009
G01 X19.7753 Y20.5044
G01 X19.7917 Y20.5092
G01 X19.8077 Y20.5151
G01 X19.8232 Y20.5222
G01 X19.8381 Y20.5304
G01 X19.8524 Y20.5397
G01 X19.8660 Y20.5501
G01 X19.8788 Y20.5614
G01 X19.8907 Y20.5736
G01 X19.9017 Y20.5866
G01 X19.9117 Y20.6004
G01 X19.9206 Y20.6150
G01 X19.9285 Y20.6301
G01 X19.9331 Y20.6405
G01 X19.9372 Y20.6511
G01 X19.9407 Y20.6619
G01 X19.9438 Y20.6729
G01 X19.9463 Y20.6840
G01 X19.9482 Y20.6952
G01 X19.9496 Y20.7065
G01 X19.9504 Y20.7178
G01 X19.9507 Y20.7292
G01 X19.9507 Y25.3292
G01 X19.9504 Y25.3405
G01 X19.9490 Y25.3575
G01 X19.9473 Y25.3688
G01 X19.9451 Y25.3799
G01 X19.9423 Y25.3910
G01 X19.9390 Y25.4019
G01 X19.9331 Y25.4178
G01 X19.9260 Y25.4333
G01 X19.9206 Y25.4434
G01 X19.9148 Y25.4531
G01 X19.9051 Y25.4672
G01 X19.8981 Y25.4762
G01 X19.8907 Y25.4848
G01 X19.8829 Y25.4930
G01 X19.8746 Y25.5009
G01 X19.8660 Y25.5083
G01 X19.8570 Y25.5153
G01 X19.8430 Y25.5249
G01 X19.8332 Y25.5308
G01 X19.8232 Y25.5361
G01 X19.8077 Y25.5432
G01 X19.7971 Y25.5473
G01 X19.7863 Y25.5509
G01 X19.7753 Y25.5539
G01 X19.7642 Y25.5564
G01 X19.7474 Y25.5591
G00 Z2.0000
G00 X17.6627 Y20.4546
G01 F30.00
G01 Z-0.0900
G01 F60.00
G01 X17.6834 Y20.4524
G01 X19.7546 Y20.4524
G01 X19.7753 Y20.4546
G01 X19.8533 Y20.4839
G01 X19.9168 Y20.5314
G01 X19.9643 Y20.5949
G01 X19.9936 Y20.6729
G01 X19.9958 Y20.6936
G01 X19.9958 Y25.3648
G01 X19.9936 Y25.3855
G01 X19.9643 Y25.4635
G01 X19.9168 Y25.5269
G01 X19.8533 Y25.5745
G01 X19.7753 Y25.6037
G01 X19.7546 Y25.6060
G01 X17.6834 Y25.6060
G01 X17.6627 Y25.6037
G01 X17.5847 Y25.5745
G01 X17.5213 Y25.5269
G01 X17.4737 Y25.4635
G01 X17.4445 Y25.3855
G01 X17.4422 Y25.3648
G01 X17.4422 Y20.6936
G01 X17.4445 Y20.6729
G01 X17.4737 Y20.5949
G01 X17.5213 Y20.5314
G01 X17.5847 Y20.4839
G01 X17.6627 Y20.4546
G00 Z2.0000
G00 X17.6280 Y20.3086
G01 F30.00
G01 Z-0.0900
G01 F60.00
G01 X17.6754 Y20.3034
G01 X19.7627 Y20.3034
G01 X19.8100 Y20.3086
G01 X19.9256 Y20.3519
G01 X20.0232 Y20.4250
G01 X20.0963 Y20.5226
G01 X20.1396 Y20.6382
G01 X20.1448 Y20.6855
G01 X20.1448 Y25.3728
G01 X20.1396 Y25.4202
G01 X20.0963 Y25.5357
G01 X20.0232 Y25.6333
G01 X19.9256 Y25.7065
G01 X19.8100 Y25.7498
G01 X19.7627 Y25.7549
G01 X17.6754 Y25.7549
G01 X17.6280 Y25.7498
G01 X17.5125 Y25.7065
G01 X17.4149 Y25.6333
G01 X17.3417 Y25.5357
G01 X17.2984 Y25.4202
G01 X17.2933 Y25.3728
G01 X17.2933 Y20.6855
G01 X17.2984 Y20.6382
G01 X17.3417 Y20.5226
G01 X17.4149 Y20.4250
G01 X17.5125 Y20.3519
G01 X17.6280 Y20.3086
G00 Z2.0000
G00 X17.0341 Y19.4554
G01 F30.00
G01 Z-0.0900
G01 F60.00
G01 X17.0510 Y19.4536
G01 X17.1481 Y19.4392
G01 X17.1593 Y19.4372
G01 X17.1704 Y19.4347
G01 X17.2656 Y19.4109
G01 X17.2766 Y19.4078
G01 X17.2874 Y19.4043
G01 X17.3798 Y19.3712
G01 X17.3904 Y19.3671
G01 X17.4008 Y19.3625
G01 X17.4895 Y19.3206
G01 X17.4996 Y19.3154
G01 X17.5095 Y19.3098
G01 X17.5937 Y19.2594
G01 X17.6080 Y19.2501
G01 X17.6914 Y19.1883
G01 X17.7004 Y19.1813
G01 X17.7090 Y19.1739
G01 X17.7817 Y19.1080
G01 X17.7900 Y19.1001
G01 X17.7978 Y19.0919
G01 X17.8637 Y19.0192
G01 X17.8711 Y19.0106
G01 X17.8781 Y19.0016
G01 X17.9366 Y18.9228
G01 X17.9431 Y18.9135
G01 X17.9492 Y18.9039
G01 X17.9997 Y18.8197
G01 X18.0053 Y18.8098
G01 X18.0505 Y18.7149
G01 X18.0997 Y18.7149
G01 X18.0738 Y18.7824
G01 X17.9705 Y18.9600
G01 X17.8401 Y19.1187
G01 X17.6860 Y19.2545
G01 X17.5123 Y19.3639
G01 X17.3232 Y19.4442
G01 X17.1237 Y19.4932
G01 X16.9707 Y19.5055
G01 X16.3047 Y19.5055
G01 X16.3047 Y19.4609
G01 X16.9190 Y19.4609
G01 X16.9304 Y19.4606
G01 X17.0341 Y19.4554
G00 Z2.0000
G00 X17.0231 Y19.3069
G01 F30.00
G01 Z-0.0900
G01 F60.00
G01 X17.1263 Y19.2918
G01 X17.1342 Y19.2902
G01 X17.2333 Y19.2653
G01 X17.3334 Y19.2295
G01 X17.4294 Y19.1841
G01 X17.5171 Y19.1316
G01 X17.5239 Y19.1271
G01 X17.6059 Y19.0662
G01 X17.6817 Y18.9976
G01 X17.6874 Y18.9919
G01 X17.7560 Y18.9161
G01 X17.8193 Y18.8307
G01 X17.8719 Y18.7431
G01 X17.8758 Y18.7360
G01 X17.9194 Y18.6435
G01 X17.9472 Y18.5659
G01 X18.3047 Y18.5659
G01 X18.2911 Y18.6312
G01 X18.2901 Y18.6345
G01 X18.2092 Y18.8454
G01 X18.2077 Y18.8485
G01 X18.0940 Y19.0437
G01 X18.0921 Y19.0466
G01 X17.9487 Y19.2211
G01 X17.9463 Y19.2236
G01 X17.7769 Y19.3730
G01 X17.7741 Y19.3751
G01 X17.5829 Y19.4954
G01 X17.5799 Y19.4970
G01 X17.3720 Y19.5853
G01 X17.3687 Y19.5864
G01 X17.1493 Y19.6403
G01 X17.1459 Y19.6408
G01 X16.9758 Y19.6544
G01 X16.1558 Y19.6544
G01 X16.1558 Y19.3119
G01 X16.9190 Y19.3119
G01 X17.0231 Y19.3069
G00 Z2.0000
G00 X17.7758 Y17.2776
G01 F30.00
G01 Z-0.0900
G01 F60.00
G01 X17.9169 Y17.4268
G01 X18.0324 Y17.5967
G01 X18.1008 Y17.7435
G01 X18.0505 Y17.7435
G01 X18.0053 Y17.6486
G01 X17.9997 Y17.6387
G01 X17.9492 Y17.5545
G01 X17.9431 Y17.5449
G01 X17.9366 Y17.5356
G01 X17.8781 Y17.4568
G01 X17.8711 Y17.4478
G01 X17.8637 Y17.4392
G01 X17.7978 Y17.3665
G01 X17.7900 Y17.3582
G01 X17.7817 Y17.3504
G01 X17.7090 Y17.2845
G01 X17.7004 Y17.2771
G01 X17.6914 Y17.2701
G01 X17.6126 Y17.2116
G01 X17.6033 Y17.2051
G01 X17.5937 Y17.1990
G01 X17.5095 Y17.1485
G01 X17.4996 Y17.1429
G01 X17.4895 Y17.1378
G01 X17.3956 Y17.0935
G01 X17.3798 Y17.0871
G01 X17.2874 Y17.0541
G01 X17.2766 Y17.0505
G01 X17.2656 Y17.0475
G01 X17.1704 Y17.0236
G01 X17.1593 Y17.0211
G01 X17.1481 Y17.0192
G01 X17.0510 Y17.0048
G01 X17.0398 Y17.0034
G01 X17.0284 Y17.0026
G01 X16.9304 Y16.9978
G01 X16.9190 Y16.9975
G01 X16.3047 Y16.9975
G01 X16.3047 Y16.9529
G01 X17.0218 Y16.9529
G01 X17.0311 Y16.9533
G01 X17.2375 Y16.9889
G01 X17.4317 Y17.0558
G01 X17.6127 Y17.1529
G01 X17.7758 Y17.2776
G00 Z2.0000
G00 X17.2763 Y16.8448
G01 F30.00
G01 Z-0.0900
G01 F60.00
G01 X17.4898 Y16.9183
G01 X17.4930 Y16.9197
G01 X17.6921 Y17.0264
G01 X17.6950 Y17.0283
G01 X17.8744 Y17.1655
G01 X17.8770 Y17.1678
G01 X18.0322 Y17.3319
G01 X18.0344 Y17.3346
G01 X18.1613 Y17.5215
G01 X18.1630 Y17.5245
G01 X18.2585 Y17.7292
G01 X18.2597 Y17.7324
G01 X18.3050 Y17.8924
G01 X17.9472 Y17.8924
G01 X17.9194 Y17.8148
G01 X17.8758 Y17.7224
G01 X17.8719 Y17.7152
G01 X17.8215 Y17.6311
G01 X17.8170 Y17.6243
G01 X17.7560 Y17.5423
G01 X17.6846 Y17.4636
G01 X17.6059 Y17.3922
G01 X17.5239 Y17.3312
G01 X17.5171 Y17.3267
G01 X17.4294 Y17.2743
G01 X17.3371 Y17.2305
G01 X17.3296 Y17.2274
G01 X17.2372 Y17.1943
G01 X17.2294 Y17.1920
G01 X17.1342 Y17.1681
G01 X17.1263 Y17.1665
G01 X17.0252 Y17.1516
G01 X16.9231 Y17.1465
G01 X16.1558 Y17.1464
G01 X16.1558 Y16.8039
G01 X17.0257 Y16.8039
G01 X17.0485 Y16.8052
G01 X17.2729 Y16.8439
G01 X17.2763 Y16.8448
G00 Z2.0000
G00 X14.3148 Y17.0142
G01 F30.00
G01 Z-0.0900
G01 F60.00
G01 X14.5143 Y16.9652
G01 X14.6674 Y16.9529
G01 X15.3333 Y16.9529
G01 X15.3333 Y16.9975
G01 X14.7190 Y16.9975
G01 X14.7077 Y16.9978
G01 X14.6096 Y17.0026
G01 X14.5983 Y17.0034
G01 X14.5870 Y17.0048
G01 X14.4899 Y17.0192
G01 X14.4787 Y17.0211
G01 X14.4676 Y17.0236
G01 X14.3724 Y17.0475
G01 X14.3615 Y17.0505
G01 X14.3507 Y17.0541
G01 X14.2583 Y17.0871
G01 X14.2424 Y17.0935
G01 X14.1486 Y17.1378
G01 X14.1384 Y17.1429
G01 X14.1285 Y17.1485
G01 X14.0443 Y17.1990
G01 X14.0347 Y17.2051
G01 X14.0254 Y17.2116
G01 X13.9466 Y17.2701
G01 X13.9376 Y17.2771
G01 X13.9290 Y17.2845
G01 X13.8563 Y17.3504
G01 X13.8481 Y17.3582
G01 X13.8402 Y17.3665
G01 X13.7743 Y17.4392
G01 X13.7669 Y17.4478
G01 X13.7599 Y17.4568
G01 X13.7015 Y17.5356
G01 X13.6949 Y17.5449
G01 X13.6888 Y17.5545
G01 X13.6384 Y17.6387
G01 X13.6328 Y17.6486
G01 X13.5876 Y17.7435
G01 X13.5383 Y17.7435
G01 X13.5643 Y17.6759
G01 X13.6676 Y17.4984
G01 X13.7979 Y17.3397
G01 X13.9520 Y17.2039
G01 X14.1258 Y17.0944
G01 X14.3148 Y17.0142
G00 Z2.0000
G00 X13.5460 Y17.4118
G01 F30.00
G01 Z-0.0900
G01 F60.00
G01 X13.6894 Y17.2372
G01 X13.6917 Y17.2348
G01 X13.8612 Y17.0854
G01 X13.8639 Y17.0833
G01 X14.0551 Y16.9629
G01 X14.0582 Y16.9613
G01 X14.2661 Y16.8731
G01 X14.2694 Y16.8720
G01 X14.4887 Y16.8181
G01 X14.4921 Y16.8175
G01 X14.6605 Y16.8040
G01 X15.4823 Y16.8039
G01 X15.4823 Y17.1464
G01 X14.7150 Y17.1465
G01 X14.6129 Y17.1516
G01 X14.5118 Y17.1665
G01 X14.5038 Y17.1681
G01 X14.4086 Y17.1920
G01 X14.4009 Y17.1943
G01 X14.3047 Y17.2288
G01 X14.2122 Y17.2724
G01 X14.2051 Y17.2763
G01 X14.1209 Y17.3267
G01 X14.1142 Y17.3312
G01 X14.0321 Y17.3922
G01 X13.9534 Y17.4636
G01 X13.8820 Y17.5423
G01 X13.8211 Y17.6243
G01 X13.8166 Y17.6311
G01 X13.7661 Y17.7152
G01 X13.7623 Y17.7224
G01 X13.7187 Y17.8148
G01 X13.6908 Y17.8924
G01 X13.3333 Y17.8924
G01 X13.3470 Y17.8272
G01 X13.3479 Y17.8238
G01 X13.4289 Y17.6130
G01 X13.4304 Y17.6098
G01 X13.5440 Y17.4146
G01 X13.5460 Y17.4118
G00 Z2.0000
G00 X13.7203 Y18.6472
G01 F30.00
G01 Z-0.0900
G01 F60.00
G01 X13.7641 Y18.7396
G01 X13.8188 Y18.8307
G01 X13.8820 Y18.9161
G01 X13.9534 Y18.9948
G01 X14.0321 Y19.0662
G01 X14.1175 Y19.1294
G01 X14.2086 Y19.1841
G01 X14.3066 Y19.2303
G01 X14.4047 Y19.2653
G01 X14.5038 Y19.2902
G01 X14.5118 Y19.2918
G01 X14.6149 Y19.3069
G01 X14.7190 Y19.3119
G01 X15.4823 Y19.3119
G01 X15.4823 Y19.6544
G01 X14.6133 Y19.6544
G01 X14.5895 Y19.6532
G01 X14.3651 Y19.6144
G01 X14.3618 Y19.6136
G01 X14.1482 Y19.5400
G01 X14.1450 Y19.5387
G01 X13.9460 Y19.4319
G01 X13.9431 Y19.4300
G01 X13.7636 Y19.2928
G01 X13.7611 Y19.2905
G01 X13.6059 Y19.1264
G01 X13.6037 Y19.1237
G01 X13.4767 Y18.9369
G01 X13.4750 Y18.9339
G01 X13.3795 Y18.7292
G01 X13.3783 Y18.7259
G01 X13.3331 Y18.5659
G01 X13.6908 Y18.5659
G01 X13.7172 Y18.6397
G01 X13.7203 Y18.6472
G00 Z2.0000
G00 X13.6384 Y18.8197
G01 F30.00
G01 Z-0.0900
G01 F60.00
G01 X13.6888 Y18.9039
G01 X13.6949 Y18.9135
G01 X13.7015 Y18.9228
G01 X13.7599 Y19.0016
G01 X13.7669 Y19.0106
G01 X13.7743 Y19.0192
G01 X13.8402 Y19.0919
G01 X13.8481 Y19.1001
G01 X13.8563 Y19.1080
G01 X13.9290 Y19.1739
G01 X13.9376 Y19.1813
G01 X13.9466 Y19.1883
G01 X14.0254 Y19.2467
G01 X14.0347 Y19.2533
G01 X14.0443 Y19.2594
G01 X14.1285 Y19.3098
G01 X14.1384 Y19.3154
G01 X14.1486 Y19.3206
G01 X14.2373 Y19.3625
G01 X14.2477 Y19.3671
G01 X14.2583 Y19.3712
G01 X14.3507 Y19.4043
G01 X14.3615 Y19.4078
G01 X14.3724 Y19.4109
G01 X14.4676 Y19.4347
G01 X14.4787 Y19.4372
G01 X14.4899 Y19.4392
G01 X14.5870 Y19.4536
G01 X14.5983 Y19.4549
G01 X14.6096 Y19.4558
G01 X14.7077 Y19.4606
G01 X14.7190 Y19.4609
G01 X15.3333 Y19.4609
G01 X15.3333 Y19.5055
G01 X14.6162 Y19.5055
G01 X14.6070 Y19.5051
G01 X14.4006 Y19.4694
G01 X14.2064 Y19.4025
G01 X14.0254 Y19.3055
G01 X13.8622 Y19.1807
G01 X13.7211 Y19.0315
G01 X13.6057 Y18.8617
G01 X13.5372 Y18.7149
G01 X13.5876 Y18.7149
G01 X13.6276 Y18.7996
G01 X13.6328 Y18.8098
G01 X13.6384 Y18.8197
G00 Z2.0000
G00 X13.2364 Y20.7561
G01 F30.00
G01 Z-0.0900
G01 F60.00
G01 X13.4110 Y20.8995
G01 X13.4134 Y20.9019
G01 X13.5628 Y21.0713
G01 X13.5649 Y21.0741
G01 X13.6853 Y21.2653
G01 X13.6869 Y21.2683
G01 X13.7751 Y21.4762
G01 X13.7762 Y21.4795
G01 X13.8301 Y21.6989
G01 X13.8307 Y21.7023
G01 X13.8442 Y21.8707
G01 X13.8443 Y22.6924
G01 X13.5018 Y22.6924
G01 X13.5017 Y21.9251
G01 X13.4966 Y21.8230
G01 X13.4817 Y21.7219
G01 X13.4801 Y21.7140
G01 X13.4562 Y21.6188
G01 X13.4539 Y21.6110
G01 X13.4208 Y21.5186
G01 X13.4177 Y21.5111
G01 X13.3739 Y21.4188
G01 X13.3215 Y21.3311
G01 X13.3170 Y21.3243
G01 X13.2560 Y21.2423
G01 X13.1846 Y21.1636
G01 X13.1059 Y21.0922
G01 X13.0239 Y21.0312
G01 X13.0171 Y21.0267
G01 X12.9330 Y20.9763
G01 X12.9258 Y20.9724
G01 X12.8334 Y20.9288
G01 X12.7558 Y20.9010
G01 X12.7558 Y20.5435
G01 X12.8210 Y20.5571
G01 X12.8244 Y20.5581
G01 X13.0352 Y20.6390
G01 X13.0384 Y20.6405
G01 X13.2336 Y20.7542
G01 X13.2364 Y20.7561
G00 Z2.0000
G00 X13.6340 Y21.5250
G01 F30.00
G01 Z-0.0900
G01 F60.00
G01 X13.6830 Y21.7245
G01 X13.6953 Y21.8775
G01 X13.6953 Y22.5435
G01 X13.6507 Y22.5435
G01 X13.6507 Y21.9292
G01 X13.6504 Y21.9178
G01 X13.6456 Y21.8198
G01 X13.6448 Y21.8084
G01 X13.6434 Y21.7972
G01 X13.6290 Y21.7001
G01 X13.6271 Y21.6889
G01 X13.6246 Y21.6778
G01 X13.6007 Y21.5826
G01 X13.5977 Y21.5716
G01 X13.5941 Y21.5608
G01 X13.5611 Y21.4684
G01 X13.5547 Y21.4526
G01 X13.5104 Y21.3587
G01 X13.5053 Y21.3486
G01 X13.4997 Y21.3387
G01 X13.4492 Y21.2545
G01 X13.4431 Y21.2449
G01 X13.4366 Y21.2356
G01 X13.3781 Y21.1568
G01 X13.3711 Y21.1478
G01 X13.3637 Y21.1392
G01 X13.2978 Y21.0665
G01 X13.2900 Y21.0582
G01 X13.2817 Y21.0504
G01 X13.2090 Y20.9845
G01 X13.2004 Y20.9771
G01 X13.1914 Y20.9701
G01 X13.1126 Y20.9116
G01 X13.1033 Y20.9051
G01 X13.0937 Y20.8990
G01 X13.0095 Y20.8485
G01 X12.9996 Y20.8429
G01 X12.9047 Y20.7977
G01 X12.9047 Y20.7485
G01 X12.9723 Y20.7744
G01 X13.1498 Y20.8777
G01 X13.3085 Y21.0081
G01 X13.4443 Y21.1622
G01 X13.5538 Y21.3359
G01 X13.6340 Y21.5250
G00 Z2.0000
G00 X11.4675 Y21.0724
G01 F30.00
G01 Z-0.0900
G01 F60.00
G01 X11.6167 Y20.9313
G01 X11.7865 Y20.8158
G01 X11.9333 Y20.7474
G01 X11.9333 Y20.7977
G01 X11.8384 Y20.8429
G01 X11.8285 Y20.8485
G01 X11.7443 Y20.8990
G01 X11.7347 Y20.9051
G01 X11.7254 Y20.9116
G01 X11.6466 Y20.9701
G01 X11.6376 Y20.9771
G01 X11.6290 Y20.9845
G01 X11.5563 Y21.0504
G01 X11.5481 Y21.0582
G01 X11.5402 Y21.0665
G01 X11.4743 Y21.1392
G01 X11.4669 Y21.1478
G01 X11.4599 Y21.1568
G01 X11.4015 Y21.2356
G01 X11.3949 Y21.2449
G01 X11.3888 Y21.2545
G01 X11.3384 Y21.3387
G01 X11.3328 Y21.3486
G01 X11.3276 Y21.3587
G01 X11.2833 Y21.4526
G01 X11.2770 Y21.4684
G01 X11.2439 Y21.5608
G01 X11.2404 Y21.5716
G01 X11.2373 Y21.5826
G01 X11.2135 Y21.6778
G01 X11.2110 Y21.6889
G01 X11.2090 Y21.7001
G01 X11.1946 Y21.7972
G01 X11.1933 Y21.8084
G01 X11.1924 Y21.8198
G01 X11.1876 Y21.9178
G01 X11.1873 Y21.9292
G01 X11.1873 Y22.5435
G01 X11.1427 Y22.5435
G01 X11.1427 Y21.8264
G01 X11.1431 Y21.8171
G01 X11.1788 Y21.6107
G01 X11.2457 Y21.4165
G01 X11.3427 Y21.2355
G01 X11.4675 Y21.0724
G00 Z2.0000
G00 X11.0346 Y21.5719
G01 F30.00
G01 Z-0.0900
G01 F60.00
G01 X11.1082 Y21.3584
G01 X11.1095 Y21.3552
G01 X11.2163 Y21.1561
G01 X11.2182 Y21.1532
G01 X11.3554 Y20.9738
G01 X11.3577 Y20.9712
G01 X11.5218 Y20.8160
G01 X11.5245 Y20.8138
G01 X11.7113 Y20.6869
G01 X11.7143 Y20.6852
G01 X11.9190 Y20.5897
G01 X11.9223 Y20.5885
G01 X12.0823 Y20.5432
G01 X12.0823 Y20.9010
G01 X12.0047 Y20.9288
G01 X11.9122 Y20.9724
G01 X11.9051 Y20.9763
G01 X11.8209 Y21.0267
G01 X11.8142 Y21.0312
G01 X11.7321 Y21.0922
G01 X11.6534 Y21.1636
G01 X11.5820 Y21.2423
G01 X11.5211 Y21.3243
G01 X11.5166 Y21.3311
G01 X11.4661 Y21.4152
G01 X11.4623 Y21.4224
G01 X11.4187 Y21.5148
G01 X11.3842 Y21.6110
G01 X11.3818 Y21.6188
G01 X11.3580 Y21.7140
G01 X11.3564 Y21.7219
G01 X11.3415 Y21.8230
G01 X11.3364 Y21.9251
G01 X11.3363 Y22.6924
G01 X10.9938 Y22.6924
G01 X10.9938 Y21.8225
G01 X10.9950 Y21.7997
G01 X11.0338 Y21.5753
G01 X11.0346 Y21.5719
G00 Z2.0000
G00 X11.1928 Y24.2442
G01 F30.00
G01 Z-0.0900
G01 F60.00
G01 X11.1946 Y24.2612
G01 X11.2090 Y24.3583
G01 X11.2110 Y24.3695
G01 X11.2135 Y24.3806
G01 X11.2373 Y24.4758
G01 X11.2404 Y24.4867
G01 X11.2439 Y24.4975
G01 X11.2770 Y24.5899
G01 X11.2811 Y24.6005
G01 X11.2857 Y24.6109
G01 X11.3276 Y24.6996
G01 X11.3328 Y24.7098
G01 X11.3384 Y24.7197
G01 X11.3888 Y24.8039
G01 X11.3981 Y24.8182
G01 X11.4599 Y24.9016
G01 X11.4669 Y24.9106
G01 X11.4743 Y24.9192
G01 X11.5402 Y24.9919
G01 X11.5481 Y25.0001
G01 X11.5563 Y25.0080
G01 X11.6290 Y25.0739
G01 X11.6376 Y25.0813
G01 X11.6466 Y25.0883
G01 X11.7254 Y25.1467
G01 X11.7347 Y25.1533
G01 X11.7443 Y25.1594
G01 X11.8285 Y25.2098
G01 X11.8384 Y25.2154
G01 X11.9333 Y25.2606
G01 X11.9333 Y25.3099
G01 X11.8658 Y25.2839
G01 X11.6882 Y25.1806
G01 X11.5295 Y25.0503
G01 X11.3937 Y24.8962
G01 X11.2843 Y24.7224
G01 X11.2040 Y24.5334
G01 X11.1550 Y24.3339
G01 X11.1427 Y24.1808
G01 X11.1427 Y23.5149
G01 X11.1873 Y23.5149
G01 X11.1873 Y24.1292
G01 X11.1876 Y24.1405
G01 X11.1928 Y24.2442
G00 Z2.0000
G00 X11.3413 Y24.2333
G01 F30.00
G01 Z-0.0900
G01 F60.00
G01 X11.3564 Y24.3364
G01 X11.3580 Y24.3444
G01 X11.3829 Y24.4435
G01 X11.4187 Y24.5435
G01 X11.4641 Y24.6396
G01 X11.5166 Y24.7273
G01 X11.5211 Y24.7340
G01 X11.5820 Y24.8161
G01 X11.6506 Y24.8919
G01 X11.6563 Y24.8976
G01 X11.7321 Y24.9662
G01 X11.8175 Y25.0294
G01 X11.9051 Y25.0821
G01 X11.9122 Y25.0859
G01 X12.0047 Y25.1295
G01 X12.0823 Y25.1574
G01 X12.0823 Y25.5149
G01 X12.0170 Y25.5012
G01 X12.0137 Y25.5003
G01 X11.8028 Y25.4193
G01 X11.7997 Y25.4178
G01 X11.6045 Y25.3042
G01 X11.6016 Y25.3022
G01 X11.4271 Y25.1588
G01 X11.4246 Y25.1565
G01 X11.2752 Y24.9870
G01 X11.2731 Y24.9843
G01 X11.1528 Y24.7931
G01 X11.1512 Y24.7900
G01 X11.0629 Y24.5821
G01 X11.0618 Y24.5788
G01 X11.0079 Y24.3595
G01 X11.0074 Y24.3561
G01 X10.9938 Y24.1860
G01 X10.9938 Y23.3659
G01 X11.3363 Y23.3659
G01 X11.3363 Y24.1292
G01 X11.3413 Y24.2333
G00 Z2.0000
G00 X12.9258 Y25.0859
G01 F30.00
G01 Z-0.0900
G01 F60.00
G01 X12.9330 Y25.0821
G01 X13.0206 Y25.0294
G01 X13.1059 Y24.9662
G01 X13.1846 Y24.8948
G01 X13.2560 Y24.8161
G01 X13.3193 Y24.7307
G01 X13.3739 Y24.6396
G01 X13.4194 Y24.5435
G01 X13.4545 Y24.4454
G01 X13.4801 Y24.3444
G01 X13.4817 Y24.3364
G01 X13.4966 Y24.2353
G01 X13.5017 Y24.1332
G01 X13.5018 Y23.3659
G01 X13.8443 Y23.3659
G01 X13.8443 Y24.2349
G01 X13.8433 Y24.2560
G01 X13.8043 Y24.4831
G01 X13.8034 Y24.4864
G01 X13.7299 Y24.7000
G01 X13.7285 Y24.7032
G01 X13.6218 Y24.9022
G01 X13.6199 Y24.9051
G01 X13.4827 Y25.0846
G01 X13.4804 Y25.0871
G01 X13.3163 Y25.2423
G01 X13.3136 Y25.2445
G01 X13.1267 Y25.3715
G01 X13.1237 Y25.3732
G01 X12.9190 Y25.4687
G01 X12.9158 Y25.4699
G01 X12.7558 Y25.5151
G01 X12.7558 Y25.1574
G01 X12.8334 Y25.1295
G01 X12.9258 Y25.0859
G00 Z2.0000
G00 X13.0095 Y25.2098
G01 F30.00
G01 Z-0.0900
G01 F60.00
G01 X13.0937 Y25.1594
G01 X13.1033 Y25.1533
G01 X13.1126 Y25.1467
G01 X13.1914 Y25.0883
G01 X13.2004 Y25.0813
G01 X13.2090 Y25.0739
G01 X13.2817 Y25.0080
G01 X13.2900 Y25.0001
G01 X13.2978 Y24.9919
G01 X13.3637 Y24.9192
G01 X13.3711 Y24.9106
G01 X13.3781 Y24.9016
G01 X13.4366 Y24.8228
G01 X13.4431 Y24.8135
G01 X13.4492 Y24.8039
G01 X13.4997 Y24.7197
G01 X13.5053 Y24.7098
G01 X13.5104 Y24.6996
G01 X13.5524 Y24.6109
G01 X13.5570 Y24.6005
G01 X13.5611 Y24.5899
G01 X13.5941 Y24.4975
G01 X13.5977 Y24.4867
G01 X13.6007 Y24.4758
G01 X13.6246 Y24.3806
G01 X13.6271 Y24.3695
G01 X13.6290 Y24.3583
G01 X13.6434 Y24.2612
G01 X13.6448 Y24.2499
G01 X13.6456 Y24.2386
G01 X13.6504 Y24.1405
G01 X13.6507 Y24.1292
G01 X13.6507 Y23.5149
G01 X13.6953 Y23.5149
G01 X13.6953 Y24.2320
G01 X13.6949 Y24.2412
G01 X13.6593 Y24.4476
G01 X13.5924 Y24.6418
G01 X13.4953 Y24.8228
G01 X13.3706 Y24.9860
G01 X13.2214 Y25.1271
G01 X13.0515 Y25.2425
G01 X12.9047 Y25.3110
G01 X12.9047 Y25.2606
G01 X12.9895 Y25.2206
G01 X12.9996 Y25.2154
G01 X13.0095 Y25.2098
G00 Z2.0000
G00 X8.7134 Y26.2365
G01 F30.00
G01 Z-0.0900
G01 F60.00
G01 X8.7111 Y26.1892
G01 X8.7111 Y7.7742
G01 X8.7134 Y7.7268
G01 X8.7197 Y7.6840
G01 X8.7212 Y7.6760
G01 X8.7308 Y7.6379
G01 X8.7331 Y7.6301
G01 X8.7478 Y7.5894
G01 X8.7681 Y7.5465
G01 X8.7925 Y7.5059
G01 X8.8207 Y7.4678
G01 X8.8525 Y7.4327
G01 X11.3940 Y4.8913
G01 X11.4276 Y4.8608
G01 X11.4624 Y4.8350
G01 X11.4691 Y4.8304
G01 X11.5064 Y4.8083
G01 X11.5492 Y4.7880
G01 X11.5900 Y4.7733
G01 X11.5977 Y4.7709
G01 X11.6358 Y4.7614
G01 X11.6438 Y4.7598
G01 X11.6867 Y4.7536
G01 X11.7340 Y4.7512
G01 X26.1390 Y4.7512
G01 X27.2181 Y3.6722
G01 X27.2073 Y3.6415
G01 X27.1825 Y3.5424
G01 X27.1663 Y3.4333
G01 X27.1614 Y3.3332
G01 X27.1614 Y3.3251
G01 X27.1665 Y3.2230
G01 X27.1817 Y3.1199
G01 X27.2079 Y3.0149
G01 X27.2422 Y2.9186
G01 X27.2453 Y2.9111
G01 X27.2891 Y2.8188
G01 X27.3416 Y2.7311
G01 X27.3461 Y2.7243
G01 X27.4070 Y2.6423
G01 X27.4784 Y2.5636
G01 X27.5571 Y2.4922
G01 X27.6425 Y2.4289
G01 X27.7336 Y2.3743
G01 X27.8297 Y2.3288
G01 X27.9297 Y2.2930
G01 X28.0328 Y2.2672
G01 X28.1399 Y2.2515
G01 X28.2440 Y2.2464
G01 X28.3461 Y2.2513
G01 X28.3542 Y2.2521
G01 X28.4553 Y2.2672
G01 X28.5544 Y2.2920
G01 X28.5622 Y2.2943
G01 X28.6584 Y2.3288
G01 X28.7508 Y2.3724
G01 X28.7580 Y2.3763
G01 X28.8456 Y2.4289
G01 X28.9277 Y2.4897
G01 X28.9340 Y2.4949
G01 X29.0096 Y2.5636
G01 X29.0783 Y2.6392
G01 X29.0835 Y2.6455
G01 X29.1443 Y2.7276
G01 X29.1969 Y2.8152
G01 X29.2008 Y2.8224
G01 X29.2444 Y2.9148
G01 X29.2789 Y3.0110
G01 X29.2812 Y3.0188
G01 X29.3060 Y3.1179
G01 X29.3211 Y3.2190
G01 X29.3219 Y3.2271
G01 X29.3268 Y3.3292
G01 X29.3219 Y3.4313
G01 X29.3211 Y3.4393
G01 X29.3060 Y3.5404
G01 X29.2812 Y3.6396
G01 X29.2789 Y3.6473
G01 X29.2444 Y3.7435
G01 X29.2008 Y3.8360
G01 X29.1969 Y3.8431
G01 X29.1443 Y3.9307
G01 X29.0835 Y4.0129
G01 X29.0783 Y4.0191
G01 X29.0124 Y4.0919
G01 X29.0067 Y4.0976
G01 X28.9309 Y4.1662
G01 X28.8456 Y4.2294
G01 X28.7544 Y4.2841
G01 X28.6565 Y4.3303
G01 X28.5583 Y4.3653
G01 X28.4553 Y4.3911
G01 X28.3502 Y4.4067
G01 X28.2461 Y4.4119
G01 X28.1379 Y4.4067
G01 X28.0348 Y4.3915
G01 X27.9317 Y4.3659
G01 X27.9010 Y4.3551
G01 X26.6791 Y5.5771
G01 X26.6485 Y5.6048
G01 X26.6422 Y5.6100
G01 X26.6073 Y5.6357
G01 X26.5702 Y5.6581
G01 X26.5631 Y5.6619
G01 X26.5238 Y5.6804
G01 X26.4792 Y5.6963
G01 X26.4332 Y5.7078
G01 X26.3904 Y5.7143
G01 X26.3823 Y5.7151
G01 X26.3390 Y5.7171
G01 X11.9341 Y5.7171
G01 X9.6770 Y7.9742
G01 X9.6770 Y25.9891
G01 X12.5691 Y28.8812
G01 X26.1390 Y28.8812
G01 X32.9825 Y22.0377
G01 X33.0176 Y22.0058
G01 X33.0524 Y21.9800
G01 X33.0591 Y21.9754
G01 X33.0928 Y21.9553
G01 X33.1000 Y21.9514
G01 X33.1392 Y21.9330
G01 X33.1838 Y21.9170
G01 X33.2298 Y21.9055
G01 X33.2747 Y21.8988
G01 X33.3240 Y21.8962
G01 X65.2732 Y21.8962
G01 X65.2663 Y21.8483
G01 X65.2613 Y21.7462
G01 X65.2663 Y21.6401
G01 X65.2821 Y21.5329
G01 X65.3073 Y21.4318
G01 X65.3437 Y21.3298
G01 X65.3891 Y21.2338
G01 X65.4438 Y21.1426
G01 X65.5084 Y21.0557
G01 X65.5784 Y20.9786
G01 X65.6541 Y20.9099
G01 X65.6603 Y20.9047
G01 X65.7392 Y20.8462
G01 X65.7459 Y20.8417
G01 X65.8336 Y20.7893
G01 X65.9260 Y20.7455
G01 X65.9335 Y20.7424
G01 X66.0297 Y20.7080
G01 X66.1328 Y20.6822
G01 X66.2379 Y20.6666
G01 X66.3440 Y20.6614
G01 X66.4502 Y20.6666
G01 X66.5553 Y20.6822
G01 X66.6583 Y20.7080
G01 X66.7584 Y20.7438
G01 X66.8544 Y20.7893
G01 X66.9456 Y20.8439
G01 X67.0309 Y20.9072
G01 X67.1067 Y20.9758
G01 X67.1124 Y20.9815
G01 X67.1810 Y21.0573
G01 X67.2420 Y21.1393
G01 X67.2465 Y21.1461
G01 X67.2969 Y21.2302
G01 X67.3008 Y21.2374
G01 X67.3444 Y21.3298
G01 X67.3802 Y21.4299
G01 X67.4060 Y21.5329
G01 X67.4217 Y21.6401
G01 X67.4268 Y21.7442
G01 X67.4219 Y21.8463
G01 X67.4211 Y21.8543
G01 X67.4060 Y21.9554
G01 X67.3812 Y22.0546
G01 X67.3789 Y22.0623
G01 X67.3444 Y22.1585
G01 X67.3008 Y22.2510
G01 X67.2969 Y22.2581
G01 X67.2443 Y22.3457
G01 X67.1835 Y22.4279
G01 X67.1783 Y22.4341
G01 X67.1096 Y22.5098
G01 X67.0340 Y22.5785
G01 X67.0277 Y22.5837
G01 X66.9472 Y22.6433
G01 X66.8544 Y22.6991
G01 X66.7584 Y22.7445
G01 X66.6583 Y22.7803
G01 X66.5533 Y22.8065
G01 X66.4502 Y22.8217
G01 X66.3481 Y22.8268
G01 X66.3400 Y22.8268
G01 X66.2399 Y22.8219
G01 X66.1308 Y22.8057
G01 X66.0317 Y22.7809
G01 X65.9948 Y22.7679
G01 X65.9756 Y22.7818
G01 X65.9349 Y22.8060
G01 X65.8938 Y22.8254
G01 X65.8512 Y22.8407
G01 X65.8072 Y22.8520
G01 X65.7992 Y22.8535
G01 X65.7564 Y22.8598
G01 X65.7111 Y22.8621
G01 X33.5241 Y22.8621
G01 X26.6805 Y29.7057
G01 X26.6454 Y29.7375
G01 X26.6073 Y29.7657
G01 X26.5667 Y29.7901
G01 X26.5276 Y29.8087
G01 X26.5201 Y29.8118
G01 X26.4831 Y29.8251
G01 X26.4753 Y29.8274
G01 X26.4332 Y29.8378
G01 X26.3843 Y29.8450
G01 X26.3390 Y29.8471
G01 X12.3690 Y29.8471
G01 X12.3217 Y29.8448
G01 X12.2748 Y29.8378
G01 X12.2327 Y29.8274
G01 X12.2250 Y29.8251
G01 X12.1842 Y29.8104
G01 X12.1414 Y29.7901
G01 X12.1041 Y29.7679
G01 X12.0974 Y29.7634
G01 X12.0626 Y29.7375
G01 X12.0290 Y29.7071
G01 X8.8525 Y26.5307
G01 X8.8207 Y26.4956
G01 X8.7948 Y26.4608
G01 X8.7903 Y26.4541
G01 X8.7701 Y26.4204
G01 X8.7663 Y26.4132
G01 X8.7478 Y26.3740
G01 X8.7319 Y26.3294
G01 X8.7204 Y26.2834
G01 X8.7134 Y26.2365
G00 Z2.0000
G00 X8.5652 Y26.2511
G01 F30.00
G01 Z-0.0900
G01 F60.00
G01 X8.5624 Y26.2005
G01 X8.5621 Y26.1892
G01 X8.5621 Y7.7742
G01 X8.5624 Y7.7628
G01 X8.5652 Y7.7122
G01 X8.5723 Y7.6621
G01 X8.5743 Y7.6509
G01 X8.5768 Y7.6398
G01 X8.5878 Y7.5962
G01 X8.5929 Y7.5799
G01 X8.6102 Y7.5324
G01 X8.6148 Y7.5220
G01 X8.6367 Y7.4763
G01 X8.6625 Y7.4327
G01 X8.6686 Y7.4231
G01 X8.6752 Y7.4138
G01 X8.7056 Y7.3733
G01 X8.7394 Y7.3356
G01 X8.7472 Y7.3274
G01 X11.2913 Y4.7834
G01 X11.3288 Y4.7494
G01 X11.3421 Y4.7387
G01 X11.3830 Y4.7088
G01 X11.4263 Y4.6825
G01 X11.4361 Y4.6769
G01 X11.4463 Y4.6718
G01 X11.4922 Y4.6504
G01 X11.5398 Y4.6331
G01 X11.5561 Y4.6279
G01 X11.6107 Y4.6144
G01 X11.6608 Y4.6067
G01 X11.6721 Y4.6053
G01 X11.6834 Y4.6045
G01 X11.7340 Y4.6023
G01 X26.0773 Y4.6023
G01 X27.0506 Y3.6290
G01 X27.0385 Y3.5806
G01 X27.0350 Y3.5639
G01 X27.0189 Y3.4556
G01 X27.0174 Y3.4386
G01 X27.0124 Y3.3349
G01 X27.0126 Y3.3178
G01 X27.0174 Y3.2198
G01 X27.0183 Y3.2084
G01 X27.0196 Y3.1972
G01 X27.0340 Y3.1001
G01 X27.0372 Y3.0833
G01 X27.0623 Y2.9826
G01 X27.0654 Y2.9716
G01 X27.0689 Y2.9608
G01 X27.1020 Y2.8684
G01 X27.1061 Y2.8578
G01 X27.1107 Y2.8474
G01 X27.1526 Y2.7587
G01 X27.1578 Y2.7486
G01 X27.1634 Y2.7387
G01 X27.2138 Y2.6545
G01 X27.2199 Y2.6449
G01 X27.2265 Y2.6356
G01 X27.2849 Y2.5568
G01 X27.2919 Y2.5478
G01 X27.2993 Y2.5392
G01 X27.3652 Y2.4665
G01 X27.3731 Y2.4582
G01 X27.3813 Y2.4504
G01 X27.4540 Y2.3845
G01 X27.4626 Y2.3771
G01 X27.4716 Y2.3701
G01 X27.5504 Y2.3116
G01 X27.5597 Y2.3051
G01 X27.5693 Y2.2990
G01 X27.6535 Y2.2485
G01 X27.6634 Y2.2429
G01 X27.6736 Y2.2378
G01 X27.7623 Y2.1958
G01 X27.7727 Y2.1912
G01 X27.7833 Y2.1871
G01 X27.8757 Y2.1541
G01 X27.8865 Y2.1505
G01 X27.8974 Y2.1475
G01 X27.9926 Y2.1236
G01 X28.0037 Y2.1211
G01 X28.0149 Y2.1192
G01 X28.1120 Y2.1048
G01 X28.1290 Y2.1029
G01 X28.2327 Y2.0978
G01 X28.2440 Y2.0975
G01 X28.2554 Y2.0978
G01 X28.3534 Y2.1026
G01 X28.3648 Y2.1034
G01 X28.3760 Y2.1048
G01 X28.4731 Y2.1192
G01 X28.4843 Y2.1211
G01 X28.4954 Y2.1236
G01 X28.5906 Y2.1475
G01 X28.6016 Y2.1505
G01 X28.6124 Y2.1541
G01 X28.7048 Y2.1871
G01 X28.7154 Y2.1912
G01 X28.7258 Y2.1958
G01 X28.8145 Y2.2378
G01 X28.8246 Y2.2429
G01 X28.8345 Y2.2485
G01 X28.9187 Y2.2990
G01 X28.9283 Y2.3051
G01 X28.9376 Y2.3116
G01 X29.0164 Y2.3701
G01 X29.0254 Y2.3771
G01 X29.0340 Y2.3845
G01 X29.1067 Y2.4504
G01 X29.1150 Y2.4582
G01 X29.1228 Y2.4665
G01 X29.1887 Y2.5392
G01 X29.1961 Y2.5478
G01 X29.2031 Y2.5568
G01 X29.2616 Y2.6356
G01 X29.2681 Y2.6449
G01 X29.2742 Y2.6545
G01 X29.3247 Y2.7387
G01 X29.3303 Y2.7486
G01 X29.3354 Y2.7587
G01 X29.3774 Y2.8474
G01 X29.3820 Y2.8578
G01 X29.3861 Y2.8684
G01 X29.4191 Y2.9608
G01 X29.4227 Y2.9716
G01 X29.4257 Y2.9826
G01 X29.4496 Y3.0778
G01 X29.4521 Y3.0889
G01 X29.4540 Y3.1001
G01 X29.4684 Y3.1972
G01 X29.4698 Y3.2084
G01 X29.4706 Y3.2198
G01 X29.4754 Y3.3178
G01 X29.4757 Y3.3292
G01 X29.4754 Y3.3405
G01 X29.4706 Y3.4386
G01 X29.4698 Y3.4499
G01 X29.4684 Y3.4612
G01 X29.4540 Y3.5583
G01 X29.4521 Y3.5695
G01 X29.4496 Y3.5806
G01 X29.4257 Y3.6758
G01 X29.4227 Y3.6867
G01 X29.4191 Y3.6975
G01 X29.3861 Y3.7899
G01 X29.3797 Y3.8058
G01 X29.3354 Y3.8996
G01 X29.3303 Y3.9098
G01 X29.3247 Y3.9197
G01 X29.2742 Y4.0039
G01 X29.2681 Y4.0135
G01 X29.2616 Y4.0228
G01 X29.2031 Y4.1016
G01 X29.1961 Y4.1106
G01 X29.1887 Y4.1192
G01 X29.1228 Y4.1919
G01 X29.1150 Y4.2001
G01 X29.1067 Y4.2080
G01 X29.0340 Y4.2739
G01 X29.0254 Y4.2813
G01 X29.0164 Y4.2883
G01 X28.9376 Y4.3467
G01 X28.9283 Y4.3533
G01 X28.9187 Y4.3594
G01 X28.8345 Y4.4098
G01 X28.8196 Y4.4181
G01 X28.7258 Y4.4625
G01 X28.7154 Y4.4671
G01 X28.7048 Y4.4712
G01 X28.6124 Y4.5043
G01 X28.6016 Y4.5078
G01 X28.5906 Y4.5109
G01 X28.4954 Y4.5347
G01 X28.4843 Y4.5372
G01 X28.4731 Y4.5392
G01 X28.3704 Y4.5543
G01 X28.3534 Y4.5558
G01 X28.2554 Y4.5606
G01 X28.2440 Y4.5609
G01 X28.2327 Y4.5606
G01 X28.1290 Y4.5554
G01 X28.1120 Y4.5536
G01 X28.0093 Y4.5382
G01 X27.9926 Y4.5347
G01 X27.9442 Y4.5226
G01 X26.7858 Y5.6810
G01 X26.7776 Y5.6888
G01 X26.7442 Y5.7190
G01 X26.7309 Y5.7296
G01 X26.6901 Y5.7596
G01 X26.6468 Y5.7859
G01 X26.6319 Y5.7941
G01 X26.5861 Y5.8157
G01 X26.5702 Y5.8221
G01 X26.5279 Y5.8371
G01 X26.5115 Y5.8419
G01 X26.4734 Y5.8514
G01 X26.4623 Y5.8539
G01 X26.4511 Y5.8559
G01 X26.4010 Y5.8630
G01 X26.3504 Y5.8658
G01 X26.3390 Y5.8661
G01 X11.9958 Y5.8661
G01 X9.8259 Y8.0359
G01 X9.8259 Y25.9274
G01 X12.6308 Y28.7323
G01 X26.0773 Y28.7323
G01 X32.8813 Y21.9284
G01 X32.9232 Y21.8907
G01 X32.9683 Y21.8570
G01 X32.9826 Y21.8477
G01 X33.0163 Y21.8275
G01 X33.0261 Y21.8219
G01 X33.0363 Y21.8168
G01 X33.0822 Y21.7954
G01 X33.1298 Y21.7781
G01 X33.1406 Y21.7745
G01 X33.1897 Y21.7619
G01 X33.2007 Y21.7594
G01 X33.2564 Y21.7509
G01 X33.2734 Y21.7495
G01 X33.3240 Y21.7473
G01 X65.1124 Y21.7473
G01 X65.1126 Y21.7328
G01 X65.1174 Y21.6348
G01 X65.1183 Y21.6234
G01 X65.1196 Y21.6122
G01 X65.1340 Y21.5151
G01 X65.1360 Y21.5039
G01 X65.1385 Y21.4928
G01 X65.1623 Y21.3976
G01 X65.1654 Y21.3866
G01 X65.1689 Y21.3758
G01 X65.2020 Y21.2834
G01 X65.2061 Y21.2728
G01 X65.2107 Y21.2624
G01 X65.2526 Y21.1737
G01 X65.2578 Y21.1636
G01 X65.2634 Y21.1537
G01 X65.3138 Y21.0695
G01 X65.3199 Y21.0599
G01 X65.3265 Y21.0506
G01 X65.3849 Y20.9718
G01 X65.3919 Y20.9628
G01 X65.3993 Y20.9542
G01 X65.4652 Y20.8815
G01 X65.4731 Y20.8732
G01 X65.4813 Y20.8654
G01 X65.5540 Y20.7995
G01 X65.5626 Y20.7921
G01 X65.5716 Y20.7851
G01 X65.6504 Y20.7266
G01 X65.6597 Y20.7201
G01 X65.6693 Y20.7140
G01 X65.7535 Y20.6635
G01 X65.7634 Y20.6579
G01 X65.7736 Y20.6528
G01 X65.8623 Y20.6108
G01 X65.8727 Y20.6062
G01 X65.8833 Y20.6021
G01 X65.9757 Y20.5691
G01 X65.9865 Y20.5655
G01 X65.9974 Y20.5625
G01 X66.0926 Y20.5386
G01 X66.1037 Y20.5361
G01 X66.1149 Y20.5342
G01 X66.2120 Y20.5198
G01 X66.2233 Y20.5184
G01 X66.2346 Y20.5176
G01 X66.3327 Y20.5128
G01 X66.3440 Y20.5125
G01 X66.3554 Y20.5128
G01 X66.4534 Y20.5176
G01 X66.4648 Y20.5184
G01 X66.4760 Y20.5198
G01 X66.5731 Y20.5342
G01 X66.5843 Y20.5361
G01 X66.5954 Y20.5386
G01 X66.6906 Y20.5625
G01 X66.7016 Y20.5655
G01 X66.7124 Y20.5691
G01 X66.8048 Y20.6021
G01 X66.8154 Y20.6062
G01 X66.8258 Y20.6108
G01 X66.9145 Y20.6528
G01 X66.9246 Y20.6579
G01 X66.9345 Y20.6635
G01 X67.0187 Y20.7140
G01 X67.0283 Y20.7201
G01 X67.0376 Y20.7266
G01 X67.1164 Y20.7851
G01 X67.1254 Y20.7921
G01 X67.1340 Y20.7995
G01 X67.2067 Y20.8654
G01 X67.2150 Y20.8732
G01 X67.2228 Y20.8815
G01 X67.2887 Y20.9542
G01 X67.2961 Y20.9628
G01 X67.3031 Y20.9718
G01 X67.3616 Y21.0506
G01 X67.3681 Y21.0599
G01 X67.3742 Y21.0695
G01 X67.4247 Y21.1537
G01 X67.4303 Y21.1636
G01 X67.4354 Y21.1737
G01 X67.4774 Y21.2624
G01 X67.4820 Y21.2728
G01 X67.4861 Y21.2834
G01 X67.5191 Y21.3758
G01 X67.5227 Y21.3866
G01 X67.5257 Y21.3976
G01 X67.5496 Y21.4928
G01 X67.5521 Y21.5039
G01 X67.5540 Y21.5151
G01 X67.5684 Y21.6122
G01 X67.5703 Y21.6291
G01 X67.5754 Y21.7328
G01 X67.5757 Y21.7442
G01 X67.5754 Y21.7555
G01 X67.5706 Y21.8536
G01 X67.5698 Y21.8649
G01 X67.5684 Y21.8762
G01 X67.5540 Y21.9733
G01 X67.5521 Y21.9845
G01 X67.5496 Y21.9956
G01 X67.5257 Y22.0908
G01 X67.5227 Y22.1017
G01 X67.5191 Y22.1125
G01 X67.4861 Y22.2049
G01 X67.4820 Y22.2155
G01 X67.4774 Y22.2259
G01 X67.4354 Y22.3146
G01 X67.4303 Y22.3248
G01 X67.4247 Y22.3347
G01 X67.3742 Y22.4189
G01 X67.3681 Y22.4285
G01 X67.3616 Y22.4378
G01 X67.3031 Y22.5166
G01 X67.2961 Y22.5256
G01 X67.2887 Y22.5342
G01 X67.2228 Y22.6069
G01 X67.2150 Y22.6151
G01 X67.2067 Y22.6230
G01 X67.1340 Y22.6889
G01 X67.1254 Y22.6963
G01 X67.1164 Y22.7033
G01 X67.0376 Y22.7617
G01 X67.0283 Y22.7683
G01 X67.0187 Y22.7744
G01 X66.9345 Y22.8248
G01 X66.9246 Y22.8304
G01 X66.9145 Y22.8356
G01 X66.8258 Y22.8775
G01 X66.8154 Y22.8821
G01 X66.8048 Y22.8862
G01 X66.7124 Y22.9193
G01 X66.7016 Y22.9228
G01 X66.6906 Y22.9259
G01 X66.5899 Y22.9510
G01 X66.5731 Y22.9542
G01 X66.4760 Y22.9686
G01 X66.4648 Y22.9699
G01 X66.4534 Y22.9708
G01 X66.3554 Y22.9756
G01 X66.3383 Y22.9758
G01 X66.2346 Y22.9708
G01 X66.2233 Y22.9699
G01 X66.2120 Y22.9686
G01 X66.1149 Y22.9542
G01 X66.1037 Y22.9522
G01 X66.0170 Y22.9308
G01 X66.0069 Y22.9365
G01 X65.9967 Y22.9416
G01 X65.9508 Y22.9630
G01 X65.9033 Y22.9803
G01 X65.8870 Y22.9854
G01 X65.8379 Y22.9978
G01 X65.8211 Y23.0009
G01 X65.7710 Y23.0080
G01 X65.7204 Y23.0108
G01 X65.7090 Y23.0111
G01 X33.5858 Y23.0111
G01 X26.7818 Y29.8150
G01 X26.7399 Y29.8526
G01 X26.6994 Y29.8830
G01 X26.6901 Y29.8896
G01 X26.6805 Y29.8957
G01 X26.6369 Y29.9215
G01 X26.5912 Y29.9434
G01 X26.5756 Y29.9501
G01 X26.5333 Y29.9653
G01 X26.5225 Y29.9689
G01 X26.5115 Y29.9719
G01 X26.4734 Y29.9814
G01 X26.4567 Y29.9850
G01 X26.4122 Y29.9916
G01 X26.3953 Y29.9935
G01 X26.3390 Y29.9961
G01 X12.3690 Y29.9961
G01 X12.3577 Y29.9958
G01 X12.3071 Y29.9930
G01 X12.2570 Y29.9859
G01 X12.2457 Y29.9839
G01 X12.1966 Y29.9719
G01 X12.1856 Y29.9689
G01 X12.1748 Y29.9653
G01 X12.1272 Y29.9480
G01 X12.1168 Y29.9434
G01 X12.0711 Y29.9215
G01 X12.0276 Y29.8957
G01 X12.0180 Y29.8896
G01 X12.0087 Y29.8830
G01 X11.9682 Y29.8526
G01 X11.9263 Y29.8150
G01 X8.7472 Y26.6360
G01 X8.7394 Y26.6278
G01 X8.7056 Y26.5900
G01 X8.6752 Y26.5495
G01 X8.6655 Y26.5355
G01 X8.6423 Y26.4969
G01 X8.6367 Y26.4871
G01 X8.6316 Y26.4769
G01 X8.6102 Y26.4310
G01 X8.5929 Y26.3834
G01 X8.5893 Y26.3726
G01 X8.5768 Y26.3235
G01 X8.5743 Y26.3125
G01 X8.5723 Y26.3012
G01 X8.5652 Y26.2511
G00 Z2.0000
G00 X8.5172 Y26.1078
G01 F30.00
G01 Z-0.0900
G01 F60.00
G01 X8.5172 Y7.8556
G01 X8.5169 Y7.8435
G01 X8.5144 Y7.8112
G01 X8.5167 Y7.7658
G01 X8.5172 Y7.7387
G01 X8.5196 Y7.7117
G01 X8.5220 Y7.6663
G01 X8.5279 Y7.6341
G01 X8.5456 Y7.5787
G01 X8.5591 Y7.5289
G01 X8.5716 Y7.4986
G01 X8.6005 Y7.4482
G01 X8.6239 Y7.4022
G01 X8.6425 Y7.3752
G01 X8.6729 Y7.3414
G01 X8.6904 Y7.3207
G01 X8.7092 Y7.3012
G01 X8.7396 Y7.2674
G01 X8.7642 Y7.2464
G01 X8.7730 Y7.2380
G01 X11.1979 Y4.8132
G01 X11.2062 Y4.8044
G01 X11.2272 Y4.7798
G01 X11.2610 Y4.7493
G01 X11.2805 Y4.7305
G01 X11.3013 Y4.7131
G01 X11.3351 Y4.6826
G01 X11.3621 Y4.6641
G01 X11.4080 Y4.6406
G01 X11.4585 Y4.6118
G01 X11.4888 Y4.5992
G01 X11.5448 Y4.5839
G01 X11.5939 Y4.5681
G01 X11.6261 Y4.5621
G01 X11.6715 Y4.5597
G01 X11.6986 Y4.5574
G01 X11.7257 Y4.5569
G01 X11.7711 Y4.5545
G01 X11.8033 Y4.5571
G01 X11.8154 Y4.5574
G01 X25.9105 Y4.5574
G01 X25.9291 Y4.5566
G01 X25.9733 Y4.5517
G01 X25.9901 Y4.5484
G01 X26.0011 Y4.5455
G01 X26.0119 Y4.5421
G01 X26.0279 Y4.5361
G01 X26.0433 Y4.5288
G01 X26.1202 Y4.4866
G01 X26.1295 Y4.4807
G01 X26.1385 Y4.4743
G01 X26.1471 Y4.4674
G01 X26.1555 Y4.4602
G01 X26.1635 Y4.4526
G01 X26.8703 Y3.7458
G01 X26.8781 Y3.7376
G01 X26.8890 Y3.7246
G01 X26.9143 Y3.6906
G01 X26.9238 Y3.6769
G01 X26.9296 Y3.6674
G01 X26.9373 Y3.6526
G01 X26.9440 Y3.6373
G01 X26.9495 Y3.6216
G01 X26.9526 Y3.6109
G01 X26.9551 Y3.6001
G01 X26.9697 Y3.5306
G01 X26.9725 Y3.5143
G01 X26.9738 Y3.5033
G01 X26.9745 Y3.4923
G01 X26.9747 Y3.4813
G01 X26.9743 Y3.4703
G01 X26.9633 Y3.3292
G01 X26.9790 Y3.1288
G01 X27.0260 Y2.9334
G01 X27.1029 Y2.7477
G01 X27.1605 Y2.6537
G01 X27.2079 Y2.5764
G01 X27.3384 Y2.4235
G01 X27.4912 Y2.2930
G01 X27.6626 Y2.1880
G01 X27.8483 Y2.1111
G01 X28.0437 Y2.0642
G01 X28.2440 Y2.0484
G01 X28.4444 Y2.0642
G01 X28.6398 Y2.1111
G01 X28.8255 Y2.1880
G01 X28.9968 Y2.2930
G01 X29.1497 Y2.4235
G01 X29.2802 Y2.5764
G01 X29.3852 Y2.7477
G01 X29.4621 Y2.9334
G01 X29.5090 Y3.1288
G01 X29.5248 Y3.3292
G01 X29.5090 Y3.5295
G01 X29.4621 Y3.7250
G01 X29.3852 Y3.9106
G01 X29.2802 Y4.0820
G01 X29.1497 Y4.2348
G01 X28.9968 Y4.3653
G01 X28.8255 Y4.4703
G01 X28.6398 Y4.5472
G01 X28.4444 Y4.5942
G01 X28.2440 Y4.6099
G01 X28.1084 Y4.5993
G01 X28.0971 Y4.5986
G01 X28.0858 Y4.5986
G01 X28.0745 Y4.5991
G01 X28.0323 Y4.6020
G01 X28.0158 Y4.6041
G01 X27.9994 Y4.6074
G01 X27.9834 Y4.6119
G01 X27.9677 Y4.6175
G01 X27.9574 Y4.6219
G01 X27.9425 Y4.6294
G01 X27.8707 Y4.6689
G01 X27.8569 Y4.6780
G01 X27.8480 Y4.6846
G01 X27.8395 Y4.6916
G01 X27.8274 Y4.7029
G01 X26.8752 Y5.6552
G01 X26.8668 Y5.6640
G01 X26.8458 Y5.6886
G01 X26.8120 Y5.7190
G01 X26.7925 Y5.7378
G01 X26.7718 Y5.7553
G01 X26.7380 Y5.7857
G01 X26.7110 Y5.8043
G01 X26.6650 Y5.8277
G01 X26.6146 Y5.8566
G01 X26.5843 Y5.8691
G01 X26.5345 Y5.8826
G01 X26.4791 Y5.9003
G01 X26.4469 Y5.9062
G01 X26.4015 Y5.9086
G01 X26.3745 Y5.9110
G01 X26.3474 Y5.9115
G01 X26.3020 Y5.9138
G01 X26.2697 Y5.9113
G01 X26.2576 Y5.9110
G01 X12.1625 Y5.9110
G01 X12.1439 Y5.9117
G01 X12.1053 Y5.9159
G01 X12.0941 Y5.9176
G01 X12.0830 Y5.9199
G01 X12.0665 Y5.9244
G01 X12.0557 Y5.9281
G01 X12.0452 Y5.9323
G01 X12.0297 Y5.9395
G01 X11.9528 Y5.9817
G01 X11.9436 Y5.9877
G01 X11.9302 Y5.9975
G01 X11.9217 Y6.0045
G01 X11.9135 Y6.0119
G01 X9.9756 Y7.9497
G01 X9.9671 Y7.9587
G01 X9.9590 Y7.9682
G01 X9.9386 Y7.9936
G01 X9.9287 Y8.0076
G01 X9.9199 Y8.0222
G01 X9.9122 Y8.0374
G01 X9.9056 Y8.0531
G01 X9.9002 Y8.0693
G01 X9.8802 Y8.1374
G01 X9.8761 Y8.1534
G01 X9.8740 Y8.1643
G01 X9.8725 Y8.1752
G01 X9.8711 Y8.1917
G01 X9.8708 Y8.2027
G01 X9.8708 Y25.7607
G01 X9.8716 Y25.7793
G01 X9.8757 Y25.8179
G01 X9.8786 Y25.8347
G01 X9.8812 Y25.8458
G01 X9.8843 Y25.8567
G01 X9.8900 Y25.8728
G01 X9.8944 Y25.8832
G01 X9.8994 Y25.8935
G01 X9.9416 Y25.9704
G01 X9.9475 Y25.9796
G01 X9.9539 Y25.9886
G01 X9.9608 Y25.9973
G01 X9.9717 Y26.0097
G01 X12.5446 Y28.5826
G01 X12.5583 Y28.5952
G01 X12.5930 Y28.6230
G01 X12.6024 Y28.6295
G01 X12.6121 Y28.6355
G01 X12.6220 Y28.6410
G01 X12.6322 Y28.6460
G01 X12.6480 Y28.6526
G01 X12.6641 Y28.6580
G01 X12.7376 Y28.6795
G01 X12.7537 Y28.6832
G01 X12.7646 Y28.6850
G01 X12.7810 Y28.6868
G01 X12.7975 Y28.6874
G01 X25.9105 Y28.6874
G01 X25.9291 Y28.6866
G01 X25.9733 Y28.6817
G01 X25.9901 Y28.6784
G01 X26.0011 Y28.6755
G01 X26.0119 Y28.6721
G01 X26.0279 Y28.6661
G01 X26.0433 Y28.6588
G01 X26.1155 Y28.6194
G01 X26.1249 Y28.6137
G01 X26.1385 Y28.6043
G01 X26.1513 Y28.5939
G01 X26.1635 Y28.5826
G01 X32.5845 Y22.1616
G01 X32.6002 Y22.1448
G01 X32.6076 Y22.1361
G01 X32.6145 Y22.1270
G01 X32.6240 Y22.1127
G01 X32.6298 Y22.1028
G01 X32.6351 Y22.0926
G01 X32.6693 Y22.0176
G01 X32.6755 Y22.0015
G01 X32.6790 Y21.9905
G01 X32.6831 Y21.9737
G01 X32.6852 Y21.9624
G01 X32.6867 Y21.9510
G01 X32.6878 Y21.9338
G01 X32.6877 Y21.9165
G01 X32.6869 Y21.9051
G01 X32.6856 Y21.8936
G01 X32.6746 Y21.8177
G01 X32.6724 Y21.8064
G01 X32.6696 Y21.7952
G01 X32.6663 Y21.7842
G01 X32.6625 Y21.7733
G01 X32.6557 Y21.7575
G01 X32.6477 Y21.7421
G01 X32.6387 Y21.7275
G01 X32.6321 Y21.7181
G01 X32.6250 Y21.7090
G01 X32.5748 Y21.6509
G01 X32.5670 Y21.6424
G01 X32.5588 Y21.6343
G01 X32.5459 Y21.6229
G01 X32.5368 Y21.6159
G01 X32.5225 Y21.6062
G01 X32.5126 Y21.6004
G01 X32.4972 Y21.5925
G01 X32.4813 Y21.5858
G01 X32.4704 Y21.5821
G01 X32.3861 Y21.5575
G01 X32.3754 Y21.5552
G01 X32.3645 Y21.5533
G01 X32.3481 Y21.5516
G01 X32.3370 Y21.5510
G01 X30.6898 Y21.5510
G01 X30.6537 Y21.5447
G01 X30.6378 Y21.5425
G01 X30.5963 Y21.5387
G01 X30.5609 Y21.5292
G01 X30.5453 Y21.5257
G01 X30.5043 Y21.5183
G01 X30.4698 Y21.5058
G01 X30.4546 Y21.5009
G01 X30.4143 Y21.4899
G01 X30.3811 Y21.4745
G01 X30.3663 Y21.4683
G01 X30.3272 Y21.4538
G01 X30.2955 Y21.4355
G01 X30.2813 Y21.4281
G01 X30.2436 Y21.4103
G01 X30.2093 Y21.3865
G01 X30.1957 Y21.3780
G01 X30.1640 Y21.3596
G01 X30.1360 Y21.3361
G01 X30.1233 Y21.3263
G01 X30.0892 Y21.3022
G01 X27.2678 Y18.4807
G01 X27.2541 Y18.4681
G01 X27.2193 Y18.4404
G01 X27.2100 Y18.4339
G01 X27.2003 Y18.4279
G01 X27.1904 Y18.4224
G01 X27.1802 Y18.4173
G01 X27.1697 Y18.4128
G01 X27.1537 Y18.4070
G01 X27.0748 Y18.3839
G01 X27.0641 Y18.3813
G01 X27.0478 Y18.3783
G01 X27.0314 Y18.3766
G01 X27.0204 Y18.3760
G01 X24.3398 Y18.3760
G01 X24.3037 Y18.3697
G01 X24.2878 Y18.3675
G01 X24.2463 Y18.3637
G01 X24.2109 Y18.3542
G01 X24.1953 Y18.3507
G01 X24.1543 Y18.3433
G01 X24.1198 Y18.3308
G01 X24.1046 Y18.3259
G01 X24.0643 Y18.3149
G01 X24.0311 Y18.2995
G01 X24.0163 Y18.2933
G01 X23.9772 Y18.2788
G01 X23.9455 Y18.2605
G01 X23.9313 Y18.2531
G01 X23.8936 Y18.2353
G01 X23.8593 Y18.2115
G01 X23.8457 Y18.2030
G01 X23.8140 Y18.1846
G01 X23.7860 Y18.1611
G01 X23.7733 Y18.1513
G01 X23.7392 Y18.1272
G01 X22.3360 Y16.7240
G01 X22.3119 Y16.6899
G01 X22.3021 Y16.6773
G01 X22.2786 Y16.6492
G01 X22.2602 Y16.6175
G01 X22.2517 Y16.6039
G01 X22.2279 Y16.5696
G01 X22.2101 Y16.5319
G01 X22.2026 Y16.5177
G01 X22.1844 Y16.4860
G01 X22.1699 Y16.4469
G01 X22.1637 Y16.4321
G01 X22.1483 Y16.3989
G01 X22.1373 Y16.3586
G01 X22.1324 Y16.3434
G01 X22.1199 Y16.3089
G01 X22.1125 Y16.2679
G01 X22.1090 Y16.2523
G01 X22.0995 Y16.2169
G01 X22.0957 Y16.1754
G01 X22.0935 Y16.1595
G01 X22.0872 Y16.1234
G01 X22.0872 Y15.1737
G01 X22.0869 Y15.1622
G01 X22.0861 Y15.1508
G01 X22.0847 Y15.1394
G01 X22.0827 Y15.1281
G01 X22.0801 Y15.1169
G01 X22.0770 Y15.1058
G01 X22.0554 Y15.0352
G01 X22.0499 Y15.0192
G01 X22.0455 Y15.0088
G01 X22.0381 Y14.9937
G01 X22.0325 Y14.9839
G01 X22.0233 Y14.9697
G01 X22.0131 Y14.9563
G01 X22.0058 Y14.9477
G01 X21.9980 Y14.9396
G01 X21.9857 Y14.9281
G01 X21.9222 Y14.8756
G01 X21.9129 Y14.8687
G01 X21.9034 Y14.8623
G01 X21.8885 Y14.8536
G01 X21.8730 Y14.8460
G01 X21.8623 Y14.8416
G01 X21.8515 Y14.8378
G01 X21.8349 Y14.8330
G01 X21.8180 Y14.8295
G01 X21.8066 Y14.8278
G01 X21.7304 Y14.8188
G01 X21.7189 Y14.8180
G01 X21.7074 Y14.8178
G01 X21.6902 Y14.8185
G01 X21.6730 Y14.8205
G01 X21.6561 Y14.8238
G01 X21.6395 Y14.8283
G01 X21.6232 Y14.8341
G01 X21.6074 Y14.8410
G01 X21.5435 Y14.8721
G01 X21.5333 Y14.8774
G01 X21.5234 Y14.8831
G01 X21.5090 Y14.8927
G01 X21.4954 Y14.9033
G01 X21.4826 Y14.9150
G01 X21.4746 Y14.9232
G01 X21.4670 Y14.9319
G01 X21.4565 Y14.9455
G01 X21.4500 Y14.9550
G01 X21.4072 Y15.0253
G01 X21.4019 Y15.0349
G01 X21.3971 Y15.0449
G01 X21.3907 Y15.0601
G01 X21.3855 Y15.0758
G01 X21.3804 Y15.0945
G01 X21.3082 Y15.2494
G01 X21.2102 Y15.3894
G01 X21.0893 Y15.5103
G01 X20.9493 Y15.6083
G01 X20.7944 Y15.6806
G01 X20.6293 Y15.7248
G01 X20.4590 Y15.7397
G01 X20.2888 Y15.7248
G01 X20.1237 Y15.6806
G01 X19.9688 Y15.6083
G01 X19.8288 Y15.5103
G01 X19.7079 Y15.3894
G01 X19.6099 Y15.2494
G01 X19.5376 Y15.0945
G01 X19.4934 Y14.9294
G01 X19.4785 Y14.7592
G01 X19.4934 Y14.5889
G01 X19.5376 Y14.4238
G01 X19.6099 Y14.2689
G01 X19.7079 Y14.1289
G01 X19.8288 Y14.0080
G01 X19.9688 Y13.9100
G01 X20.1237 Y13.8378
G01 X20.2888 Y13.7935
G01 X20.4590 Y13.7786
G01 X20.6293 Y13.7935
G01 X20.7944 Y13.8378
G01 X20.9493 Y13.9100
G01 X21.0893 Y14.0080
G01 X21.2102 Y14.1289
G01 X21.3082 Y14.2689
G01 X21.3804 Y14.4238
G01 X21.3856 Y14.4427
G01 X21.3891 Y14.4537
G01 X21.3954 Y14.4697
G01 X21.4002 Y14.4801
G01 X21.4056 Y14.4903
G01 X21.4114 Y14.5002
G01 X21.4537 Y14.5675
G01 X21.4601 Y14.5768
G01 X21.4706 Y14.5900
G01 X21.4820 Y14.6025
G01 X21.4942 Y14.6141
G01 X21.5073 Y14.6247
G01 X21.5212 Y14.6344
G01 X21.5357 Y14.6430
G01 X21.5508 Y14.6506
G01 X21.6153 Y14.6801
G01 X21.6313 Y14.6867
G01 X21.6422 Y14.6904
G01 X21.6588 Y14.6950
G01 X21.6701 Y14.6973
G01 X21.6815 Y14.6991
G01 X21.6987 Y14.7007
G01 X21.7102 Y14.7010
G01 X21.7217 Y14.7008
G01 X21.7331 Y14.7000
