(G-CODE GENERATED BY FLATCAM v8.994 - www.flatcam.org - Version Date: 2020/11/7)

(Name: pet_puller_shield-B_Cu.gbr_iso_combined_cnc)
(Type: G-code from Geometry)
(Units: MM)

(Created on Friday, 14 February 2025 at 21:38)

(This preprocessor is the default preprocessor used by FlatCAM.)
(It is made to work with MACH3 compatible motion controllers.)

(TOOL DIAMETER: 0.1482 mm)
(Feedrate_XY: 60.0 mm/min)
(Feedrate_Z: 30.0 mm/min)
(Feedrate rapids 1500.0 mm/min)

(Z_Cut: -0.0899 mm)
(Z_Move: 2.0 mm)
(Z Start: None mm)
(Z End: 15.0 mm)
(X,Y End: None mm)
(Steps per circle: 64)
(Preprocessor Geometry: default)

(X range:   -0.0491 ...   75.5871  mm)
(Y range:   -0.0491 ...   53.9971  mm)

(Spindle Speed: 20000.0 RPM)
G21
G90
G94

G01 F60.00

M5
G00 Z15.0000
G00 X0.0000 Y0.0000
T1
M6    
(MSG, Change to Tool Dia = 0.1482)
M0
G00 Z15.0000

M03 S20000.0
G01 F60.00
G00 X19.7537 Y1.4757
G01 F30.00
G01 Z-0.0899
G01 F60.00
G01 X19.8908 Y1.3386
G01 X19.8942 Y1.3357
G01 X20.0531 Y1.2245
G01 X20.0569 Y1.2223
G01 X20.2327 Y1.1403
G01 X20.2369 Y1.1388
G01 X20.2959 Y1.1230
G01 X20.2959 Y1.5088
G01 X20.2575 Y1.5272
G01 X20.1925 Y1.5664
G01 X20.1329 Y1.6106
G01 X20.0767 Y1.6616
G01 X20.0256 Y1.7179
G01 X19.9814 Y1.7774
G01 X19.9422 Y1.8425
G01 X19.9238 Y1.8809
G01 X19.5380 Y1.8809
G01 X19.5539 Y1.8219
G01 X19.5554 Y1.8176
G01 X19.6373 Y1.6419
G01 X19.6396 Y1.6380
G01 X19.7508 Y1.4792
G01 X19.7537 Y1.4757
G00 Z2.0000
G00 X20.1625 Y1.4286
G01 F30.00
G01 Z-0.0899
G01 F60.00
G01 X20.1285 Y1.4490
G01 X20.1157 Y1.4573
G01 X20.0523 Y1.5043
G01 X20.0406 Y1.5141
G01 X19.9823 Y1.5673
G01 X19.9292 Y1.6256
G01 X19.9194 Y1.6373
G01 X19.8724 Y1.7006
G01 X19.8640 Y1.7134
G01 X19.8436 Y1.7475
G01 X19.7353 Y1.7475
G01 X19.7542 Y1.7068
G01 X19.8547 Y1.5634
G01 X19.9784 Y1.4396
G01 X20.1219 Y1.3392
G01 X20.1625 Y1.3202
G01 X20.1625 Y1.4286
G00 Z2.0000
G00 X19.9431 Y2.5770
G01 F30.00
G01 Z-0.0899
G01 F60.00
G01 X19.9804 Y2.6390
G01 X20.0234 Y2.6972
G01 X20.0280 Y2.7028
G01 X20.0780 Y2.7576
G01 X20.1329 Y2.8074
G01 X20.1925 Y2.8516
G01 X20.2575 Y2.8908
G01 X20.2959 Y2.9092
G01 X20.2959 Y3.2950
G01 X20.2369 Y3.2791
G01 X20.2327 Y3.2776
G01 X20.0569 Y3.1957
G01 X20.0531 Y3.1934
G01 X19.8942 Y3.0822
G01 X19.8908 Y3.0793
G01 X19.7537 Y2.9422
G01 X19.7508 Y2.9388
G01 X19.6396 Y2.7799
G01 X19.6373 Y2.7761
G01 X19.5554 Y2.6003
G01 X19.5539 Y2.5961
G01 X19.5380 Y2.5371
G01 X19.9238 Y2.5371
G01 X19.9397 Y2.5706
G01 X19.9431 Y2.5770
G00 Z2.0000
G00 X19.8753 Y2.7215
G01 F30.00
G01 Z-0.0899
G01 F60.00
G01 X19.9225 Y2.7847
G01 X19.9753 Y2.8433
G01 X19.9860 Y2.8542
G01 X20.0406 Y2.9038
G01 X20.0523 Y2.9136
G01 X20.1157 Y2.9606
G01 X20.1285 Y2.9690
G01 X20.1625 Y2.9894
G01 X20.1625 Y3.0977
G01 X20.1219 Y3.0788
G01 X19.9784 Y2.9783
G01 X19.8547 Y2.8546
G01 X19.7542 Y2.7111
G01 X19.7353 Y2.6705
G01 X19.8436 Y2.6705
G01 X19.8667 Y2.7089
G01 X19.8753 Y2.7215
G00 Z2.0000
G00 X20.9921 Y2.8899
G01 F30.00
G01 Z-0.0899
G01 F60.00
G01 X21.0541 Y2.8526
G01 X21.1122 Y2.8096
G01 X21.1179 Y2.8050
G01 X21.1727 Y2.7550
G01 X21.2224 Y2.7001
G01 X21.2666 Y2.6405
G01 X21.3058 Y2.5755
G01 X21.3242 Y2.5371
G01 X21.7100 Y2.5371
G01 X21.6942 Y2.5961
G01 X21.6927 Y2.6003
G01 X21.6107 Y2.7761
G01 X21.6085 Y2.7799
G01 X21.4973 Y2.9388
G01 X21.4944 Y2.9422
G01 X21.3573 Y3.0793
G01 X21.3538 Y3.0822
G01 X21.1950 Y3.1934
G01 X21.1911 Y3.1957
G01 X21.0154 Y3.2776
G01 X21.0111 Y3.2791
G01 X20.9521 Y3.2950
G01 X20.9521 Y2.9092
G01 X20.9857 Y2.8933
G01 X20.9921 Y2.8899
G00 Z2.0000
G00 X21.1365 Y2.9577
G01 F30.00
G01 Z-0.0899
G01 F60.00
G01 X21.1997 Y2.9105
G01 X21.2583 Y2.8577
G01 X21.2693 Y2.8470
G01 X21.3189 Y2.7924
G01 X21.3287 Y2.7807
G01 X21.3757 Y2.7173
G01 X21.3840 Y2.7045
G01 X21.4044 Y2.6705
G01 X21.5128 Y2.6705
G01 X21.4938 Y2.7111
G01 X21.3934 Y2.8546
G01 X21.2696 Y2.9783
G01 X21.1262 Y3.0788
G01 X21.0855 Y3.0977
G01 X21.0855 Y2.9894
G01 X21.1239 Y2.9663
G01 X21.1365 Y2.9577
G00 Z2.0000
G00 X21.4044 Y1.7475
G01 F30.00
G01 Z-0.0899
G01 F60.00
G01 X21.3840 Y1.7134
G01 X21.3757 Y1.7006
G01 X21.3287 Y1.6373
G01 X21.3189 Y1.6256
G01 X21.2657 Y1.5673
G01 X21.2074 Y1.5141
G01 X21.1957 Y1.5043
G01 X21.1324 Y1.4573
G01 X21.1196 Y1.4490
G01 X21.0855 Y1.4286
G01 X21.0855 Y1.3202
G01 X21.1262 Y1.3392
G01 X21.2696 Y1.4396
G01 X21.3934 Y1.5634
G01 X21.4938 Y1.7068
G01 X21.5128 Y1.7475
G01 X21.4044 Y1.7475
G00 Z2.0000
G00 X21.3538 Y1.3357
G01 F30.00
G01 Z-0.0899
G01 F60.00
G01 X21.3573 Y1.3386
G01 X21.4944 Y1.4757
G01 X21.4973 Y1.4792
G01 X21.6085 Y1.6380
G01 X21.6107 Y1.6419
G01 X21.6927 Y1.8176
G01 X21.6942 Y1.8219
G01 X21.7100 Y1.8809
G01 X21.3242 Y1.8809
G01 X21.3058 Y1.8425
G01 X21.2666 Y1.7774
G01 X21.2224 Y1.7179
G01 X21.1714 Y1.6616
G01 X21.1151 Y1.6106
G01 X21.0556 Y1.5664
G01 X20.9905 Y1.5272
G01 X20.9521 Y1.5088
G01 X20.9521 Y1.1230
G01 X21.0111 Y1.1388
G01 X21.0154 Y1.1403
G01 X21.1911 Y1.2223
G01 X21.1950 Y1.2245
G01 X21.3538 Y1.3357
G00 Z2.0000
G00 X20.4695 Y8.0474
G01 F30.00
G01 Z-0.0899
G01 F60.00
G01 X20.3993 Y8.0297
G01 X20.3278 Y8.0042
G01 X20.2591 Y7.9717
G01 X20.1940 Y7.9326
G01 X20.1329 Y7.8874
G01 X20.0767 Y7.8363
G01 X20.0256 Y7.7801
G01 X19.9804 Y7.7190
G01 X19.9413 Y7.6539
G01 X19.9088 Y7.5852
G01 X19.8833 Y7.5137
G01 X19.8648 Y7.4400
G01 X19.8537 Y7.3649
G01 X19.8499 Y7.2890
G01 X19.8537 Y7.2131
G01 X19.8648 Y7.1380
G01 X19.8833 Y7.0643
G01 X19.9088 Y6.9927
G01 X19.9413 Y6.9241
G01 X19.9804 Y6.8589
G01 X20.0256 Y6.7979
G01 X20.0767 Y6.7416
G01 X20.1329 Y6.6906
G01 X20.1940 Y6.6453
G01 X20.2591 Y6.6063
G01 X20.3278 Y6.5738
G01 X20.3993 Y6.5482
G01 X20.4730 Y6.5297
G01 X20.5481 Y6.5186
G01 X20.6240 Y6.5149
G01 X20.6999 Y6.5186
G01 X20.7750 Y6.5297
G01 X20.8487 Y6.5482
G01 X20.9203 Y6.5738
G01 X20.9889 Y6.6063
G01 X21.0541 Y6.6453
G01 X21.1151 Y6.6906
G01 X21.1714 Y6.7416
G01 X21.2224 Y6.7979
G01 X21.2677 Y6.8589
G01 X21.3067 Y6.9241
G01 X21.3392 Y6.9927
G01 X21.3648 Y7.0643
G01 X21.3833 Y7.1380
G01 X21.3944 Y7.2131
G01 X21.3981 Y7.2890
G01 X21.3944 Y7.3649
G01 X21.3833 Y7.4400
G01 X21.3648 Y7.5137
G01 X21.3392 Y7.5852
G01 X21.3067 Y7.6539
G01 X21.2677 Y7.7190
G01 X21.2224 Y7.7801
G01 X21.1714 Y7.8363
G01 X21.1151 Y7.8874
G01 X21.0541 Y7.9326
G01 X20.9889 Y7.9717
G01 X20.9203 Y8.0042
G01 X20.8487 Y8.0297
G01 X20.7750 Y8.0482
G01 X20.6999 Y8.0593
G01 X20.6240 Y8.0631
G01 X20.5481 Y8.0593
G01 X20.4766 Y8.0488
G01 X20.4695 Y8.0474
G00 Z2.0000
G00 X20.4370 Y8.1768
G01 F30.00
G01 Z-0.0899
G01 F60.00
G01 X20.3606 Y8.1574
G01 X20.2767 Y8.1274
G01 X20.1962 Y8.0893
G01 X20.1199 Y8.0435
G01 X20.0483 Y7.9905
G01 X19.9823 Y7.9307
G01 X19.9225 Y7.8647
G01 X19.8695 Y7.7931
G01 X19.8237 Y7.7168
G01 X19.7856 Y7.6363
G01 X19.7556 Y7.5524
G01 X19.7340 Y7.4660
G01 X19.7209 Y7.3779
G01 X19.7165 Y7.2890
G01 X19.7209 Y7.2000
G01 X19.7340 Y7.1119
G01 X19.7556 Y7.0255
G01 X19.7856 Y6.9417
G01 X19.8237 Y6.8612
G01 X19.8695 Y6.7848
G01 X19.9225 Y6.7133
G01 X19.9823 Y6.6473
G01 X20.0483 Y6.5875
G01 X20.1199 Y6.5344
G01 X20.1962 Y6.4886
G01 X20.2767 Y6.4506
G01 X20.3606 Y6.4206
G01 X20.4470 Y6.3989
G01 X20.5351 Y6.3859
G01 X20.6240 Y6.3815
G01 X20.7130 Y6.3859
G01 X20.8011 Y6.3989
G01 X20.8875 Y6.4206
G01 X20.9713 Y6.4506
G01 X21.0518 Y6.4886
G01 X21.1282 Y6.5344
G01 X21.1997 Y6.5875
G01 X21.2657 Y6.6473
G01 X21.3255 Y6.7133
G01 X21.3786 Y6.7848
G01 X21.4244 Y6.8612
G01 X21.4624 Y6.9417
G01 X21.4924 Y7.0255
G01 X21.5141 Y7.1119
G01 X21.5271 Y7.2000
G01 X21.5315 Y7.2890
G01 X21.5271 Y7.3779
G01 X21.5141 Y7.4660
G01 X21.4924 Y7.5524
G01 X21.4624 Y7.6363
G01 X21.4244 Y7.7168
G01 X21.3786 Y7.7931
G01 X21.3255 Y7.8647
G01 X21.2657 Y7.9307
G01 X21.1997 Y7.9905
G01 X21.1282 Y8.0435
G01 X21.0518 Y8.0893
G01 X20.9713 Y8.1274
G01 X20.8875 Y8.1574
G01 X20.8011 Y8.1790
G01 X20.7130 Y8.1921
G01 X20.6240 Y8.1965
G01 X20.5351 Y8.1921
G01 X20.4570 Y8.1808
G01 X20.4370 Y8.1768
G00 Z2.0000
G00 X20.1322 Y8.2063
G01 F30.00
G01 Z-0.0899
G01 F60.00
G01 X20.0651 Y8.2306
G01 X20.0695 Y8.1691
G01 X20.1188 Y8.1987
G01 X20.1322 Y8.2063
G00 Z2.0000
G00 X21.0168 Y8.2528
G01 F30.00
G01 Z-0.0899
G01 F60.00
G01 X21.0125 Y8.3132
G01 X20.9642 Y8.2843
G01 X20.9508 Y8.2766
G01 X21.0168 Y8.2528
G00 Z2.0000
G00 X24.9211 Y7.6605
G01 F30.00
G01 Z-0.0899
G01 F60.00
G01 X25.0598 Y7.4849
G01 X25.0627 Y7.4818
G01 X25.2281 Y7.3312
G01 X25.2315 Y7.3286
G01 X25.4194 Y7.2071
G01 X25.4231 Y7.2051
G01 X25.6283 Y7.1159
G01 X25.6323 Y7.1145
G01 X25.7979 Y7.0729
G01 X25.7979 Y7.4451
G01 X25.7788 Y7.4501
G01 X25.6857 Y7.4835
G01 X25.5978 Y7.5250
G01 X25.5914 Y7.5284
G01 X25.5082 Y7.5784
G01 X25.4301 Y7.6362
G01 X25.4245 Y7.6408
G01 X25.3539 Y7.7048
G01 X25.2850 Y7.7807
G01 X25.2239 Y7.8632
G01 X25.1749 Y7.9449
G01 X25.1715 Y7.9513
G01 X25.1301 Y8.0391
G01 X25.1068 Y8.1039
G01 X24.7287 Y8.1039
G01 X24.7332 Y8.0787
G01 X24.7342 Y8.0746
G01 X24.8089 Y7.8637
G01 X24.8107 Y7.8598
G01 X24.9188 Y7.6640
G01 X24.9211 Y7.6605
G00 Z2.0000
G00 X25.6645 Y7.2456
G01 F30.00
G01 Z-0.0899
G01 F60.00
G01 X25.6645 Y7.3493
G01 X25.6393 Y7.3584
G01 X25.6299 Y7.3623
G01 X25.5362 Y7.4066
G01 X25.5229 Y7.4140
G01 X25.4383 Y7.4647
G01 X25.4257 Y7.4734
G01 X25.3426 Y7.5353
G01 X25.2619 Y7.6082
G01 X25.2513 Y7.6191
G01 X25.1818 Y7.6961
G01 X25.1140 Y7.7875
G01 X25.0555 Y7.8852
G01 X25.0149 Y7.9705
G01 X24.9126 Y7.9705
G01 X24.9317 Y7.9166
G01 X25.0313 Y7.7362
G01 X25.1590 Y7.5745
G01 X25.3114 Y7.4358
G01 X25.4844 Y7.3239
G01 X25.6645 Y7.2456
G00 Z2.0000
G00 X27.0505 Y7.3523
G01 F30.00
G01 Z-0.0899
G01 F60.00
G01 X27.2123 Y7.5069
G01 X27.2151 Y7.5100
G01 X27.3494 Y7.6890
G01 X27.3517 Y7.6925
G01 X27.4550 Y7.8910
G01 X27.4566 Y7.8949
G01 X27.5249 Y8.1039
G01 X27.1452 Y8.1039
G01 X27.1220 Y8.0391
G01 X27.0805 Y7.9513
G01 X27.0771 Y7.9449
G01 X27.0281 Y7.8632
G01 X26.9671 Y7.7807
G01 X26.8981 Y7.7048
G01 X26.8275 Y7.6408
G01 X26.8219 Y7.6362
G01 X26.7439 Y7.5784
G01 X26.6606 Y7.5284
G01 X26.6542 Y7.5250
G01 X26.5664 Y7.4835
G01 X26.4733 Y7.4501
G01 X26.4541 Y7.4451
G01 X26.4541 Y7.0710
G01 X26.6518 Y7.1258
G01 X26.6558 Y7.1273
G01 X26.8587 Y7.2215
G01 X26.8624 Y7.2236
G01 X27.0473 Y7.3496
G01 X27.0505 Y7.3523
G00 Z2.0000
G00 X27.3326 Y7.9447
G01 F30.00
G01 Z-0.0899
G01 F60.00
G01 X27.3410 Y7.9705
G01 X27.2372 Y7.9705
G01 X27.1965 Y7.8852
G01 X27.1380 Y7.7875
G01 X27.0702 Y7.6961
G01 X27.0008 Y7.6191
G01 X26.9901 Y7.6082
G01 X26.9094 Y7.5353
G01 X26.8263 Y7.4734
G01 X26.8137 Y7.4647
G01 X26.7292 Y7.4140
G01 X26.7158 Y7.4066
G01 X26.6221 Y7.3623
G01 X26.6127 Y7.3584
G01 X26.5875 Y7.3493
G01 X26.5875 Y7.2464
G01 X26.6077 Y7.2520
G01 X26.7946 Y7.3387
G01 X26.9648 Y7.4548
G01 X27.1138 Y7.5972
G01 X27.2375 Y7.7620
G01 X27.3326 Y7.9447
G00 Z2.0000
G00 X26.4340 Y9.6988
G01 F30.00
G01 Z-0.0899
G01 F60.00
G01 X26.5328 Y9.6741
G01 X26.5490 Y9.6696
G01 X26.5649 Y9.6644
G01 X26.6529 Y9.6329
G01 X26.6691 Y9.6266
G01 X26.6666 Y9.6449
G01 X26.6652 Y9.6618
G01 X26.6647 Y9.6787
G01 X26.6649 Y9.6956
G01 X26.6669 Y9.7209
G01 X26.6737 Y9.7793
G01 X26.6529 Y9.7710
G01 X26.5649 Y9.7396
G01 X26.5490 Y9.7343
G01 X26.5328 Y9.7298
G01 X26.4422 Y9.7071
G01 X26.4178 Y9.7020
G01 X26.4340 Y9.6988
G00 Z2.0000
G00 X25.3402 Y9.7699
G01 F30.00
G01 Z-0.0899
G01 F60.00
G01 X25.3536 Y9.7483
G01 X25.3617 Y9.7335
G01 X25.3690 Y9.7182
G01 X25.3785 Y9.6946
G01 X25.3839 Y9.6786
G01 X25.3884 Y9.6623
G01 X25.3937 Y9.6375
G01 X25.3972 Y9.6123
G01 X25.3984 Y9.5954
G01 X25.4015 Y9.5327
G01 X25.4543 Y9.5644
G01 X25.4763 Y9.5765
G01 X25.5683 Y9.6201
G01 X25.5913 Y9.6300
G01 X25.6872 Y9.6644
G01 X25.7031 Y9.6696
G01 X25.7192 Y9.6741
G01 X25.8099 Y9.6968
G01 X25.8342 Y9.7020
G01 X25.8099 Y9.7071
G01 X25.7192 Y9.7298
G01 X25.7031 Y9.7343
G01 X25.6872 Y9.7396
G01 X25.5992 Y9.7710
G01 X25.5836 Y9.7771
G01 X25.5683 Y9.7838
G01 X25.4838 Y9.8238
G01 X25.4700 Y9.8307
G01 X25.2969 Y9.8307
G01 X25.3402 Y9.7699
G00 Z2.0000
G00 X25.1093 Y12.2190
G01 F30.00
G01 Z-0.0899
G01 F60.00
G01 X25.0926 Y12.2203
G01 X25.0760 Y12.2223
G01 X25.0513 Y12.2269
G01 X25.0351 Y12.2310
G01 X25.0191 Y12.2358
G01 X24.9956 Y12.2446
G01 X24.9728 Y12.2550
G01 X24.9580 Y12.2629
G01 X24.9437 Y12.2715
G01 X24.9230 Y12.2857
G01 X24.9098 Y12.2960
G01 X24.8971 Y12.3069
G01 X24.8850 Y12.3185
G01 X24.8735 Y12.3306
G01 X24.8573 Y12.3498
G01 X24.8473 Y12.3632
G01 X24.8380 Y12.3771
G01 X24.8254 Y12.3988
G01 X24.8179 Y12.4137
G01 X24.8111 Y12.4290
G01 X24.8024 Y12.4526
G01 X24.7975 Y12.4686
G01 X24.7934 Y12.4848
G01 X24.7889 Y12.5095
G01 X24.7861 Y12.5344
G01 X24.7852 Y12.5595
G01 X24.7852 Y14.3963
G01 X24.7503 Y14.3805
G01 X24.7266 Y14.3714
G01 X24.7023 Y14.3641
G01 X24.6775 Y14.3586
G01 X24.6524 Y14.3550
G01 X24.6270 Y14.3533
G01 X24.6101 Y14.3532
G01 X24.5932 Y14.3539
G01 X24.5679 Y14.3566
G01 X24.4977 Y14.3667
G01 X24.4727 Y14.3712
G01 X24.4563 Y14.3753
G01 X24.4400 Y14.3802
G01 X24.4162 Y14.3890
G01 X24.4007 Y14.3958
G01 X24.3856 Y14.4034
G01 X24.3709 Y14.4117
G01 X24.3566 Y14.4208
G01 X24.3360 Y14.4357
G01 X24.3053 Y14.4618
G01 X24.3053 Y12.2067
G01 X24.3988 Y12.1132
G01 X25.4700 Y12.1132
G01 X25.4838 Y12.1201
G01 X25.5683 Y12.1601
G01 X25.5913 Y12.1700
G01 X25.6951 Y12.2071
G01 X25.7111 Y12.2120
G01 X25.7372 Y12.2186
G01 X25.1260 Y12.2186
G01 X25.1093 Y12.2190
G00 Z2.0000
G00 X24.7594 Y12.2586
G01 F30.00
G01 Z-0.0899
G01 F60.00
G01 X24.7451 Y12.2770
G01 X24.7317 Y12.2960
G01 X24.7254 Y12.3058
G01 X24.7134 Y12.3257
G01 X24.7078 Y12.3359
G01 X24.6973 Y12.3567
G01 X24.6879 Y12.3780
G01 X24.6836 Y12.3888
G01 X24.6795 Y12.3997
G01 X24.6722 Y12.4218
G01 X24.6660 Y12.4442
G01 X24.6633 Y12.4556
G01 X24.6588 Y12.4784
G01 X24.6554 Y12.5014
G01 X24.6531 Y12.5246
G01 X24.6524 Y12.5362
G01 X24.6518 Y12.5595
G01 X24.6518 Y14.2211
G01 X24.6312 Y14.2200
G01 X24.6076 Y14.2198
G01 X24.5959 Y14.2202
G01 X24.5724 Y14.2218
G01 X24.5490 Y14.2246
G01 X24.4787 Y14.2347
G01 X24.4555 Y14.2386
G01 X24.4387 Y14.2422
G01 X24.4387 Y12.2619
G01 X24.4540 Y12.2466
G01 X24.7697 Y12.2466
G01 X24.7594 Y12.2586
G00 Z2.0000
G00 X26.9325 Y12.0286
G01 F30.00
G01 Z-0.0899
G01 F60.00
G01 X26.9361 Y12.0537
G01 X26.9396 Y12.0703
G01 X26.9439 Y12.0867
G01 X26.9490 Y12.1028
G01 X26.9796 Y12.1853
G01 X26.9862 Y12.2008
G01 X26.9950 Y12.2186
G01 X26.5148 Y12.2186
G01 X26.5409 Y12.2120
G01 X26.5569 Y12.2071
G01 X26.6529 Y12.1729
G01 X26.6762 Y12.1636
G01 X26.7683 Y12.1201
G01 X26.7905 Y12.1086
G01 X26.8851 Y12.0519
G01 X26.8990 Y12.0426
G01 X26.9316 Y12.0186
G01 X26.9325 Y12.0286
G00 Z2.0000
G00 X27.1351 Y14.5380
G01 F30.00
G01 Z-0.0899
G01 F60.00
G01 X27.1260 Y14.5386
G01 X25.1260 Y14.5386
G01 X25.1188 Y14.5382
G01 X25.1116 Y14.5372
G01 X25.1045 Y14.5354
G01 X25.0977 Y14.5329
G01 X25.0911 Y14.5298
G01 X25.0849 Y14.5261
G01 X25.0790 Y14.5218
G01 X25.0736 Y14.5169
G01 X25.0687 Y14.5115
G01 X25.0644 Y14.5056
G01 X25.0607 Y14.4994
G01 X25.0576 Y14.4928
G01 X25.0551 Y14.4860
G01 X25.0533 Y14.4789
G01 X25.0523 Y14.4717
G01 X25.0519 Y14.4645
G01 X25.0519 Y12.5595
G01 X25.0523 Y12.5522
G01 X25.0533 Y12.5450
G01 X25.0551 Y12.5380
G01 X25.0576 Y12.5311
G01 X25.0607 Y12.5245
G01 X25.0644 Y12.5183
G01 X25.0687 Y12.5125
G01 X25.0736 Y12.5071
G01 X25.0790 Y12.5022
G01 X25.0849 Y12.4979
G01 X25.0911 Y12.4941
G01 X25.0977 Y12.4910
G01 X25.1045 Y12.4886
G01 X25.1116 Y12.4868
G01 X25.1188 Y12.4857
G01 X25.1260 Y12.4854
G01 X27.1260 Y12.4854
G01 X27.1333 Y12.4857
G01 X27.1405 Y12.4868
G01 X27.1475 Y12.4886
G01 X27.1544 Y12.4910
G01 X27.1610 Y12.4941
G01 X27.1672 Y12.4979
G01 X27.1730 Y12.5022
G01 X27.1784 Y12.5071
G01 X27.1833 Y12.5125
G01 X27.1876 Y12.5183
G01 X27.1914 Y12.5245
G01 X27.1945 Y12.5311
G01 X27.1969 Y12.5380
G01 X27.1987 Y12.5450
G01 X27.1998 Y12.5522
G01 X27.2001 Y12.5595
G01 X27.2001 Y14.4663
G01 X27.1996 Y14.4735
G01 X27.1983 Y14.4807
G01 X27.1969 Y14.4860
G01 X27.1945 Y14.4928
G01 X27.1914 Y14.4994
G01 X27.1886 Y14.5041
G01 X27.1844 Y14.5101
G01 X27.1809 Y14.5142
G01 X27.1771 Y14.5181
G01 X27.1716 Y14.5229
G01 X27.1672 Y14.5261
G01 X27.1610 Y14.5298
G01 X27.1544 Y14.5329
G01 X27.1475 Y14.5354
G01 X27.1423 Y14.5368
G01 X27.1351 Y14.5380
G00 Z2.0000
G00 X27.1514 Y14.6704
G01 F30.00
G01 Z-0.0899
G01 F60.00
G01 X27.1413 Y14.6714
G01 X27.1260 Y14.6720
G01 X25.1209 Y14.6719
G01 X25.1006 Y14.6704
G01 X25.0806 Y14.6669
G01 X25.0609 Y14.6615
G01 X25.0419 Y14.6542
G01 X25.0238 Y14.6450
G01 X25.0066 Y14.6341
G01 X24.9905 Y14.6216
G01 X24.9758 Y14.6075
G01 X24.9625 Y14.5921
G01 X24.9507 Y14.5755
G01 X24.9430 Y14.5623
G01 X24.9343 Y14.5439
G01 X24.9275 Y14.5247
G01 X24.9225 Y14.5050
G01 X24.9201 Y14.4899
G01 X24.9186 Y14.4696
G01 X24.9185 Y12.5595
G01 X24.9195 Y12.5391
G01 X24.9225 Y12.5190
G01 X24.9275 Y12.4992
G01 X24.9343 Y12.4801
G01 X24.9430 Y12.4617
G01 X24.9507 Y12.4485
G01 X24.9564 Y12.4400
G01 X24.9689 Y12.4240
G01 X24.9830 Y12.4092
G01 X24.9984 Y12.3959
G01 X25.0150 Y12.3842
G01 X25.0327 Y12.3741
G01 X25.0466 Y12.3678
G01 X25.0658 Y12.3609
G01 X25.0855 Y12.3560
G01 X25.1006 Y12.3536
G01 X25.1209 Y12.3521
G01 X27.1260 Y12.3520
G01 X27.1464 Y12.3530
G01 X27.1565 Y12.3542
G01 X27.1715 Y12.3570
G01 X27.1911 Y12.3625
G01 X27.2101 Y12.3698
G01 X27.2283 Y12.3789
G01 X27.2455 Y12.3898
G01 X27.2615 Y12.4024
G01 X27.2763 Y12.4164
G01 X27.2896 Y12.4318
G01 X27.3013 Y12.4485
G01 X27.3090 Y12.4617
G01 X27.3177 Y12.4801
G01 X27.3246 Y12.4992
G01 X27.3295 Y12.5190
G01 X27.3319 Y12.5341
G01 X27.3334 Y12.5544
G01 X27.3333 Y14.4747
G01 X27.3313 Y14.4949
G01 X27.3285 Y14.5099
G01 X27.3246 Y14.5247
G01 X27.3177 Y14.5439
G01 X27.3114 Y14.5578
G01 X27.3013 Y14.5755
G01 X27.2927 Y14.5881
G01 X27.2798 Y14.6038
G01 X27.2654 Y14.6182
G01 X27.2537 Y14.6280
G01 X27.2413 Y14.6370
G01 X27.2238 Y14.6475
G01 X27.2101 Y14.6542
G01 X27.1911 Y14.6615
G01 X27.1715 Y14.6669
G01 X27.1514 Y14.6704
G00 Z2.0000
G00 X28.9917 Y16.5094
G01 F30.00
G01 Z-0.0899
G01 F60.00
G01 X29.0083 Y16.5062
G01 X29.0247 Y16.5021
G01 X29.0409 Y16.4972
G01 X29.0569 Y16.4916
G01 X29.0725 Y16.4851
G01 X29.0878 Y16.4779
G01 X29.1028 Y16.4699
G01 X29.1173 Y16.4612
G01 X29.1382 Y16.4468
G01 X29.1515 Y16.4364
G01 X29.2117 Y16.3844
G01 X29.2302 Y16.3671
G01 X29.2419 Y16.3548
G01 X29.2529 Y16.3419
G01 X29.2681 Y16.3217
G01 X29.2775 Y16.3075
G01 X29.2861 Y16.2930
G01 X29.2940 Y16.2780
G01 X29.3011 Y16.2626
G01 X29.3103 Y16.2390
G01 X29.3155 Y16.2229
G01 X29.3355 Y16.1547
G01 X29.3415 Y16.1312
G01 X29.3446 Y16.1152
G01 X29.3469 Y16.0992
G01 X29.3484 Y16.0830
G01 X29.3492 Y16.0668
G01 X29.3493 Y4.9628
G01 X50.0036 Y4.9628
G01 X50.0036 Y16.7271
G01 X30.0055 Y16.7273
G01 X29.9797 Y16.7287
G01 X29.9630 Y16.7305
G01 X29.9381 Y16.7348
G01 X29.9217 Y16.7387
G01 X29.8975 Y16.7461
G01 X29.8152 Y16.7768
G01 X29.7996 Y16.7835
G01 X29.7844 Y16.7910
G01 X29.7624 Y16.8035
G01 X29.7482 Y16.8128
G01 X29.7346 Y16.8228
G01 X29.7214 Y16.8334
G01 X29.7088 Y16.8447
G01 X29.6967 Y16.8566
G01 X29.6798 Y16.8755
G01 X29.6693 Y16.8888
G01 X29.6268 Y16.9457
G01 X29.6170 Y16.9595
G01 X29.6079 Y16.9737
G01 X29.5956 Y16.9960
G01 X29.5849 Y17.0190
G01 X29.5788 Y17.0348
G01 X29.5735 Y17.0509
G01 X29.5690 Y17.0672
G01 X29.5653 Y17.0837
G01 X29.5624 Y17.1004
G01 X29.5604 Y17.1172
G01 X29.5580 Y17.1490
G01 X28.9277 Y16.5187
G01 X28.9917 Y16.5094
G00 Z2.0000
G00 X29.1887 Y16.5739
G01 F30.00
G01 Z-0.0899
G01 F60.00
G01 X29.2083 Y16.5608
G01 X29.2178 Y16.5539
G01 X29.2364 Y16.5393
G01 X29.2990 Y16.4852
G01 X29.3164 Y16.4694
G01 X29.3248 Y16.4611
G01 X29.3410 Y16.4440
G01 X29.3563 Y16.4261
G01 X29.3636 Y16.4169
G01 X29.3776 Y16.3979
G01 X29.3906 Y16.3783
G01 X29.3967 Y16.3682
G01 X29.4082 Y16.3476
G01 X29.4186 Y16.3265
G01 X29.4234 Y16.3158
G01 X29.4323 Y16.2939
G01 X29.4363 Y16.2829
G01 X29.4435 Y16.2604
G01 X29.4635 Y16.1923
G01 X29.4693 Y16.1705
G01 X29.4719 Y16.1595
G01 X29.4741 Y16.1485
G01 X29.4779 Y16.1262
G01 X29.4805 Y16.1038
G01 X29.4815 Y16.0925
G01 X29.4826 Y16.0700
G01 X29.4827 Y5.0962
G01 X49.8702 Y5.0962
G01 X49.8702 Y16.5937
G01 X30.0177 Y16.5937
G01 X29.9801 Y16.5949
G01 X29.9684 Y16.5958
G01 X29.9451 Y16.5983
G01 X29.9335 Y16.6001
G01 X29.9105 Y16.6043
G01 X29.8990 Y16.6069
G01 X29.8764 Y16.6129
G01 X29.8540 Y16.6200
G01 X29.8430 Y16.6240
G01 X29.7655 Y16.6530
G01 X29.7439 Y16.6623
G01 X29.7332 Y16.6674
G01 X29.7123 Y16.6783
G01 X29.7021 Y16.6841
G01 X29.6920 Y16.6902
G01 X29.6723 Y16.7031
G01 X29.6627 Y16.7100
G01 X29.6441 Y16.7243
G01 X29.6261 Y16.7396
G01 X29.6090 Y16.7557
G01 X29.6007 Y16.7641
G01 X29.5848 Y16.7814
G01 X29.5771 Y16.7904
G01 X29.5626 Y16.8089
G01 X29.5131 Y16.8753
G01 X29.4971 Y16.8994
G01 X29.1781 Y16.5804
G01 X29.1887 Y16.5739
G00 Z2.0000
G00 X29.3976 Y16.5760
G01 F30.00
G01 Z-0.0899
G01 F60.00
G01 X29.4194 Y16.5552
G01 X29.4402 Y16.5332
G01 X29.4598 Y16.5103
G01 X29.4782 Y16.4864
G01 X29.4955 Y16.4617
G01 X29.5036 Y16.4490
G01 X29.5190 Y16.4230
G01 X29.5331 Y16.3963
G01 X29.5458 Y16.3689
G01 X29.5571 Y16.3409
G01 X29.5670 Y16.3124
G01 X29.5915 Y16.2299
G01 X29.5989 Y16.2020
G01 X29.6051 Y16.1737
G01 X29.6099 Y16.1452
G01 X29.6118 Y16.1308
G01 X29.6145 Y16.1021
G01 X29.6159 Y16.0732
G01 X29.6161 Y5.2296
G01 X49.7368 Y5.2296
G01 X49.7368 Y16.4604
G01 X30.0177 Y16.4604
G01 X29.9960 Y16.4607
G01 X29.9720 Y16.4618
G01 X29.9421 Y16.4643
G01 X29.9272 Y16.4662
G01 X29.8976 Y16.4709
G01 X29.8682 Y16.4772
G01 X29.8391 Y16.4848
G01 X29.8105 Y16.4939
G01 X29.7299 Y16.5238
G01 X29.7019 Y16.5350
G01 X29.6744 Y16.5477
G01 X29.6477 Y16.5616
G01 X29.6346 Y16.5691
G01 X29.6090 Y16.5850
G01 X29.5841 Y16.6022
G01 X29.5602 Y16.6206
G01 X29.5372 Y16.6401
G01 X29.5261 Y16.6503
G01 X29.5046 Y16.6715
G01 X29.4823 Y16.6960
G01 X29.3788 Y16.5926
G01 X29.3976 Y16.5760
G00 Z2.0000
G00 X27.6443 Y20.9096
G01 F30.00
G01 Z-0.0899
G01 F60.00
G01 X27.8549 Y20.9280
G01 X27.8593 Y20.9288
G01 X28.0635 Y20.9835
G01 X28.0677 Y20.9850
G01 X28.2541 Y21.0719
G01 X27.9828 Y21.3433
G01 X27.9732 Y21.3391
G01 X27.8958 Y21.3115
G01 X27.8126 Y21.2907
G01 X27.7277 Y21.2781
G01 X27.6421 Y21.2739
G01 X27.5564 Y21.2781
G01 X27.4715 Y21.2907
G01 X27.3883 Y21.3115
G01 X27.3110 Y21.3391
G01 X27.3014 Y21.3433
G01 X27.0300 Y21.0719
G01 X27.2164 Y20.9850
G01 X27.2206 Y20.9835
G01 X27.4248 Y20.9288
G01 X27.4292 Y20.9280
G01 X27.6398 Y20.9096
G01 X27.6443 Y20.9096
G00 Z2.0000
G00 X28.0251 Y21.1123
G01 F30.00
G01 Z-0.0899
G01 F60.00
G01 X27.9487 Y21.1887
G01 X27.9345 Y21.1839
G01 X27.9247 Y21.1812
G01 X27.8486 Y21.1621
G01 X27.8286 Y21.1581
G01 X27.7408 Y21.1453
G01 X27.6421 Y21.1405
G01 X27.5433 Y21.1453
G01 X27.4556 Y21.1581
G01 X27.4356 Y21.1621
G01 X27.3594 Y21.1812
G01 X27.3496 Y21.1839
G01 X27.3354 Y21.1887
G01 X27.2590 Y21.1123
G01 X27.2642 Y21.1099
G01 X27.4502 Y21.0600
G01 X27.6421 Y21.0433
G01 X27.8339 Y21.0600
G01 X28.0199 Y21.1099
G01 X28.0251 Y21.1123
G00 Z2.0000
G00 X28.4774 Y22.4052
G01 F30.00
G01 Z-0.0899
G01 F60.00
G01 X28.4795 Y22.3982
G01 X28.4994 Y22.3185
G01 X28.5120 Y22.2337
G01 X28.5162 Y22.1480
G01 X28.5122 Y22.0659
G01 X28.5115 Y22.0587
G01 X28.4994 Y21.9774
G01 X28.4795 Y21.8977
G01 X28.4774 Y21.8908
G01 X28.4509 Y21.8169
G01 X28.4468 Y21.8073
G01 X28.7181 Y21.5359
G01 X28.8050 Y21.7223
G01 X28.8066 Y21.7265
G01 X28.8613 Y21.9307
G01 X28.8621 Y21.9351
G01 X28.8805 Y22.1457
G01 X28.8805 Y22.1502
G01 X28.8621 Y22.3608
G01 X28.8613 Y22.3652
G01 X28.8066 Y22.5694
G01 X28.8050 Y22.5736
G01 X28.7181 Y22.7600
G01 X28.4468 Y22.4887
G01 X28.4509 Y22.4791
G01 X28.4774 Y22.4052
G00 Z2.0000
G00 X28.6280 Y22.3545
G01 F30.00
G01 Z-0.0899
G01 F60.00
G01 X28.6319 Y22.3345
G01 X28.6435 Y22.2568
G01 X28.6454 Y22.2366
G01 X28.6496 Y22.1480
G01 X28.6454 Y22.0594
G01 X28.6435 Y22.0391
G01 X28.6302 Y21.9514
G01 X28.6089 Y21.8653
G01 X28.6062 Y21.8555
G01 X28.6014 Y21.8413
G01 X28.6777 Y21.7649
G01 X28.6802 Y21.7701
G01 X28.7300 Y21.9561
G01 X28.7468 Y22.1480
G01 X28.7300 Y22.3398
G01 X28.6802 Y22.5258
G01 X28.6777 Y22.5310
G01 X28.6014 Y22.4546
G01 X28.6076 Y22.4355
G01 X28.6280 Y22.3545
G00 Z2.0000
G00 X27.3110 Y22.9568
G01 F30.00
G01 Z-0.0899
G01 F60.00
G01 X27.3883 Y22.9844
G01 X27.4715 Y23.0053
G01 X27.5564 Y23.0179
G01 X27.6421 Y23.0221
G01 X27.7277 Y23.0179
G01 X27.8126 Y23.0053
G01 X27.8958 Y22.9844
G01 X27.9732 Y22.9568
G01 X27.9828 Y22.9527
G01 X28.2541 Y23.2240
G01 X28.0677 Y23.3109
G01 X28.0635 Y23.3125
G01 X27.8593 Y23.3672
G01 X27.8549 Y23.3680
G01 X27.6443 Y23.3864
G01 X27.6398 Y23.3864
G01 X27.4292 Y23.3680
G01 X27.4248 Y23.3672
G01 X27.2206 Y23.3125
G01 X27.2164 Y23.3109
G01 X27.0300 Y23.2240
G01 X27.3014 Y22.9527
G01 X27.3110 Y22.9568
G00 Z2.0000
G00 X27.3594 Y23.1148
G01 F30.00
G01 Z-0.0899
G01 F60.00
G01 X27.4455 Y23.1361
G01 X27.5332 Y23.1494
G01 X27.5535 Y23.1514
G01 X27.6319 Y23.1552
G01 X27.6472 Y23.1554
G01 X27.7408 Y23.1506
G01 X27.8286 Y23.1378
G01 X27.8486 Y23.1339
G01 X27.9247 Y23.1148
G01 X27.9345 Y23.1121
G01 X27.9487 Y23.1073
G01 X28.0251 Y23.1836
G01 X28.0199 Y23.1861
G01 X27.8339 Y23.2359
G01 X27.6421 Y23.2527
G01 X27.4502 Y23.2359
G01 X27.2642 Y23.1861
G01 X27.2590 Y23.1836
G01 X27.3354 Y23.1073
G01 X27.3496 Y23.1121
G01 X27.3594 Y23.1148
G00 Z2.0000
G00 X26.6753 Y21.8653
G01 F30.00
G01 Z-0.0899
G01 F60.00
G01 X26.6540 Y21.9514
G01 X26.6407 Y22.0391
G01 X26.6387 Y22.0594
G01 X26.6348 Y22.1378
G01 X26.6347 Y22.1531
G01 X26.6394 Y22.2467
G01 X26.6522 Y22.3345
G01 X26.6562 Y22.3545
G01 X26.6753 Y22.4306
G01 X26.6780 Y22.4404
G01 X26.6828 Y22.4546
G01 X26.6064 Y22.5310
G01 X26.6040 Y22.5258
G01 X26.5541 Y22.3398
G01 X26.5373 Y22.1480
G01 X26.5541 Y21.9561
G01 X26.6040 Y21.7701
G01 X26.6064 Y21.7649
G01 X26.6828 Y21.8413
G01 X26.6780 Y21.8555
G01 X26.6753 Y21.8653
G00 Z2.0000
G00 X26.5660 Y21.5359
G01 F30.00
G01 Z-0.0899
G01 F60.00
G01 X26.8373 Y21.8073
G01 X26.8332 Y21.8169
G01 X26.8056 Y21.8942
G01 X26.7848 Y21.9774
G01 X26.7722 Y22.0623
G01 X26.7680 Y22.1480
G01 X26.7722 Y22.2337
G01 X26.7848 Y22.3185
G01 X26.8056 Y22.4017
G01 X26.8332 Y22.4791
G01 X26.8373 Y22.4887
G01 X26.5660 Y22.7600
G01 X26.4791 Y22.5736
G01 X26.4776 Y22.5694
G01 X26.4229 Y22.3652
G01 X26.4221 Y22.3608
G01 X26.4037 Y22.1502
G01 X26.4037 Y22.1457
G01 X26.4221 Y21.9351
G01 X26.4229 Y21.9307
G01 X26.4776 Y21.7265
G01 X26.4791 Y21.7223
G01 X26.5660 Y21.5359
G00 Z2.0000
G00 X24.6511 Y23.0215
G01 F30.00
G01 Z-0.0899
G01 F60.00
G01 X24.6421 Y23.0221
G01 X23.0403 Y23.0221
G01 X23.0330 Y23.0215
G01 X23.0258 Y23.0203
G01 X23.0188 Y23.0183
G01 X23.0120 Y23.0157
G01 X23.0055 Y23.0124
G01 X22.9994 Y23.0086
G01 X22.9937 Y23.0041
G01 X22.9884 Y22.9991
G01 X22.9848 Y22.9950
G01 X22.9805 Y22.9891
G01 X22.9767 Y22.9829
G01 X22.9736 Y22.9763
G01 X22.9717 Y22.9712
G01 X22.9698 Y22.9642
G01 X22.9685 Y22.9570
G01 X22.9680 Y22.9498
G01 X22.9680 Y21.3480
G01 X22.9683 Y21.3407
G01 X22.9694 Y21.3335
G01 X22.9712 Y21.3265
G01 X22.9736 Y21.3196
G01 X22.9767 Y21.3130
G01 X22.9805 Y21.3068
G01 X22.9848 Y21.3010
G01 X22.9910 Y21.2943
G01 X22.9965 Y21.2896
G01 X23.0009 Y21.2864
G01 X23.0071 Y21.2826
G01 X23.0137 Y21.2795
G01 X23.0206 Y21.2771
G01 X23.0276 Y21.2753
G01 X23.0330 Y21.2744
G01 X23.0403 Y21.2739
G01 X24.6421 Y21.2739
G01 X24.6493 Y21.2742
G01 X24.6565 Y21.2753
G01 X24.6636 Y21.2771
G01 X24.6704 Y21.2795
G01 X24.6770 Y21.2826
G01 X24.6832 Y21.2864
G01 X24.6905 Y21.2919
G01 X24.6957 Y21.2969
G01 X24.6994 Y21.3010
G01 X24.7037 Y21.3068
G01 X24.7074 Y21.3130
G01 X24.7105 Y21.3196
G01 X24.7124 Y21.3247
G01 X24.7144 Y21.3317
G01 X24.7156 Y21.3389
G01 X24.7161 Y21.3462
G01 X24.7161 Y22.9498
G01 X24.7156 Y22.9570
G01 X24.7144 Y22.9642
G01 X24.7130 Y22.9695
G01 X24.7105 Y22.9763
G01 X24.7083 Y22.9813
G01 X24.7047 Y22.9876
G01 X24.7005 Y22.9936
G01 X24.6970 Y22.9977
G01 X24.6918 Y23.0029
G01 X24.6862 Y23.0075
G01 X24.6802 Y23.0115
G01 X24.6754 Y23.0142
G01 X24.6687 Y23.0171
G01 X24.6636 Y23.0189
G01 X24.6583 Y23.0203
G01 X24.6511 Y23.0215
G00 Z2.0000
G00 X24.6675 Y23.1539
G01 F30.00
G01 Z-0.0899
G01 F60.00
G01 X24.6573 Y23.1549
G01 X24.6421 Y23.1555
G01 X23.0319 Y23.1552
G01 X23.0116 Y23.1532
G01 X22.9917 Y23.1492
G01 X22.9722 Y23.1433
G01 X22.9534 Y23.1355
G01 X22.9354 Y23.1259
G01 X22.9185 Y23.1146
G01 X22.9027 Y23.1017
G01 X22.8883 Y23.0873
G01 X22.8754 Y23.0716
G01 X22.8641 Y23.0546
G01 X22.8567 Y23.0413
G01 X22.8485 Y23.0226
G01 X22.8435 Y23.0082
G01 X22.8386 Y22.9885
G01 X22.8362 Y22.9734
G01 X22.8347 Y22.9531
G01 X22.8346 Y21.3480
G01 X22.8352 Y21.3327
G01 X22.8362 Y21.3226
G01 X22.8396 Y21.3025
G01 X22.8451 Y21.2829
G01 X22.8524 Y21.2639
G01 X22.8615 Y21.2457
G01 X22.8724 Y21.2285
G01 X22.8850 Y21.2125
G01 X22.8954 Y21.2013
G01 X22.9027 Y21.1942
G01 X22.9185 Y21.1813
G01 X22.9311 Y21.1727
G01 X22.9488 Y21.1626
G01 X22.9627 Y21.1563
G01 X22.9770 Y21.1510
G01 X22.9966 Y21.1455
G01 X23.0167 Y21.1421
G01 X23.0370 Y21.1406
G01 X24.6421 Y21.1405
G01 X24.6624 Y21.1415
G01 X24.6725 Y21.1427
G01 X24.6875 Y21.1455
G01 X24.7072 Y21.1510
G01 X24.7262 Y21.1583
G01 X24.7443 Y21.1674
G01 X24.7615 Y21.1783
G01 X24.7776 Y21.1909
G01 X24.7888 Y21.2013
G01 X24.7958 Y21.2086
G01 X24.8087 Y21.2244
G01 X24.8174 Y21.2370
G01 X24.8251 Y21.2502
G01 X24.8338 Y21.2686
G01 X24.8406 Y21.2877
G01 X24.8456 Y21.3075
G01 X24.8480 Y21.3226
G01 X24.8495 Y21.3429
G01 X24.8496 Y22.9480
G01 X24.8490 Y22.9632
G01 X24.8473 Y22.9784
G01 X24.8433 Y22.9984
G01 X24.8391 Y23.0131
G01 X24.8318 Y23.0321
G01 X24.8226 Y23.0502
G01 X24.8146 Y23.0632
G01 X24.8025 Y23.0796
G01 X24.7923 Y23.0910
G01 X24.7776 Y23.1051
G01 X24.7657 Y23.1146
G01 X24.7487 Y23.1259
G01 X24.7354 Y23.1333
G01 X24.7167 Y23.1416
G01 X24.7023 Y23.1465
G01 X24.6825 Y23.1515
G01 X24.6675 Y23.1539
G00 Z2.0000
G00 X22.9801 Y21.0497
G01 F30.00
G01 Z-0.0899
G01 F60.00
G01 X23.0052 Y21.0470
G01 X24.6790 Y21.0470
G01 X24.7040 Y21.0497
G01 X24.7881 Y21.0812
G01 X24.8571 Y21.1329
G01 X24.9088 Y21.2019
G01 X24.9404 Y21.2860
G01 X24.9431 Y21.3111
G01 X24.9431 Y22.9849
G01 X24.9404 Y23.0099
G01 X24.9088 Y23.0940
G01 X24.8571 Y23.1630
G01 X24.7881 Y23.2147
G01 X24.7040 Y23.2463
G01 X24.6790 Y23.2490
G01 X23.0052 Y23.2490
G01 X22.9801 Y23.2463
G01 X22.8960 Y23.2147
G01 X22.8270 Y23.1630
G01 X22.7753 Y23.0940
G01 X22.7438 Y23.0099
G01 X22.7411 Y22.9849
G01 X22.7411 Y21.3111
G01 X22.7438 Y21.2860
G01 X22.7753 Y21.2019
G01 X22.8270 Y21.1329
G01 X22.8960 Y21.0812
G01 X22.9801 Y21.0497
G00 Z2.0000
G00 X22.9490 Y20.9189
G01 F30.00
G01 Z-0.0899
G01 F60.00
G01 X22.9980 Y20.9136
G01 X24.6862 Y20.9136
G01 X24.7351 Y20.9189
G01 X24.8528 Y20.9630
G01 X24.9524 Y21.0376
G01 X25.0270 Y21.1372
G01 X25.0712 Y21.2549
G01 X25.0765 Y21.3039
G01 X25.0765 Y22.9921
G01 X25.0712 Y23.0410
G01 X25.0270 Y23.1587
G01 X24.9524 Y23.2583
G01 X24.8528 Y23.3329
G01 X24.7351 Y23.3771
G01 X24.6862 Y23.3824
G01 X22.9980 Y23.3824
G01 X22.9490 Y23.3771
G01 X22.8313 Y23.3329
G01 X22.7317 Y23.2583
G01 X22.6571 Y23.1587
G01 X22.6130 Y23.0410
G01 X22.6077 Y22.9921
G01 X22.6077 Y21.3039
G01 X22.6130 Y21.2549
G01 X22.6571 Y21.1372
G01 X22.7317 Y21.0376
G01 X22.8313 Y20.9630
G01 X22.9490 Y20.9189
G00 Z2.0000
G00 X19.7281 Y23.2515
G01 F30.00
G01 Z-0.0899
G01 F60.00
G01 X19.7190 Y23.2521
G01 X17.7172 Y23.2521
G01 X17.7064 Y23.2510
G01 X17.6958 Y23.2483
G01 X17.6873 Y23.2450
G01 X17.6779 Y23.2396
G01 X17.6706 Y23.2341
G01 X17.6629 Y23.2264
G01 X17.6564 Y23.2176
G01 X17.6513 Y23.2080
G01 X17.6487 Y23.2012
G01 X17.6467 Y23.1942
G01 X17.6453 Y23.1852
G01 X17.6449 Y23.1780
G01 X17.6449 Y18.5780
G01 X17.6457 Y18.5671
G01 X17.6481 Y18.5565
G01 X17.6513 Y18.5479
G01 X17.6564 Y18.5383
G01 X17.6629 Y18.5296
G01 X17.6706 Y18.5219
G01 X17.6794 Y18.5154
G01 X17.6890 Y18.5102
G01 X17.6958 Y18.5076
G01 X17.7028 Y18.5057
G01 X17.7100 Y18.5044
G01 X17.7190 Y18.5039
G01 X19.7208 Y18.5039
G01 X19.7317 Y18.5050
G01 X19.7423 Y18.5076
G01 X19.7523 Y18.5118
G01 X19.7602 Y18.5164
G01 X19.7688 Y18.5231
G01 X19.7751 Y18.5296
G01 X19.7816 Y18.5383
G01 X19.7868 Y18.5479
G01 X19.7894 Y18.5547
G01 X19.7913 Y18.5617
G01 X19.7928 Y18.5707
G01 X19.7931 Y18.5780
G01 X19.7931 Y23.1798
G01 X19.7926 Y23.1870
G01 X19.7913 Y23.1942
G01 X19.7899 Y23.1995
G01 X19.7875 Y23.2063
G01 X19.7852 Y23.2113
G01 X19.7816 Y23.2176
G01 X19.7785 Y23.2221
G01 X19.7739 Y23.2277
G01 X19.7701 Y23.2316
G01 X19.7646 Y23.2364
G01 X19.7587 Y23.2406
G01 X19.7523 Y23.2442
G01 X19.7457 Y23.2471
G01 X19.7405 Y23.2489
G01 X19.7335 Y23.2507
G01 X19.7281 Y23.2515
G00 Z2.0000
G00 X19.7444 Y23.3839
G01 F30.00
G01 Z-0.0899
G01 F60.00
G01 X19.7343 Y23.3849
G01 X19.7190 Y23.3855
G01 X17.7088 Y23.3852
G01 X17.6936 Y23.3839
G01 X17.6785 Y23.3815
G01 X17.6686 Y23.3792
G01 X17.6539 Y23.3750
G01 X17.6396 Y23.3697
G01 X17.6257 Y23.3633
G01 X17.6124 Y23.3559
G01 X17.5996 Y23.3476
G01 X17.5874 Y23.3384
G01 X17.5760 Y23.3282
G01 X17.5688 Y23.3210
G01 X17.5586 Y23.3096
G01 X17.5494 Y23.2974
G01 X17.5411 Y23.2846
G01 X17.5337 Y23.2713
G01 X17.5273 Y23.2574
G01 X17.5205 Y23.2382
G01 X17.5155 Y23.2185
G01 X17.5125 Y23.1983
G01 X17.5115 Y23.1780
G01 X17.5116 Y18.5729
G01 X17.5125 Y18.5576
G01 X17.5146 Y18.5425
G01 X17.5178 Y18.5276
G01 X17.5220 Y18.5129
G01 X17.5273 Y18.4986
G01 X17.5337 Y18.4847
G01 X17.5411 Y18.4713
G01 X17.5465 Y18.4627
G01 X17.5555 Y18.4503
G01 X17.5653 Y18.4386
G01 X17.5760 Y18.4277
G01 X17.5874 Y18.4176
G01 X17.5996 Y18.4083
G01 X17.6124 Y18.4000
G01 X17.6257 Y18.3926
G01 X17.6396 Y18.3863
G01 X17.6588 Y18.3794
G01 X17.6785 Y18.3745
G01 X17.6987 Y18.3715
G01 X17.7190 Y18.3705
G01 X19.7292 Y18.3707
G01 X19.7394 Y18.3715
G01 X19.7545 Y18.3735
G01 X19.7694 Y18.3767
G01 X19.7841 Y18.3810
G01 X19.7984 Y18.3863
G01 X19.8123 Y18.3926
G01 X19.8257 Y18.4000
G01 X19.8385 Y18.4083
G01 X19.8506 Y18.4176
G01 X19.8621 Y18.4277
G01 X19.8728 Y18.4386
G01 X19.8826 Y18.4503
G01 X19.8887 Y18.4585
G01 X19.8970 Y18.4713
G01 X19.9044 Y18.4847
G01 X19.9107 Y18.4986
G01 X19.9176 Y18.5177
G01 X19.9225 Y18.5375
G01 X19.9255 Y18.5576
G01 X19.9265 Y18.5780
G01 X19.9264 Y23.1831
G01 X19.9255 Y23.1983
G01 X19.9225 Y23.2185
G01 X19.9176 Y23.2382
G01 X19.9126 Y23.2526
G01 X19.9044 Y23.2713
G01 X19.8943 Y23.2890
G01 X19.8826 Y23.3056
G01 X19.8728 Y23.3173
G01 X19.8584 Y23.3317
G01 X19.8426 Y23.3446
G01 X19.8300 Y23.3533
G01 X19.8123 Y23.3633
G01 X19.7984 Y23.3697
G01 X19.7793 Y23.3765
G01 X19.7595 Y23.3815
G01 X19.7444 Y23.3839
G00 Z2.0000
G00 X23.3760 Y27.4849
G01 F30.00
G01 Z-0.0899
G01 F60.00
G01 X23.4249 Y27.4796
G01 X26.7131 Y27.4796
G01 X26.7621 Y27.4849
G01 X26.8798 Y27.5290
G01 X26.9794 Y27.6036
G01 X27.0540 Y27.7032
G01 X27.0981 Y27.8209
G01 X27.1034 Y27.8699
G01 X27.1034 Y31.1581
G01 X27.0981 Y31.2070
G01 X27.0540 Y31.3247
G01 X26.9794 Y31.4243
G01 X26.8798 Y31.4989
G01 X26.7621 Y31.5431
G01 X26.7131 Y31.5484
G01 X23.4249 Y31.5484
G01 X23.3760 Y31.5431
G01 X23.2583 Y31.4989
G01 X23.1587 Y31.4243
G01 X23.0841 Y31.3247
G01 X23.0399 Y31.2070
G01 X23.0346 Y31.1581
G01 X23.0346 Y27.8699
G01 X23.0399 Y27.8209
G01 X23.0841 Y27.7032
G01 X23.1587 Y27.6036
G01 X23.2583 Y27.5290
G01 X23.3760 Y27.4849
G00 Z2.0000
G00 X23.4071 Y27.6157
G01 F30.00
G01 Z-0.0899
G01 F60.00
G01 X23.4321 Y27.6130
G01 X26.7059 Y27.6130
G01 X26.7310 Y27.6157
G01 X26.8151 Y27.6472
G01 X26.8841 Y27.6989
G01 X26.9358 Y27.7679
G01 X26.9673 Y27.8520
G01 X26.9700 Y27.8771
G01 X26.9700 Y31.1509
G01 X26.9673 Y31.1759
G01 X26.9358 Y31.2600
G01 X26.8841 Y31.3290
G01 X26.8151 Y31.3807
G01 X26.7310 Y31.4123
G01 X26.7059 Y31.4150
G01 X23.4321 Y31.4150
G01 X23.4071 Y31.4123
G01 X23.3230 Y31.3807
G01 X23.2540 Y31.3290
G01 X23.2023 Y31.2600
G01 X23.1707 Y31.1759
G01 X23.1680 Y31.1509
G01 X23.1680 Y27.8771
G01 X23.1707 Y27.8520
G01 X23.2023 Y27.7679
G01 X23.2540 Y27.6989
G01 X23.3230 Y27.6472
G01 X23.4071 Y27.6157
G00 Z2.0000
G00 X26.6781 Y31.1875
G01 F30.00
G01 Z-0.0899
G01 F60.00
G01 X26.6690 Y31.1881
G01 X23.4690 Y31.1881
G01 X23.4618 Y31.1877
G01 X23.4546 Y31.1867
G01 X23.4475 Y31.1849
G01 X23.4407 Y31.1824
G01 X23.4341 Y31.1793
G01 X23.4279 Y31.1756
G01 X23.4220 Y31.1713
G01 X23.4166 Y31.1664
G01 X23.4117 Y31.1610
G01 X23.4074 Y31.1551
G01 X23.4037 Y31.1489
G01 X23.4006 Y31.1423
G01 X23.3981 Y31.1355
G01 X23.3963 Y31.1284
G01 X23.3953 Y31.1212
G01 X23.3949 Y31.1140
G01 X23.3949 Y27.9140
G01 X23.3953 Y27.9067
G01 X23.3963 Y27.8995
G01 X23.3981 Y27.8925
G01 X23.4006 Y27.8856
G01 X23.4037 Y27.8790
G01 X23.4074 Y27.8728
G01 X23.4117 Y27.8670
G01 X23.4166 Y27.8616
G01 X23.4220 Y27.8567
G01 X23.4279 Y27.8524
G01 X23.4341 Y27.8486
G01 X23.4407 Y27.8455
G01 X23.4475 Y27.8431
G01 X23.4546 Y27.8413
G01 X23.4618 Y27.8402
G01 X23.4690 Y27.8399
G01 X26.6690 Y27.8399
G01 X26.6763 Y27.8402
G01 X26.6835 Y27.8413
G01 X26.6905 Y27.8431
G01 X26.6974 Y27.8455
G01 X26.7040 Y27.8486
G01 X26.7102 Y27.8524
G01 X26.7160 Y27.8567
G01 X26.7214 Y27.8616
G01 X26.7263 Y27.8670
G01 X26.7306 Y27.8728
G01 X26.7344 Y27.8790
G01 X26.7375 Y27.8856
G01 X26.7399 Y27.8925
G01 X26.7417 Y27.8995
G01 X26.7428 Y27.9067
G01 X26.7431 Y27.9140
G01 X26.7431 Y31.1158
G01 X26.7426 Y31.1230
G01 X26.7413 Y31.1302
G01 X26.7399 Y31.1355
G01 X26.7375 Y31.1423
G01 X26.7352 Y31.1473
G01 X26.7316 Y31.1536
G01 X26.7274 Y31.1596
G01 X26.7239 Y31.1637
G01 X26.7188 Y31.1689
G01 X26.7146 Y31.1724
G01 X26.7087 Y31.1766
G01 X26.7023 Y31.1802
G01 X26.6957 Y31.1831
G01 X26.6905 Y31.1849
G01 X26.6853 Y31.1863
G01 X26.6781 Y31.1875
G00 Z2.0000
G00 X26.6944 Y31.3199
G01 F30.00
G01 Z-0.0899
G01 F60.00
G01 X26.6843 Y31.3209
G01 X26.6690 Y31.3215
G01 X23.4639 Y31.3214
G01 X23.4436 Y31.3199
G01 X23.4236 Y31.3164
G01 X23.4039 Y31.3110
G01 X23.3849 Y31.3037
G01 X23.3668 Y31.2945
G01 X23.3496 Y31.2836
G01 X23.3335 Y31.2711
G01 X23.3188 Y31.2570
G01 X23.3086 Y31.2456
G01 X23.2965 Y31.2292
G01 X23.2860 Y31.2118
G01 X23.2773 Y31.1934
G01 X23.2705 Y31.1742
G01 X23.2666 Y31.1594
G01 X23.2631 Y31.1394
G01 X23.2616 Y31.1191
G01 X23.2615 Y27.9140
G01 X23.2625 Y27.8936
G01 X23.2655 Y27.8735
G01 X23.2705 Y27.8537
G01 X23.2773 Y27.8346
G01 X23.2860 Y27.8162
G01 X23.2965 Y27.7987
G01 X23.3086 Y27.7824
G01 X23.3153 Y27.7746
G01 X23.3260 Y27.7637
G01 X23.3414 Y27.7504
G01 X23.3580 Y27.7387
G01 X23.3757 Y27.7286
G01 X23.3896 Y27.7223
G01 X23.4039 Y27.7170
G01 X23.4236 Y27.7115
G01 X23.4436 Y27.7081
G01 X23.4639 Y27.7066
G01 X26.6690 Y27.7065
G01 X26.6843 Y27.7071
G01 X26.6944 Y27.7081
G01 X26.7145 Y27.7115
G01 X26.7341 Y27.7170
G01 X26.7531 Y27.7243
G01 X26.7713 Y27.7334
G01 X26.7885 Y27.7443
G01 X26.8045 Y27.7569
G01 X26.8193 Y27.7709
G01 X26.8326 Y27.7863
G01 X26.8443 Y27.8030
G01 X26.8544 Y27.8207
G01 X26.8607 Y27.8346
G01 X26.8676 Y27.8537
G01 X26.8725 Y27.8735
G01 X26.8755 Y27.8936
G01 X26.8764 Y27.9089
G01 X26.8764 Y31.1191
G01 X26.8755 Y31.1343
G01 X26.8725 Y31.1545
G01 X26.8676 Y31.1742
G01 X26.8607 Y31.1934
G01 X26.8520 Y31.2118
G01 X26.8443 Y31.2250
G01 X26.8326 Y31.2416
G01 X26.8228 Y31.2533
G01 X26.8084 Y31.2677
G01 X26.7967 Y31.2775
G01 X26.7800 Y31.2893
G01 X26.7668 Y31.2970
G01 X26.7484 Y31.3057
G01 X26.7293 Y31.3125
G01 X26.7145 Y31.3164
G01 X26.6944 Y31.3199
G00 Z2.0000
G00 X33.4047 Y27.6291
G01 F30.00
G01 Z-0.0899
G01 F60.00
G01 X33.3349 Y27.6114
G01 X33.2575 Y27.5837
G01 X33.1832 Y27.5486
G01 X33.1127 Y27.5063
G01 X33.0467 Y27.4574
G01 X32.9858 Y27.4022
G01 X32.9306 Y27.3413
G01 X32.8817 Y27.2753
G01 X32.8394 Y27.2048
G01 X32.8043 Y27.1305
G01 X32.7766 Y27.0531
G01 X32.7566 Y26.9734
G01 X32.7446 Y26.8921
G01 X32.7405 Y26.8100
G01 X32.7446 Y26.7279
G01 X32.7566 Y26.6466
G01 X32.7766 Y26.5669
G01 X32.8043 Y26.4895
G01 X32.8394 Y26.4152
G01 X32.8817 Y26.3447
G01 X32.9306 Y26.2787
G01 X32.9858 Y26.2178
G01 X33.0467 Y26.1626
G01 X33.1127 Y26.1136
G01 X33.1832 Y26.0714
G01 X33.2575 Y26.0362
G01 X33.3349 Y26.0086
G01 X33.4146 Y25.9886
G01 X33.4959 Y25.9765
G01 X33.5780 Y25.9725
G01 X33.6601 Y25.9765
G01 X33.7414 Y25.9886
G01 X33.8211 Y26.0086
G01 X33.8985 Y26.0362
G01 X33.9728 Y26.0714
G01 X34.0433 Y26.1136
G01 X34.1093 Y26.1626
G01 X34.1702 Y26.2178
G01 X34.2254 Y26.2787
G01 X34.2744 Y26.3447
G01 X34.3166 Y26.4152
G01 X34.3518 Y26.4895
G01 X34.3794 Y26.5669
G01 X34.3994 Y26.6466
G01 X34.4115 Y26.7279
G01 X34.4155 Y26.8100
G01 X34.4115 Y26.8921
G01 X34.3994 Y26.9734
G01 X34.3794 Y27.0531
G01 X34.3518 Y27.1305
G01 X34.3166 Y27.2048
G01 X34.2744 Y27.2753
G01 X34.2254 Y27.3413
G01 X34.1702 Y27.4022
G01 X34.1093 Y27.4574
G01 X34.0433 Y27.5063
G01 X33.9728 Y27.5486
G01 X33.8985 Y27.5837
G01 X33.8211 Y27.6114
G01 X33.7414 Y27.6314
G01 X33.6601 Y27.6434
G01 X33.5780 Y27.6475
G01 X33.4959 Y27.6434
G01 X33.4247 Y27.6331
G01 X33.4047 Y27.6291
G00 Z2.0000
G00 X33.4371 Y27.4997
G01 F30.00
G01 Z-0.0899
G01 F60.00
G01 X33.3736 Y27.4838
G01 X33.3086 Y27.4605
G01 X33.2461 Y27.4309
G01 X33.1868 Y27.3954
G01 X33.1313 Y27.3543
G01 X33.0802 Y27.3078
G01 X33.0337 Y27.2567
G01 X32.9926 Y27.2012
G01 X32.9571 Y27.1419
G01 X32.9275 Y27.0794
G01 X32.9042 Y27.0144
G01 X32.8875 Y26.9473
G01 X32.8773 Y26.8790
G01 X32.8739 Y26.8100
G01 X32.8773 Y26.7410
G01 X32.8875 Y26.6726
G01 X32.9042 Y26.6056
G01 X32.9275 Y26.5405
G01 X32.9571 Y26.4781
G01 X32.9926 Y26.4188
G01 X33.0337 Y26.3633
G01 X33.0802 Y26.3121
G01 X33.1313 Y26.2657
G01 X33.1868 Y26.2245
G01 X33.2461 Y26.1890
G01 X33.3086 Y26.1595
G01 X33.3736 Y26.1362
G01 X33.4407 Y26.1194
G01 X33.5090 Y26.1093
G01 X33.5780 Y26.1059
G01 X33.6470 Y26.1093
G01 X33.7154 Y26.1194
G01 X33.7824 Y26.1362
G01 X33.8475 Y26.1595
G01 X33.9099 Y26.1890
G01 X33.9692 Y26.2245
G01 X34.0247 Y26.2657
G01 X34.0759 Y26.3121
G01 X34.1223 Y26.3633
G01 X34.1635 Y26.4188
G01 X34.1990 Y26.4781
G01 X34.2285 Y26.5405
G01 X34.2518 Y26.6056
G01 X34.2686 Y26.6726
G01 X34.2787 Y26.7410
G01 X34.2821 Y26.8100
G01 X34.2787 Y26.8790
G01 X34.2686 Y26.9473
G01 X34.2518 Y27.0144
G01 X34.2285 Y27.0794
G01 X34.1990 Y27.1419
G01 X34.1635 Y27.2012
G01 X34.1223 Y27.2567
G01 X34.0759 Y27.3078
G01 X34.0247 Y27.3543
G01 X33.9692 Y27.3954
G01 X33.9099 Y27.4309
G01 X33.8475 Y27.4605
G01 X33.7824 Y27.4838
G01 X33.7154 Y27.5005
G01 X33.6470 Y27.5107
G01 X33.5780 Y27.5141
G01 X33.5090 Y27.5107
G01 X33.4442 Y27.5012
G01 X33.4371 Y27.4997
G00 Z2.0000
G00 X33.0284 Y26.0535
G01 F30.00
G01 Z-0.0899
G01 F60.00
G01 X33.1755 Y25.9660
G01 X33.3360 Y25.9068
G01 X33.5047 Y25.8778
G01 X33.6758 Y25.8801
G01 X33.8436 Y25.9135
G01 X34.0025 Y25.9769
G01 X34.1472 Y26.0682
G01 X34.2729 Y26.1843
G01 X34.3753 Y26.3214
G01 X34.4509 Y26.4749
G01 X34.4974 Y26.6396
G01 X34.5137 Y26.8168
G01 X34.5127 Y26.8522
G01 X34.4872 Y27.0283
G01 X34.4322 Y27.1903
G01 X34.3486 Y27.3396
G01 X34.2392 Y27.4711
G01 X34.1076 Y27.5806
G01 X33.9583 Y27.6642
G01 X33.7963 Y27.7192
G01 X33.6270 Y27.7437
G01 X33.4560 Y27.7370
G01 X33.2891 Y27.6992
G01 X33.1319 Y27.6317
G01 X32.9896 Y27.5366
G01 X32.8670 Y27.4172
G01 X32.7683 Y27.2775
G01 X32.6966 Y27.1221
G01 X32.6545 Y26.9562
G01 X32.6433 Y26.7855
G01 X32.6634 Y26.6156
G01 X32.7142 Y26.4522
G01 X32.7938 Y26.3007
G01 X32.8998 Y26.1663
G01 X33.0284 Y26.0535
G00 Z2.0000
G00 X32.9497 Y25.9452
G01 F30.00
G01 Z-0.0899
G01 F60.00
G01 X33.1178 Y25.8451
G01 X33.3014 Y25.7774
G01 X33.4942 Y25.7443
G01 X33.6898 Y25.7469
G01 X33.8816 Y25.7850
G01 X34.0633 Y25.8575
G01 X34.2288 Y25.9619
G01 X34.3665 Y26.0892
G01 X34.3724 Y26.0947
G01 X34.4895 Y26.2514
G01 X34.5760 Y26.4269
G01 X34.6291 Y26.6152
G01 X34.6472 Y26.8124
G01 X34.6459 Y26.8635
G01 X34.6175 Y27.0595
G01 X34.5546 Y27.2448
G01 X34.4590 Y27.4154
G01 X34.3339 Y27.5658
G01 X34.1835 Y27.6909
G01 X34.0128 Y27.7865
G01 X33.8276 Y27.8494
G01 X33.6340 Y27.8775
G01 X33.4385 Y27.8698
G01 X33.2477 Y27.8266
G01 X33.0680 Y27.7494
G01 X32.9053 Y27.6407
G01 X32.7652 Y27.5042
G01 X32.6523 Y27.3445
G01 X32.5704 Y27.1668
G01 X32.5222 Y26.9772
G01 X32.5094 Y26.7820
G01 X32.5324 Y26.5877
G01 X32.5904 Y26.4009
G01 X32.6815 Y26.2278
G01 X32.8026 Y26.0741
G01 X32.9497 Y25.9452
G00 Z2.0000
G00 X35.9447 Y25.0891
G01 F30.00
G01 Z-0.0899
G01 F60.00
G01 X35.8749 Y25.0714
G01 X35.7975 Y25.0437
G01 X35.7232 Y25.0086
G01 X35.6527 Y24.9663
G01 X35.5867 Y24.9174
G01 X35.5258 Y24.8622
G01 X35.4706 Y24.8013
G01 X35.4217 Y24.7353
G01 X35.3794 Y24.6648
G01 X35.3443 Y24.5905
G01 X35.3166 Y24.5131
G01 X35.2966 Y24.4334
G01 X35.2846 Y24.3521
G01 X35.2805 Y24.2700
G01 X35.2846 Y24.1879
G01 X35.2966 Y24.1066
G01 X35.3166 Y24.0269
G01 X35.3443 Y23.9495
G01 X35.3794 Y23.8752
G01 X35.4217 Y23.8047
G01 X35.4706 Y23.7387
G01 X35.5258 Y23.6778
G01 X35.5867 Y23.6226
G01 X35.6527 Y23.5736
G01 X35.7232 Y23.5314
G01 X35.7975 Y23.4962
G01 X35.8749 Y23.4686
G01 X35.9546 Y23.4486
G01 X36.0359 Y23.4365
G01 X36.1180 Y23.4325
G01 X36.2001 Y23.4365
G01 X36.2814 Y23.4486
G01 X36.3611 Y23.4686
G01 X36.4385 Y23.4962
G01 X36.5128 Y23.5314
G01 X36.5833 Y23.5736
G01 X36.6493 Y23.6226
G01 X36.7102 Y23.6778
G01 X36.7654 Y23.7387
G01 X36.8144 Y23.8047
G01 X36.8566 Y23.8752
G01 X36.8918 Y23.9495
G01 X36.9194 Y24.0269
G01 X36.9394 Y24.1066
G01 X36.9515 Y24.1879
G01 X36.9555 Y24.2700
G01 X36.9515 Y24.3521
G01 X36.9394 Y24.4334
G01 X36.9194 Y24.5131
G01 X36.8918 Y24.5905
G01 X36.8566 Y24.6648
G01 X36.8144 Y24.7353
G01 X36.7654 Y24.8013
G01 X36.7102 Y24.8622
G01 X36.6493 Y24.9174
G01 X36.5833 Y24.9663
G01 X36.5128 Y25.0086
G01 X36.4385 Y25.0437
G01 X36.3611 Y25.0714
G01 X36.2814 Y25.0914
G01 X36.2001 Y25.1034
G01 X36.1180 Y25.1075
G01 X36.0359 Y25.1034
G01 X35.9647 Y25.0931
G01 X35.9447 Y25.0891
G00 Z2.0000
G00 X35.9771 Y24.9597
G01 F30.00
G01 Z-0.0899
G01 F60.00
G01 X35.9136 Y24.9438
G01 X35.8486 Y24.9205
G01 X35.7861 Y24.8909
G01 X35.7268 Y24.8554
G01 X35.6713 Y24.8143
G01 X35.6202 Y24.7678
G01 X35.5737 Y24.7167
G01 X35.5326 Y24.6612
G01 X35.4971 Y24.6019
G01 X35.4675 Y24.5394
G01 X35.4442 Y24.4744
G01 X35.4275 Y24.4073
G01 X35.4173 Y24.3390
G01 X35.4139 Y24.2700
G01 X35.4173 Y24.2010
G01 X35.4275 Y24.1326
G01 X35.4442 Y24.0656
G01 X35.4675 Y24.0005
G01 X35.4971 Y23.9381
G01 X35.5326 Y23.8788
G01 X35.5737 Y23.8233
G01 X35.6202 Y23.7721
G01 X35.6713 Y23.7257
G01 X35.7268 Y23.6845
G01 X35.7861 Y23.6490
G01 X35.8486 Y23.6195
G01 X35.9136 Y23.5962
G01 X35.9807 Y23.5794
G01 X36.0490 Y23.5693
G01 X36.1180 Y23.5659
G01 X36.1870 Y23.5693
G01 X36.2554 Y23.5794
G01 X36.3224 Y23.5962
G01 X36.3875 Y23.6195
G01 X36.4499 Y23.6490
G01 X36.5092 Y23.6845
G01 X36.5647 Y23.7257
G01 X36.6159 Y23.7721
G01 X36.6623 Y23.8233
G01 X36.7035 Y23.8788
G01 X36.7390 Y23.9381
G01 X36.7685 Y24.0005
G01 X36.7918 Y24.0656
G01 X36.8086 Y24.1326
G01 X36.8187 Y24.2010
G01 X36.8221 Y24.2700
G01 X36.8187 Y24.3390
G01 X36.8086 Y24.4073
G01 X36.7918 Y24.4744
G01 X36.7685 Y24.5394
G01 X36.7390 Y24.6019
G01 X36.7035 Y24.6612
G01 X36.6623 Y24.7167
G01 X36.6159 Y24.7678
G01 X36.5647 Y24.8143
G01 X36.5092 Y24.8554
G01 X36.4499 Y24.8909
G01 X36.3875 Y24.9205
G01 X36.3224 Y24.9438
G01 X36.2554 Y24.9605
G01 X36.1870 Y24.9707
G01 X36.1180 Y24.9741
G01 X36.0490 Y24.9707
G01 X35.9842 Y24.9612
G01 X35.9771 Y24.9597
G00 Z2.0000
G00 X36.2992 Y23.3162
G01 F30.00
G01 Z-0.0899
G01 F60.00
G01 X36.2298 Y23.3058
G01 X36.2132 Y23.3038
G01 X36.1965 Y23.3026
G01 X36.1348 Y23.2995
G01 X36.1180 Y23.2991
G01 X36.1013 Y23.2995
G01 X36.0395 Y23.3026
G01 X36.0229 Y23.3038
G01 X36.0063 Y23.3058
G01 X35.9451 Y23.3149
G01 X35.9286 Y23.3178
G01 X35.9164 Y23.3205
G01 X35.9199 Y23.3106
G01 X35.9250 Y23.2944
G01 X35.9311 Y23.2698
G01 X35.9353 Y23.2447
G01 X35.9371 Y23.2279
G01 X35.9381 Y23.2110
G01 X35.9379 Y23.1856
G01 X35.9359 Y23.1603
G01 X35.9247 Y23.0816
G01 X35.9218 Y23.0649
G01 X35.9160 Y23.0402
G01 X35.9084 Y23.0160
G01 X35.8991 Y22.9924
G01 X35.8879 Y22.9696
G01 X35.8752 Y22.9476
G01 X35.8608 Y22.9267
G01 X35.8503 Y22.9134
G01 X35.8294 Y22.8890
G01 X36.4013 Y22.8890
G01 X36.3907 Y22.9031
G01 X36.3812 Y22.9171
G01 X36.3684 Y22.9390
G01 X36.3607 Y22.9541
G01 X36.3248 Y23.0343
G01 X36.3159 Y23.0581
G01 X36.3088 Y23.0825
G01 X36.3036 Y23.1073
G01 X36.3002 Y23.1325
G01 X36.2986 Y23.1578
G01 X36.2990 Y23.1832
G01 X36.3013 Y23.2085
G01 X36.3131 Y23.2871
G01 X36.3161 Y23.3038
G01 X36.3200 Y23.3205
G01 X36.2992 Y23.3162
G00 Z2.0000
G00 X36.1180 Y23.1657
G01 F30.00
G01 Z-0.0899
G01 F60.00
G01 X36.0948 Y23.1663
G01 X36.0705 Y23.1675
G01 X36.0683 Y23.1446
G01 X36.0668 Y23.1329
G01 X36.0567 Y23.0626
G01 X36.0527 Y23.0394
G01 X36.0491 Y23.0224
G01 X36.1873 Y23.0224
G01 X36.1825 Y23.0386
G01 X36.1768 Y23.0614
G01 X36.1743 Y23.0730
G01 X36.1703 Y23.0962
G01 X36.1687 Y23.1078
G01 X36.1664 Y23.1313
G01 X36.1653 Y23.1548
G01 X36.1652 Y23.1675
G01 X36.1413 Y23.1663
G01 X36.1180 Y23.1657
G00 Z2.0000
G00 X36.0366 Y28.2848
G01 F30.00
G01 Z-0.0899
G01 F60.00
G01 X36.2273 Y28.2873
G01 X36.2320 Y28.2878
G01 X36.4192 Y28.3251
G01 X36.4237 Y28.3264
G01 X36.6009 Y28.3971
G01 X36.6049 Y28.3991
G01 X36.3265 Y28.6775
G01 X36.3189 Y28.6752
G01 X36.2589 Y28.6602
G01 X36.2518 Y28.6588
G01 X36.1870 Y28.6493
G01 X36.1180 Y28.6459
G01 X36.0490 Y28.6493
G01 X35.9842 Y28.6588
G01 X35.9771 Y28.6602
G01 X35.9171 Y28.6752
G01 X35.9096 Y28.6775
G01 X35.6327 Y28.4007
G01 X35.6560 Y28.3868
G01 X35.6603 Y28.3848
G01 X35.8393 Y28.3187
G01 X35.8438 Y28.3175
G01 X36.0319 Y28.2852
G01 X36.0366 Y28.2848
G00 Z2.0000
G00 X36.2814 Y28.5286
G01 F30.00
G01 Z-0.0899
G01 F60.00
G01 X36.2001 Y28.5165
G01 X36.1180 Y28.5125
G01 X36.0359 Y28.5165
G01 X35.9647 Y28.5268
G01 X35.9502 Y28.5295
G01 X35.8702 Y28.4495
G01 X35.8762 Y28.4473
G01 X36.0447 Y28.4183
G01 X36.2157 Y28.4206
G01 X36.3651 Y28.4503
G01 X36.2858 Y28.5295
G01 X36.2814 Y28.5286
G00 Z2.0000
G00 X36.8078 Y29.4909
G01 F30.00
G01 Z-0.0899
G01 F60.00
G01 X36.8092 Y29.4838
G01 X36.8183 Y29.4226
G01 X36.8190 Y29.4154
G01 X36.8221 Y29.3500
G01 X36.8190 Y29.2846
G01 X36.8183 Y29.2774
G01 X36.8086 Y29.2126
G01 X36.7928 Y29.1491
G01 X36.7905 Y29.1415
G01 X37.0658 Y28.8662
G01 X37.1145 Y28.9650
G01 X37.1162 Y28.9693
G01 X37.1680 Y29.1530
G01 X37.1688 Y29.1576
G01 X37.1867 Y29.3539
G01 X37.1852 Y29.4050
G01 X37.1573 Y29.5971
G01 X37.1562 Y29.6016
G01 X37.0949 Y29.7823
G01 X37.0930 Y29.7866
G01 X37.0663 Y29.8342
G01 X36.7905 Y29.5584
G01 X36.7928 Y29.5509
G01 X36.8078 Y29.4909
G00 Z2.0000
G00 X36.9515 Y29.4321
G01 F30.00
G01 Z-0.0899
G01 F60.00
G01 X36.9555 Y29.3500
G01 X36.9522 Y29.2780
G01 X36.9502 Y29.2578
G01 X36.9412 Y29.1966
G01 X36.9385 Y29.1822
G01 X37.0158 Y29.1048
G01 X37.0369 Y29.1797
G01 X37.0532 Y29.3568
G01 X37.0522 Y29.3921
G01 X37.0267 Y29.5681
G01 X37.0171 Y29.5964
G01 X36.9385 Y29.5178
G01 X36.9412 Y29.5033
G01 X36.9515 Y29.4321
G00 Z2.0000
G00 X36.0309 Y30.1829
G01 F30.00
G01 Z-0.0899
G01 F60.00
G01 X36.0461 Y30.1842
G01 X36.1078 Y30.1872
G01 X36.1282 Y30.1872
G01 X36.2001 Y30.1834
G01 X36.2714 Y30.1731
G01 X36.2858 Y30.1704
G01 X36.3645 Y30.2491
G01 X36.3362 Y30.2587
G01 X36.1669 Y30.2832
G01 X35.9960 Y30.2765
G01 X35.8722 Y30.2485
G01 X35.9502 Y30.1704
G01 X35.9647 Y30.1731
G01 X36.0309 Y30.1829
G00 Z2.0000
G00 X35.9171 Y30.0247
G01 F30.00
G01 Z-0.0899
G01 F60.00
G01 X35.9807 Y30.0405
G01 X36.0454 Y30.0502
G01 X36.0526 Y30.0510
G01 X36.1180 Y30.0541
G01 X36.1870 Y30.0507
G01 X36.2518 Y30.0412
G01 X36.2589 Y30.0397
G01 X36.3189 Y30.0247
G01 X36.3265 Y30.0224
G01 X36.6023 Y30.2982
G01 X36.5547 Y30.3249
G01 X36.5504 Y30.3268
G01 X36.3697 Y30.3882
G01 X36.3651 Y30.3893
G01 X36.1763 Y30.4166
G01 X36.1716 Y30.4169
G01 X35.9809 Y30.4094
G01 X35.9763 Y30.4088
G01 X35.7902 Y30.3667
G01 X35.7857 Y30.3652
G01 X35.6326 Y30.2994
G01 X35.9096 Y30.0224
G01 X35.9171 Y30.0247
G00 Z2.0000
G00 X35.2851 Y29.2628
G01 F30.00
G01 Z-0.0899
G01 F60.00
G01 X35.2838 Y29.2780
G01 X35.2808 Y29.3398
G01 X35.2808 Y29.3602
G01 X35.2846 Y29.4321
G01 X35.2949 Y29.5033
G01 X35.2976 Y29.5178
G01 X35.2202 Y29.5952
G01 X35.1950 Y29.4962
G01 X35.1838 Y29.3255
G01 X35.2039 Y29.1557
G01 X35.2198 Y29.1044
G01 X35.2976 Y29.1822
G01 X35.2949 Y29.1966
G01 X35.2851 Y29.2628
G00 Z2.0000
G00 X35.1703 Y28.8662
G01 F30.00
G01 Z-0.0899
G01 F60.00
G01 X35.4456 Y29.1415
G01 X35.4433 Y29.1491
G01 X35.4283 Y29.2091
G01 X35.4268 Y29.2162
G01 X35.4173 Y29.2810
G01 X35.4139 Y29.3500
G01 X35.4173 Y29.4190
G01 X35.4268 Y29.4838
G01 X35.4283 Y29.4909
G01 X35.4433 Y29.5509
G01 X35.4456 Y29.5584
G01 X35.1697 Y29.8343
G01 X35.1118 Y29.7088
G01 X35.1103 Y29.7043
G01 X35.0633 Y29.5194
G01 X35.0626 Y29.5148
G01 X35.0501 Y29.3244
G01 X35.0502 Y29.3197
G01 X35.0726 Y29.1302
G01 X35.0736 Y29.1256
G01 X35.1302 Y28.9434
G01 X35.1320 Y28.9390
G01 X35.1703 Y28.8662
G00 Z2.0000
G00 X43.6384 Y32.6616
G01 F30.00
G01 Z-0.0899
G01 F60.00
G01 X43.6384 Y44.9895
G01 X43.6390 Y45.0162
G01 X21.7390 Y45.0162
G01 X21.7396 Y44.9895
G01 X21.7396 Y32.6616
G01 X43.6384 Y32.6616
G00 Z2.0000
G00 X45.2926 Y39.0388
G01 F30.00
G01 Z-0.0899
G01 F60.00
G01 X45.3680 Y38.9158
G01 X45.5146 Y38.7441
G01 X45.6863 Y38.5974
G01 X45.8788 Y38.4795
G01 X46.0874 Y38.3931
G01 X46.3069 Y38.3404
G01 X46.5320 Y38.3226
G01 X46.7571 Y38.3404
G01 X46.9767 Y38.3931
G01 X47.1852 Y38.4795
G01 X47.3777 Y38.5974
G01 X47.5494 Y38.7441
G01 X47.6499 Y38.8617
G01 X47.6548 Y38.8669
G01 X47.6589 Y38.8705
G01 X47.6662 Y38.8759
G01 X47.7273 Y38.9152
G01 X47.7335 Y38.9188
G01 X47.7417 Y38.9223
G01 X47.7502 Y38.9249
G01 X47.7590 Y38.9265
G01 X47.7679 Y38.9269
G01 X47.8408 Y38.9264
G01 X47.8499 Y38.9255
G01 X47.8606 Y38.9230
G01 X47.8692 Y38.9197
G01 X47.8773 Y38.9154
G01 X47.9398 Y38.8746
G01 X47.9468 Y38.8692
G01 X47.9530 Y38.8630
G01 X48.0546 Y38.7441
G01 X48.2263 Y38.5974
G01 X48.4188 Y38.4795
G01 X48.6274 Y38.3931
G01 X48.8469 Y38.3404
G01 X49.0720 Y38.3226
G01 X49.2971 Y38.3404
G01 X49.5167 Y38.3931
G01 X49.7252 Y38.4795
G01 X49.9177 Y38.5974
G01 X50.0894 Y38.7441
G01 X50.1899 Y38.8617
G01 X50.1935 Y38.8656
G01 X50.1989 Y38.8705
G01 X50.2062 Y38.8759
G01 X50.2673 Y38.9152
G01 X50.2735 Y38.9188
G01 X50.2817 Y38.9223
G01 X50.2902 Y38.9249
G01 X50.2990 Y38.9265
G01 X50.3079 Y38.9269
G01 X50.3808 Y38.9264
G01 X50.3899 Y38.9255
G01 X50.4006 Y38.9230
G01 X50.4092 Y38.9197
G01 X50.4173 Y38.9154
G01 X50.4798 Y38.8746
G01 X50.4868 Y38.8692
G01 X50.4930 Y38.8630
G01 X50.5946 Y38.7441
G01 X50.7663 Y38.5974
G01 X50.9588 Y38.4795
G01 X51.1674 Y38.3931
G01 X51.3869 Y38.3404
G01 X51.6120 Y38.3226
G01 X51.8371 Y38.3404
G01 X52.0567 Y38.3931
G01 X52.2652 Y38.4795
G01 X52.4577 Y38.5974
G01 X52.6294 Y38.7441
G01 X52.7299 Y38.8617
G01 X52.7348 Y38.8669
G01 X52.7389 Y38.8705
G01 X52.7462 Y38.8759
G01 X52.8073 Y38.9152
G01 X52.8135 Y38.9188
G01 X52.8217 Y38.9223
G01 X52.8302 Y38.9249
G01 X52.8390 Y38.9265
G01 X52.8479 Y38.9269
G01 X52.9189 Y38.9264
G01 X52.9263 Y38.9260
G01 X52.9335 Y38.9249
G01 X52.9424 Y38.9224
G01 X52.9492 Y38.9197
G01 X52.9573 Y38.9154
G01 X53.0183 Y38.8756
G01 X53.0227 Y38.8725
G01 X53.0281 Y38.8680
G01 X53.0342 Y38.8617
G01 X53.1346 Y38.7441
G01 X53.3063 Y38.5974
G01 X53.4988 Y38.4795
G01 X53.7074 Y38.3931
G01 X53.9269 Y38.3404
G01 X54.1520 Y38.3226
G01 X54.3771 Y38.3404
G01 X54.5967 Y38.3931
G01 X54.8052 Y38.4795
G01 X54.9977 Y38.5974
G01 X55.1694 Y38.7441
G01 X55.3161 Y38.9158
G01 X55.4340 Y39.1083
G01 X55.5204 Y39.3168
G01 X55.5645 Y39.5003
G01 X55.5731 Y39.5364
G01 X55.5909 Y39.7615
G01 X55.5731 Y39.9866
G01 X55.5204 Y40.2061
G01 X55.4340 Y40.4147
G01 X55.3161 Y40.6072
G01 X55.1694 Y40.7789
G01 X54.9977 Y40.9255
G01 X54.8052 Y41.0435
G01 X54.5967 Y41.1299
G01 X54.3771 Y41.1826
G01 X54.1520 Y41.2003
G01 X53.9269 Y41.1826
G01 X53.7074 Y41.1299
G01 X53.4988 Y41.0435
G01 X53.3063 Y40.9255
G01 X53.1346 Y40.7789
G01 X53.0342 Y40.6613
G01 X53.0292 Y40.6560
G01 X53.0252 Y40.6524
G01 X53.0179 Y40.6471
G01 X52.9567 Y40.6078
G01 X52.9505 Y40.6042
G01 X52.9424 Y40.6006
G01 X52.9338 Y40.5980
G01 X52.9250 Y40.5965
G01 X52.9161 Y40.5960
G01 X52.8433 Y40.5965
G01 X52.8341 Y40.5974
G01 X52.8234 Y40.5999
G01 X52.8148 Y40.6032
G01 X52.8067 Y40.6076
G01 X52.7442 Y40.6484
G01 X52.7373 Y40.6538
G01 X52.7310 Y40.6600
G01 X52.6294 Y40.7789
G01 X52.4577 Y40.9255
G01 X52.2652 Y41.0435
G01 X52.0567 Y41.1299
G01 X51.8371 Y41.1826
G01 X51.6120 Y41.2003
G01 X51.3869 Y41.1826
G01 X51.1674 Y41.1299
G01 X50.9588 Y41.0435
G01 X50.7663 Y40.9255
G01 X50.5946 Y40.7789
G01 X50.4942 Y40.6613
G01 X50.4905 Y40.6573
G01 X50.4852 Y40.6524
G01 X50.4779 Y40.6471
G01 X50.4167 Y40.6078
G01 X50.4105 Y40.6042
G01 X50.4024 Y40.6006
G01 X50.3938 Y40.5980
G01 X50.3850 Y40.5965
G01 X50.3761 Y40.5960
G01 X50.3033 Y40.5965
G01 X50.2941 Y40.5974
G01 X50.2834 Y40.5999
G01 X50.2748 Y40.6032
G01 X50.2667 Y40.6076
G01 X50.2042 Y40.6484
G01 X50.1973 Y40.6538
G01 X50.1910 Y40.6600
G01 X50.0894 Y40.7789
G01 X49.9177 Y40.9255
G01 X49.7252 Y41.0435
G01 X49.5167 Y41.1299
G01 X49.2971 Y41.1826
G01 X49.0720 Y41.2003
G01 X48.8469 Y41.1826
G01 X48.6274 Y41.1299
G01 X48.4188 Y41.0435
G01 X48.2263 Y40.9255
G01 X48.0546 Y40.7789
G01 X47.9542 Y40.6613
G01 X47.9505 Y40.6573
G01 X47.9452 Y40.6524
G01 X47.9379 Y40.6471
G01 X47.8767 Y40.6078
G01 X47.8705 Y40.6042
G01 X47.8624 Y40.6006
G01 X47.8538 Y40.5980
G01 X47.8450 Y40.5965
G01 X47.8361 Y40.5960
G01 X47.7651 Y40.5965
G01 X47.7578 Y40.5969
G01 X47.7505 Y40.5981
G01 X47.7417 Y40.6005
G01 X47.7332 Y40.6040
G01 X47.7267 Y40.6076
G01 X47.6657 Y40.6474
G01 X47.6600 Y40.6515
G01 X47.6560 Y40.6549
G01 X47.6499 Y40.6613
G01 X47.5494 Y40.7789
G01 X47.3777 Y40.9255
G01 X47.1852 Y41.0435
G01 X46.9767 Y41.1299
G01 X46.7571 Y41.1826
G01 X46.5320 Y41.2003
G01 X46.3069 Y41.1826
G01 X46.0874 Y41.1299
G01 X45.8788 Y41.0435
G01 X45.6863 Y40.9255
G01 X45.5146 Y40.7789
G01 X45.3920 Y40.6353
G01 X45.3680 Y40.6072
G01 X45.2500 Y40.4147
G01 X45.1636 Y40.2061
G01 X45.1109 Y39.9866
G01 X45.0932 Y39.7615
G01 X45.1109 Y39.5364
G01 X45.1636 Y39.3168
G01 X45.2500 Y39.1083
G01 X45.2926 Y39.0388
G00 Z2.0000
G00 X45.4063 Y39.1085
G01 F30.00
G01 Z-0.0899
G01 F60.00
G01 X45.4762 Y38.9944
G01 X45.6092 Y38.8387
G01 X45.7649 Y38.7057
G01 X45.9395 Y38.5987
G01 X46.1287 Y38.5203
G01 X46.3279 Y38.4725
G01 X46.5320 Y38.4564
G01 X46.7362 Y38.4725
G01 X46.9353 Y38.5203
G01 X47.1245 Y38.5987
G01 X47.2991 Y38.7057
G01 X47.4548 Y38.8387
G01 X47.5518 Y38.9521
G01 X47.5660 Y38.9665
G01 X47.5776 Y38.9763
G01 X47.5857 Y38.9824
G01 X47.6595 Y39.0300
G01 X47.6725 Y39.0374
G01 X47.6861 Y39.0437
G01 X47.7001 Y39.0491
G01 X47.7096 Y39.0521
G01 X47.7291 Y39.0568
G01 X47.7489 Y39.0595
G01 X47.7689 Y39.0603
G01 X47.8450 Y39.0597
G01 X47.8604 Y39.0586
G01 X47.8757 Y39.0564
G01 X47.8858 Y39.0543
G01 X47.8958 Y39.0517
G01 X47.9056 Y39.0486
G01 X47.9153 Y39.0450
G01 X47.9248 Y39.0410
G01 X47.9340 Y39.0365
G01 X47.9430 Y39.0315
G01 X47.9518 Y39.0261
G01 X48.0154 Y38.9845
G01 X48.0273 Y38.9757
G01 X48.0385 Y38.9661
G01 X48.0490 Y38.9556
G01 X48.0556 Y38.9483
G01 X48.1492 Y38.8387
G01 X48.3049 Y38.7057
G01 X48.4795 Y38.5987
G01 X48.6687 Y38.5203
G01 X48.8679 Y38.4725
G01 X49.0720 Y38.4564
G01 X49.2762 Y38.4725
G01 X49.4753 Y38.5203
G01 X49.6645 Y38.5987
G01 X49.8391 Y38.7057
G01 X49.9948 Y38.8387
G01 X50.0918 Y38.9521
G01 X50.1060 Y38.9665
G01 X50.1216 Y38.9794
G01 X50.1340 Y38.9881
G01 X50.1952 Y39.0274
G01 X50.2125 Y39.0374
G01 X50.2261 Y39.0437
G01 X50.2401 Y39.0491
G01 X50.2545 Y39.0535
G01 X50.2740 Y39.0576
G01 X50.2889 Y39.0595
G01 X50.3089 Y39.0603
G01 X50.3850 Y39.0597
G01 X50.3953 Y39.0591
G01 X50.4056 Y39.0580
G01 X50.4157 Y39.0564
G01 X50.4258 Y39.0543
G01 X50.4358 Y39.0517
G01 X50.4456 Y39.0486
G01 X50.4600 Y39.0431
G01 X50.4694 Y39.0388
G01 X50.4786 Y39.0340
G01 X50.4875 Y39.0288
G01 X50.5554 Y38.9845
G01 X50.5673 Y38.9757
G01 X50.5785 Y38.9661
G01 X50.5890 Y38.9556
G01 X50.5956 Y38.9483
G01 X50.6892 Y38.8387
G01 X50.8449 Y38.7057
G01 X51.0195 Y38.5987
G01 X51.2087 Y38.5203
G01 X51.4079 Y38.4725
G01 X51.6120 Y38.4564
G01 X51.8162 Y38.4725
G01 X52.0153 Y38.5203
G01 X52.2045 Y38.5987
G01 X52.3791 Y38.7057
G01 X52.5348 Y38.8387
G01 X52.6284 Y38.9483
G01 X52.6387 Y38.9595
G01 X52.6460 Y38.9665
G01 X52.6576 Y38.9763
G01 X52.6698 Y38.9853
G01 X52.7395 Y39.0300
G01 X52.7570 Y39.0396
G01 X52.7661 Y39.0437
G01 X52.7801 Y39.0491
G01 X52.7993 Y39.0547
G01 X52.8190 Y39.0584
G01 X52.8339 Y39.0599
G01 X52.8489 Y39.0603
G01 X52.9199 Y39.0598
G01 X52.9302 Y39.0595
G01 X52.9404 Y39.0586
G01 X52.9557 Y39.0564
G01 X52.9658 Y39.0543
G01 X52.9758 Y39.0517
G01 X52.9905 Y39.0469
G01 X53.0000 Y39.0431
G01 X53.0094 Y39.0388
G01 X53.0230 Y39.0315
G01 X53.0318 Y39.0261
G01 X53.0913 Y38.9873
G01 X53.1034 Y38.9787
G01 X53.1185 Y38.9661
G01 X53.1324 Y38.9520
G01 X53.2292 Y38.8387
G01 X53.3849 Y38.7057
G01 X53.5595 Y38.5987
G01 X53.7487 Y38.5203
G01 X53.9479 Y38.4725
G01 X54.1520 Y38.4564
G01 X54.3562 Y38.4725
G01 X54.5553 Y38.5203
G01 X54.7445 Y38.5987
G01 X54.9191 Y38.7057
G01 X55.0748 Y38.8387
G01 X55.2078 Y38.9944
G01 X55.3148 Y39.1690
G01 X55.3932 Y39.3582
G01 X55.4348 Y39.5314
G01 X55.4410 Y39.5573
G01 X55.4571 Y39.7615
G01 X55.4410 Y39.9656
G01 X55.3932 Y40.1648
G01 X55.3148 Y40.3539
G01 X55.2078 Y40.5286
G01 X55.1032 Y40.6511
G01 X55.0748 Y40.6843
G01 X54.9191 Y40.8173
G01 X54.7445 Y40.9243
G01 X54.5553 Y41.0026
G01 X54.3562 Y41.0505
G01 X54.1520 Y41.0665
G01 X53.9479 Y41.0505
G01 X53.7487 Y41.0026
G01 X53.5595 Y40.9243
G01 X53.3849 Y40.8173
G01 X53.2292 Y40.6843
G01 X53.1323 Y40.5709
G01 X53.1180 Y40.5565
G01 X53.1025 Y40.5435
G01 X53.0900 Y40.5349
G01 X53.0246 Y40.4929
G01 X53.0115 Y40.4856
G01 X52.9979 Y40.4792
G01 X52.9792 Y40.4723
G01 X52.9599 Y40.4672
G01 X52.9401 Y40.4640
G01 X52.9252 Y40.4628
G01 X52.9152 Y40.4626
G01 X52.8390 Y40.4632
G01 X52.8236 Y40.4643
G01 X52.8083 Y40.4665
G01 X52.7982 Y40.4686
G01 X52.7883 Y40.4712
G01 X52.7784 Y40.4743
G01 X52.7688 Y40.4779
G01 X52.7593 Y40.4820
G01 X52.7500 Y40.4865
G01 X52.7410 Y40.4915
G01 X52.7322 Y40.4969
G01 X52.6687 Y40.5384
G01 X52.6568 Y40.5472
G01 X52.6456 Y40.5569
G01 X52.6385 Y40.5638
G01 X52.6284 Y40.5747
G01 X52.5348 Y40.6843
G01 X52.3791 Y40.8173
G01 X52.2045 Y40.9243
G01 X52.0153 Y41.0026
G01 X51.8162 Y41.0505
G01 X51.6120 Y41.0665
G01 X51.4079 Y41.0505
G01 X51.2087 Y41.0026
G01 X51.0195 Y40.9243
G01 X50.8449 Y40.8173
G01 X50.6892 Y40.6843
G01 X50.5923 Y40.5709
G01 X50.5780 Y40.5565
G01 X50.5625 Y40.5435
G01 X50.5500 Y40.5349
G01 X50.4846 Y40.4929
G01 X50.4715 Y40.4856
G01 X50.4579 Y40.4792
G01 X50.4392 Y40.4723
G01 X50.4199 Y40.4672
G01 X50.4001 Y40.4640
G01 X50.3852 Y40.4628
G01 X50.3752 Y40.4626
G01 X50.2990 Y40.4632
G01 X50.2887 Y40.4638
G01 X50.2734 Y40.4657
G01 X50.2633 Y40.4675
G01 X50.2532 Y40.4699
G01 X50.2384 Y40.4743
G01 X50.2288 Y40.4779
G01 X50.2193 Y40.4820
G01 X50.2100 Y40.4865
G01 X50.2010 Y40.4915
G01 X50.1287 Y40.5384
G01 X50.1168 Y40.5472
G01 X50.1092 Y40.5536
G01 X50.0985 Y40.5638
G01 X50.0917 Y40.5710
G01 X49.9948 Y40.6843
G01 X49.8391 Y40.8173
G01 X49.6645 Y40.9243
G01 X49.4753 Y41.0026
G01 X49.2762 Y41.0505
G01 X49.0720 Y41.0665
G01 X48.8679 Y41.0505
G01 X48.6687 Y41.0026
G01 X48.4795 Y40.9243
G01 X48.3049 Y40.8173
G01 X48.1492 Y40.6843
G01 X48.0523 Y40.5709
G01 X48.0453 Y40.5635
G01 X48.0343 Y40.5531
G01 X48.0184 Y40.5406
G01 X47.9446 Y40.4929
G01 X47.9315 Y40.4856
G01 X47.9179 Y40.4792
G01 X47.8992 Y40.4723
G01 X47.8799 Y40.4672
G01 X47.8601 Y40.4640
G01 X47.8452 Y40.4628
G01 X47.8352 Y40.4626
G01 X47.7590 Y40.4632
G01 X47.7436 Y40.4643
G01 X47.7283 Y40.4665
G01 X47.7182 Y40.4686
G01 X47.7083 Y40.4712
G01 X47.6984 Y40.4743
G01 X47.6888 Y40.4779
G01 X47.6793 Y40.4820
G01 X47.6700 Y40.4865
G01 X47.6610 Y40.4915
G01 X47.6522 Y40.4969
G01 X47.5887 Y40.5384
G01 X47.5768 Y40.5472
G01 X47.5656 Y40.5569
G01 X47.5585 Y40.5638
G01 X47.5484 Y40.5747
G01 X47.4548 Y40.6843
G01 X47.2991 Y40.8173
G01 X47.1245 Y40.9243
G01 X46.9353 Y41.0026
G01 X46.7362 Y41.0505
G01 X46.5320 Y41.0665
G01 X46.3279 Y41.0505
G01 X46.1287 Y41.0026
G01 X45.9395 Y40.9243
G01 X45.7649 Y40.8173
G01 X45.6092 Y40.6843
G01 X45.4762 Y40.5286
G01 X45.3692 Y40.3540
G01 X45.2909 Y40.1648
G01 X45.2430 Y39.9656
G01 X45.2270 Y39.7615
G01 X45.2430 Y39.5573
G01 X45.2909 Y39.3582
G01 X45.3692 Y39.1690
G01 X45.4063 Y39.1085
G00 Z2.0000
G00 X46.3189 Y40.8141
G01 F30.00
G01 Z-0.0899
G01 F60.00
G01 X46.2202 Y40.7893
G01 X46.1210 Y40.7538
G01 X46.0257 Y40.7087
G01 X45.9353 Y40.6546
G01 X45.8506 Y40.5918
G01 X45.7725 Y40.5210
G01 X45.7017 Y40.4429
G01 X45.6389 Y40.3582
G01 X45.5848 Y40.2678
G01 X45.5397 Y40.1725
G01 X45.5042 Y40.0733
G01 X45.4786 Y39.9710
G01 X45.4631 Y39.8668
G01 X45.4579 Y39.7615
G01 X45.4631 Y39.6562
G01 X45.4786 Y39.5519
G01 X45.5042 Y39.4497
G01 X45.5397 Y39.3504
G01 X45.5848 Y39.2551
G01 X45.6389 Y39.1647
G01 X45.7017 Y39.0801
G01 X45.7725 Y39.0020
G01 X45.8506 Y38.9312
G01 X45.9353 Y38.8684
G01 X46.0257 Y38.8142
G01 X46.1210 Y38.7691
G01 X46.2202 Y38.7336
G01 X46.3225 Y38.7080
G01 X46.4267 Y38.6925
G01 X46.5320 Y38.6874
G01 X46.6373 Y38.6925
G01 X46.7416 Y38.7080
G01 X46.8438 Y38.7336
G01 X46.9431 Y38.7691
G01 X47.0384 Y38.8142
G01 X47.1288 Y38.8684
G01 X47.2134 Y38.9312
G01 X47.2915 Y39.0020
G01 X47.3623 Y39.0801
G01 X47.4251 Y39.1647
G01 X47.4793 Y39.2551
G01 X47.5244 Y39.3504
G01 X47.5599 Y39.4497
G01 X47.5855 Y39.5519
G01 X47.6010 Y39.6562
G01 X47.6061 Y39.7615
G01 X47.6010 Y39.8668
G01 X47.5855 Y39.9710
G01 X47.5599 Y40.0733
G01 X47.5244 Y40.1725
G01 X47.4793 Y40.2678
G01 X47.4251 Y40.3582
G01 X47.3623 Y40.4429
G01 X47.2915 Y40.5210
G01 X47.2134 Y40.5918
G01 X47.1288 Y40.6546
G01 X47.0384 Y40.7087
G01 X46.9431 Y40.7538
G01 X46.8438 Y40.7893
G01 X46.7416 Y40.8149
G01 X46.6373 Y40.8304
G01 X46.5320 Y40.8356
G01 X46.4267 Y40.8304
G01 X46.3261 Y40.8156
G01 X46.3189 Y40.8141
G00 Z2.0000
G00 X46.2865 Y40.9435
G01 F30.00
G01 Z-0.0899
G01 F60.00
G01 X46.1815 Y40.9170
G01 X46.0699 Y40.8770
G01 X45.9628 Y40.8264
G01 X45.8612 Y40.7655
G01 X45.7660 Y40.6949
G01 X45.6782 Y40.6153
G01 X45.5986 Y40.5275
G01 X45.5280 Y40.4323
G01 X45.4671 Y40.3307
G01 X45.4165 Y40.2236
G01 X45.3765 Y40.1120
G01 X45.3477 Y39.9970
G01 X45.3304 Y39.8798
G01 X45.3245 Y39.7615
G01 X45.3304 Y39.6431
G01 X45.3477 Y39.5259
G01 X45.3765 Y39.4110
G01 X45.4165 Y39.2994
G01 X45.4671 Y39.1923
G01 X45.5280 Y39.0906
G01 X45.5986 Y38.9955
G01 X45.6782 Y38.9077
G01 X45.7660 Y38.8281
G01 X45.8612 Y38.7575
G01 X45.9628 Y38.6966
G01 X46.0699 Y38.6459
G01 X46.1815 Y38.6060
G01 X46.2965 Y38.5772
G01 X46.4137 Y38.5598
G01 X46.5320 Y38.5540
G01 X46.6504 Y38.5598
G01 X46.7676 Y38.5772
G01 X46.8825 Y38.6060
G01 X46.9941 Y38.6459
G01 X47.1012 Y38.6966
G01 X47.2029 Y38.7575
G01 X47.2980 Y38.8281
G01 X47.3858 Y38.9077
G01 X47.4654 Y38.9955
G01 X47.5360 Y39.0906
G01 X47.5969 Y39.1923
G01 X47.6476 Y39.2994
G01 X47.6875 Y39.4110
G01 X47.7163 Y39.5259
G01 X47.7337 Y39.6431
G01 X47.7395 Y39.7615
G01 X47.7337 Y39.8798
G01 X47.7163 Y39.9970
G01 X47.6875 Y40.1120
G01 X47.6476 Y40.2236
G01 X47.5969 Y40.3307
G01 X47.5360 Y40.4323
G01 X47.4654 Y40.5275
G01 X47.3858 Y40.6153
G01 X47.2980 Y40.6949
G01 X47.2029 Y40.7655
G01 X47.1012 Y40.8264
G01 X46.9941 Y40.8770
G01 X46.8825 Y40.9170
G01 X46.7676 Y40.9458
G01 X46.6504 Y40.9631
G01 X46.5320 Y40.9690
G01 X46.4137 Y40.9631
G01 X46.3065 Y40.9475
G01 X46.2865 Y40.9435
G00 Z2.0000
G00 X47.8589 Y40.3300
G01 F30.00
G01 Z-0.0899
G01 F60.00
G01 X47.8342 Y40.3293
G01 X47.7632 Y40.3298
G01 X47.7449 Y40.3304
G01 X47.7640 Y40.2899
G01 X47.7708 Y40.2746
G01 X47.7768 Y40.2590
G01 X47.8020 Y40.1886
G01 X47.8272 Y40.2590
G01 X47.8332 Y40.2746
G01 X47.8400 Y40.2899
G01 X47.8589 Y40.3300
G00 Z2.0000
G00 X48.8589 Y40.8141
G01 F30.00
G01 Z-0.0899
G01 F60.00
G01 X48.7602 Y40.7893
G01 X48.6610 Y40.7538
G01 X48.5657 Y40.7087
G01 X48.4753 Y40.6546
G01 X48.3906 Y40.5918
G01 X48.3125 Y40.5210
G01 X48.2417 Y40.4429
G01 X48.1789 Y40.3582
G01 X48.1248 Y40.2678
G01 X48.0797 Y40.1725
G01 X48.0442 Y40.0733
G01 X48.0186 Y39.9710
G01 X48.0031 Y39.8668
G01 X47.9979 Y39.7615
G01 X48.0031 Y39.6562
G01 X48.0186 Y39.5519
G01 X48.0442 Y39.4497
G01 X48.0797 Y39.3504
G01 X48.1248 Y39.2551
G01 X48.1789 Y39.1647
G01 X48.2417 Y39.0801
G01 X48.3125 Y39.0020
G01 X48.3906 Y38.9312
G01 X48.4753 Y38.8684
G01 X48.5657 Y38.8142
G01 X48.6610 Y38.7691
G01 X48.7602 Y38.7336
G01 X48.8625 Y38.7080
G01 X48.9667 Y38.6925
G01 X49.0720 Y38.6874
G01 X49.1773 Y38.6925
G01 X49.2816 Y38.7080
G01 X49.3838 Y38.7336
G01 X49.4831 Y38.7691
G01 X49.5784 Y38.8142
G01 X49.6688 Y38.8684
G01 X49.7534 Y38.9312
G01 X49.8315 Y39.0020
G01 X49.9023 Y39.0801
G01 X49.9651 Y39.1647
G01 X50.0193 Y39.2551
G01 X50.0644 Y39.3504
G01 X50.0999 Y39.4497
G01 X50.1255 Y39.5519
G01 X50.1410 Y39.6562
G01 X50.1461 Y39.7615
G01 X50.1410 Y39.8668
G01 X50.1255 Y39.9710
G01 X50.0999 Y40.0733
G01 X50.0644 Y40.1725
G01 X50.0193 Y40.2678
G01 X49.9651 Y40.3582
G01 X49.9023 Y40.4429
G01 X49.8315 Y40.5210
G01 X49.7534 Y40.5918
G01 X49.6688 Y40.6546
G01 X49.5784 Y40.7087
G01 X49.4831 Y40.7538
G01 X49.3838 Y40.7893
G01 X49.2816 Y40.8149
G01 X49.1773 Y40.8304
G01 X49.0720 Y40.8356
G01 X48.9667 Y40.8304
G01 X48.8661 Y40.8156
G01 X48.8589 Y40.8141
G00 Z2.0000
G00 X48.8265 Y40.9435
G01 F30.00
G01 Z-0.0899
G01 F60.00
G01 X48.7215 Y40.9170
G01 X48.6099 Y40.8770
G01 X48.5028 Y40.8264
G01 X48.4012 Y40.7655
G01 X48.3060 Y40.6949
G01 X48.2182 Y40.6153
G01 X48.1386 Y40.5275
G01 X48.0680 Y40.4323
G01 X48.0071 Y40.3307
G01 X47.9565 Y40.2236
G01 X47.9165 Y40.1120
G01 X47.8877 Y39.9970
G01 X47.8704 Y39.8798
G01 X47.8645 Y39.7615
G01 X47.8704 Y39.6431
G01 X47.8877 Y39.5259
G01 X47.9165 Y39.4110
G01 X47.9565 Y39.2994
G01 X48.0071 Y39.1923
G01 X48.0680 Y39.0906
G01 X48.1386 Y38.9955
G01 X48.2182 Y38.9077
G01 X48.3060 Y38.8281
G01 X48.4012 Y38.7575
G01 X48.5028 Y38.6966
G01 X48.6099 Y38.6459
G01 X48.7215 Y38.6060
G01 X48.8365 Y38.5772
G01 X48.9537 Y38.5598
G01 X49.0720 Y38.5540
G01 X49.1904 Y38.5598
G01 X49.3076 Y38.5772
G01 X49.4225 Y38.6060
G01 X49.5341 Y38.6459
G01 X49.6412 Y38.6966
G01 X49.7429 Y38.7575
G01 X49.8380 Y38.8281
G01 X49.9258 Y38.9077
G01 X50.0054 Y38.9955
G01 X50.0760 Y39.0906
G01 X50.1369 Y39.1923
G01 X50.1876 Y39.2994
G01 X50.2275 Y39.4110
G01 X50.2563 Y39.5259
G01 X50.2737 Y39.6431
G01 X50.2795 Y39.7615
G01 X50.2737 Y39.8798
G01 X50.2563 Y39.9970
G01 X50.2275 Y40.1120
G01 X50.1876 Y40.2236
G01 X50.1369 Y40.3307
G01 X50.0760 Y40.4323
G01 X50.0054 Y40.5275
G01 X49.9258 Y40.6153
G01 X49.8380 Y40.6949
G01 X49.7429 Y40.7655
G01 X49.6412 Y40.8264
G01 X49.5341 Y40.8770
G01 X49.4225 Y40.9170
G01 X49.3076 Y40.9458
G01 X49.1904 Y40.9631
G01 X49.0720 Y40.9690
G01 X48.9537 Y40.9631
G01 X48.8465 Y40.9475
G01 X48.8265 Y40.9435
G00 Z2.0000
G00 X50.3989 Y40.3300
G01 F30.00
G01 Z-0.0899
G01 F60.00
G01 X50.3742 Y40.3293
G01 X50.3032 Y40.3298
G01 X50.2849 Y40.3304
G01 X50.3040 Y40.2899
G01 X50.3108 Y40.2746
G01 X50.3168 Y40.2590
G01 X50.3420 Y40.1886
G01 X50.3672 Y40.2590
G01 X50.3732 Y40.2746
G01 X50.3800 Y40.2899
G01 X50.3989 Y40.3300
G00 Z2.0000
G00 X51.3989 Y40.8141
G01 F30.00
G01 Z-0.0899
G01 F60.00
G01 X51.3002 Y40.7893
G01 X51.2010 Y40.7538
G01 X51.1057 Y40.7087
G01 X51.0153 Y40.6546
G01 X50.9306 Y40.5918
G01 X50.8525 Y40.5210
G01 X50.7817 Y40.4429
G01 X50.7189 Y40.3582
G01 X50.6648 Y40.2678
G01 X50.6197 Y40.1725
G01 X50.5842 Y40.0733
G01 X50.5586 Y39.9710
G01 X50.5431 Y39.8668
G01 X50.5379 Y39.7615
G01 X50.5431 Y39.6562
G01 X50.5586 Y39.5519
G01 X50.5842 Y39.4497
G01 X50.6197 Y39.3504
G01 X50.6648 Y39.2551
G01 X50.7189 Y39.1647
G01 X50.7817 Y39.0801
G01 X50.8525 Y39.0020
G01 X50.9306 Y38.9312
G01 X51.0153 Y38.8684
G01 X51.1057 Y38.8142
G01 X51.2010 Y38.7691
G01 X51.3002 Y38.7336
G01 X51.4025 Y38.7080
G01 X51.5067 Y38.6925
G01 X51.6120 Y38.6874
G01 X51.7173 Y38.6925
G01 X51.8216 Y38.7080
G01 X51.9238 Y38.7336
G01 X52.0231 Y38.7691
G01 X52.1184 Y38.8142
G01 X52.2088 Y38.8684
G01 X52.2934 Y38.9312
G01 X52.3715 Y39.0020
G01 X52.4423 Y39.0801
G01 X52.5051 Y39.1647
G01 X52.5593 Y39.2551
G01 X52.6044 Y39.3504
G01 X52.6399 Y39.4497
G01 X52.6655 Y39.5519
G01 X52.6810 Y39.6562
G01 X52.6861 Y39.7615
G01 X52.6810 Y39.8668
G01 X52.6655 Y39.9710
G01 X52.6399 Y40.0733
G01 X52.6044 Y40.1725
G01 X52.5593 Y40.2678
G01 X52.5051 Y40.3582
G01 X52.4423 Y40.4429
G01 X52.3715 Y40.5210
G01 X52.2934 Y40.5918
G01 X52.2088 Y40.6546
G01 X52.1184 Y40.7087
G01 X52.0231 Y40.7538
G01 X51.9238 Y40.7893
G01 X51.8216 Y40.8149
G01 X51.7173 Y40.8304
G01 X51.6120 Y40.8356
G01 X51.5067 Y40.8304
G01 X51.4061 Y40.8156
G01 X51.3989 Y40.8141
G00 Z2.0000
G00 X51.3665 Y40.9435
G01 F30.00
G01 Z-0.0899
G01 F60.00
G01 X51.2615 Y40.9170
G01 X51.1499 Y40.8770
G01 X51.0428 Y40.8264
G01 X50.9412 Y40.7655
G01 X50.8460 Y40.6949
G01 X50.7582 Y40.6153
G01 X50.6786 Y40.5275
G01 X50.6080 Y40.4323
G01 X50.5471 Y40.3307
G01 X50.4965 Y40.2236
G01 X50.4565 Y40.1120
G01 X50.4277 Y39.9970
G01 X50.4104 Y39.8798
G01 X50.4045 Y39.7615
G01 X50.4104 Y39.6431
G01 X50.4277 Y39.5259
G01 X50.4565 Y39.4110
G01 X50.4965 Y39.2994
G01 X50.5471 Y39.1923
G01 X50.6080 Y39.0906
G01 X50.6786 Y38.9955
G01 X50.7582 Y38.9077
G01 X50.8460 Y38.8281
G01 X50.9412 Y38.7575
G01 X51.0428 Y38.6966
G01 X51.1499 Y38.6459
G01 X51.2615 Y38.6060
G01 X51.3765 Y38.5772
G01 X51.4937 Y38.5598
G01 X51.6120 Y38.5540
G01 X51.7304 Y38.5598
G01 X51.8476 Y38.5772
G01 X51.9625 Y38.6060
G01 X52.0741 Y38.6459
G01 X52.1812 Y38.6966
G01 X52.2829 Y38.7575
G01 X52.3780 Y38.8281
G01 X52.4658 Y38.9077
G01 X52.5454 Y38.9955
G01 X52.6160 Y39.0906
G01 X52.6769 Y39.1923
G01 X52.7276 Y39.2994
G01 X52.7675 Y39.4110
G01 X52.7963 Y39.5259
G01 X52.8137 Y39.6431
G01 X52.8195 Y39.7615
G01 X52.8137 Y39.8798
G01 X52.7963 Y39.9970
G01 X52.7675 Y40.1120
G01 X52.7276 Y40.2236
G01 X52.6769 Y40.3307
G01 X52.6160 Y40.4323
G01 X52.5454 Y40.5275
G01 X52.4658 Y40.6153
G01 X52.3780 Y40.6949
G01 X52.2829 Y40.7655
G01 X52.1812 Y40.8264
G01 X52.0741 Y40.8770
G01 X51.9625 Y40.9170
G01 X51.8476 Y40.9458
G01 X51.7304 Y40.9631
G01 X51.6120 Y40.9690
G01 X51.4937 Y40.9631
G01 X51.3865 Y40.9475
G01 X51.3665 Y40.9435
G00 Z2.0000
G00 X52.9389 Y40.3300
G01 F30.00
G01 Z-0.0899
G01 F60.00
G01 X52.9142 Y40.3293
G01 X52.8432 Y40.3298
G01 X52.8249 Y40.3304
G01 X52.8440 Y40.2899
G01 X52.8508 Y40.2746
G01 X52.8568 Y40.2590
G01 X52.8820 Y40.1886
G01 X52.9072 Y40.2590
G01 X52.9132 Y40.2746
G01 X52.9200 Y40.2899
G01 X52.9389 Y40.3300
G00 Z2.0000
G00 X53.9389 Y40.8141
G01 F30.00
G01 Z-0.0899
G01 F60.00
G01 X53.8402 Y40.7893
G01 X53.7410 Y40.7538
G01 X53.6457 Y40.7087
G01 X53.5553 Y40.6546
G01 X53.4706 Y40.5918
G01 X53.3925 Y40.5210
G01 X53.3217 Y40.4429
G01 X53.2589 Y40.3582
G01 X53.2048 Y40.2678
G01 X53.1597 Y40.1725
G01 X53.1242 Y40.0733
G01 X53.0986 Y39.9710
G01 X53.0831 Y39.8668
G01 X53.0779 Y39.7615
G01 X53.0831 Y39.6562
G01 X53.0986 Y39.5519
G01 X53.1242 Y39.4497
G01 X53.1597 Y39.3504
G01 X53.2048 Y39.2551
G01 X53.2589 Y39.1647
G01 X53.3217 Y39.0801
G01 X53.3925 Y39.0020
G01 X53.4706 Y38.9312
G01 X53.5553 Y38.8684
G01 X53.6457 Y38.8142
G01 X53.7410 Y38.7691
G01 X53.8402 Y38.7336
G01 X53.9425 Y38.7080
G01 X54.0467 Y38.6925
G01 X54.1520 Y38.6874
G01 X54.2573 Y38.6925
G01 X54.3616 Y38.7080
G01 X54.4638 Y38.7336
G01 X54.5631 Y38.7691
G01 X54.6584 Y38.8142
G01 X54.7488 Y38.8684
G01 X54.8334 Y38.9312
G01 X54.9115 Y39.0020
G01 X54.9823 Y39.0801
G01 X55.0451 Y39.1647
G01 X55.0993 Y39.2551
G01 X55.1444 Y39.3504
G01 X55.1799 Y39.4497
G01 X55.2055 Y39.5519
G01 X55.2210 Y39.6562
G01 X55.2261 Y39.7615
G01 X55.2210 Y39.8668
G01 X55.2055 Y39.9710
G01 X55.1799 Y40.0733
G01 X55.1444 Y40.1725
G01 X55.0993 Y40.2678
G01 X55.0451 Y40.3582
G01 X54.9823 Y40.4429
G01 X54.9115 Y40.5210
G01 X54.8334 Y40.5918
G01 X54.7488 Y40.6546
G01 X54.6584 Y40.7087
G01 X54.5631 Y40.7538
G01 X54.4638 Y40.7893
G01 X54.3616 Y40.8149
G01 X54.2573 Y40.8304
G01 X54.1520 Y40.8356
G01 X54.0467 Y40.8304
G01 X53.9461 Y40.8156
G01 X53.9389 Y40.8141
G00 Z2.0000
G00 X53.9065 Y40.9435
G01 F30.00
G01 Z-0.0899
G01 F60.00
G01 X53.8015 Y40.9170
G01 X53.6899 Y40.8770
G01 X53.5828 Y40.8264
G01 X53.4812 Y40.7655
G01 X53.3860 Y40.6949
G01 X53.2982 Y40.6153
G01 X53.2186 Y40.5275
G01 X53.1480 Y40.4323
G01 X53.0871 Y40.3307
G01 X53.0365 Y40.2236
G01 X52.9965 Y40.1120
G01 X52.9677 Y39.9970
G01 X52.9504 Y39.8798
G01 X52.9445 Y39.7615
G01 X52.9504 Y39.6431
G01 X52.9677 Y39.5259
G01 X52.9965 Y39.4110
G01 X53.0365 Y39.2994
G01 X53.0871 Y39.1923
G01 X53.1480 Y39.0906
G01 X53.2186 Y38.9955
G01 X53.2982 Y38.9077
G01 X53.3860 Y38.8281
G01 X53.4812 Y38.7575
G01 X53.5828 Y38.6966
G01 X53.6899 Y38.6459
G01 X53.8015 Y38.6060
G01 X53.9165 Y38.5772
G01 X54.0337 Y38.5598
G01 X54.1520 Y38.5540
G01 X54.2704 Y38.5598
G01 X54.3876 Y38.5772
G01 X54.5025 Y38.6060
G01 X54.6141 Y38.6459
G01 X54.7212 Y38.6966
G01 X54.8229 Y38.7575
G01 X54.9180 Y38.8281
G01 X55.0058 Y38.9077
G01 X55.0854 Y38.9955
G01 X55.1560 Y39.0906
G01 X55.2169 Y39.1923
G01 X55.2676 Y39.2994
G01 X55.3075 Y39.4110
G01 X55.3363 Y39.5259
G01 X55.3537 Y39.6431
G01 X55.3595 Y39.7615
G01 X55.3537 Y39.8798
G01 X55.3363 Y39.9970
G01 X55.3075 Y40.1120
G01 X55.2676 Y40.2236
G01 X55.2169 Y40.3307
G01 X55.1560 Y40.4323
G01 X55.0854 Y40.5275
G01 X55.0058 Y40.6153
G01 X54.9180 Y40.6949
G01 X54.8229 Y40.7655
G01 X54.7212 Y40.8264
G01 X54.6141 Y40.8770
G01 X54.5025 Y40.9170
G01 X54.3876 Y40.9458
G01 X54.2704 Y40.9631
G01 X54.1520 Y40.9690
G01 X54.0337 Y40.9631
G01 X53.9265 Y40.9475
G01 X53.9065 Y40.9435
G00 Z2.0000
G00 X52.8252 Y39.1930
G01 F30.00
G01 Z-0.0899
G01 F60.00
G01 X52.8498 Y39.1937
G01 X52.9208 Y39.1932
G01 X52.9392 Y39.1926
G01 X52.9200 Y39.2331
G01 X52.9132 Y39.2484
G01 X52.9072 Y39.2640
G01 X52.8820 Y39.3343
G01 X52.8568 Y39.2640
G01 X52.8508 Y39.2484
G01 X52.8440 Y39.2331
G01 X52.8252 Y39.1930
G00 Z2.0000
G00 X50.2852 Y39.1930
G01 F30.00
G01 Z-0.0899
G01 F60.00
G01 X50.3098 Y39.1937
G01 X50.3808 Y39.1932
G01 X50.3992 Y39.1926
G01 X50.3800 Y39.2331
G01 X50.3732 Y39.2484
G01 X50.3672 Y39.2640
G01 X50.3420 Y39.3343
G01 X50.3168 Y39.2640
G01 X50.3108 Y39.2484
G01 X50.3040 Y39.2331
G01 X50.2852 Y39.1930
G00 Z2.0000
G00 X47.7452 Y39.1930
G01 F30.00
G01 Z-0.0899
G01 F60.00
G01 X47.7698 Y39.1937
G01 X47.8408 Y39.1932
G01 X47.8592 Y39.1926
G01 X47.8400 Y39.2331
G01 X47.8332 Y39.2484
G01 X47.8272 Y39.2640
G01 X47.8020 Y39.3343
G01 X47.7768 Y39.2640
G01 X47.7708 Y39.2484
G01 X47.7640 Y39.2331
G01 X47.7452 Y39.1930
G00 Z2.0000
G00 X58.0877 Y40.8260
G01 F30.00
G01 Z-0.0899
G01 F60.00
G01 X58.1579 Y40.7324
G01 X58.1630 Y40.7273
G01 X58.2566 Y40.6572
G01 X58.2629 Y40.6537
G01 X58.3741 Y40.6120
G01 X58.3803 Y40.6105
G01 X58.4274 Y40.6056
G01 X58.9039 Y40.6056
G01 X58.9039 Y40.9654
G01 X58.4700 Y40.9654
G01 X58.4628 Y40.9657
G01 X58.4520 Y40.9676
G01 X58.4417 Y40.9710
G01 X58.4319 Y40.9759
G01 X58.4244 Y40.9811
G01 X58.4164 Y40.9884
G01 X58.4094 Y40.9968
G01 X58.4038 Y41.0062
G01 X58.4003 Y41.0145
G01 X58.3981 Y41.0215
G01 X58.3970 Y41.0268
G01 X58.3963 Y41.0322
G01 X58.3959 Y41.0395
G01 X58.3959 Y41.9734
G01 X58.0361 Y41.9734
G01 X58.0361 Y40.9968
G01 X58.0411 Y40.9497
G01 X58.0426 Y40.9435
G01 X58.0842 Y40.8324
G01 X58.0877 Y40.8260
G00 Z2.0000
G00 X58.4082 Y40.7417
G01 F30.00
G01 Z-0.0899
G01 F60.00
G01 X58.4332 Y40.7390
G01 X58.7705 Y40.7390
G01 X58.7705 Y40.8320
G01 X58.4700 Y40.8320
G01 X58.4497 Y40.8330
G01 X58.4295 Y40.8360
G01 X58.4098 Y40.8409
G01 X58.3906 Y40.8478
G01 X58.3813 Y40.8519
G01 X58.3678 Y40.8589
G01 X58.3506 Y40.8698
G01 X58.3345 Y40.8824
G01 X58.3198 Y40.8964
G01 X58.3129 Y40.9040
G01 X58.3034 Y40.9159
G01 X58.2921 Y40.9328
G01 X58.2870 Y40.9417
G01 X58.2803 Y40.9554
G01 X58.2747 Y40.9696
G01 X58.2715 Y40.9792
G01 X58.2676 Y40.9940
G01 X58.2648 Y41.0090
G01 X58.2631 Y41.0242
G01 X58.2626 Y41.0344
G01 X58.2625 Y41.8400
G01 X58.1695 Y41.8400
G01 X58.1695 Y41.0026
G01 X58.1722 Y40.9776
G01 X58.2037 Y40.8937
G01 X58.2553 Y40.8248
G01 X58.3242 Y40.7732
G01 X58.4082 Y40.7417
G00 Z2.0000
G00 X60.2075 Y40.6572
G01 F30.00
G01 Z-0.0899
G01 F60.00
G01 X60.3011 Y40.7273
G01 X60.3062 Y40.7324
G01 X60.3763 Y40.8260
G01 X60.3798 Y40.8324
G01 X60.4215 Y40.9435
G01 X60.4230 Y40.9497
G01 X60.4279 Y40.9968
G01 X60.4279 Y41.9734
G01 X60.0681 Y41.9734
G01 X60.0681 Y41.0377
G01 X60.0676 Y41.0304
G01 X60.0667 Y41.0250
G01 X60.0649 Y41.0180
G01 X60.0632 Y41.0128
G01 X60.0610 Y41.0078
G01 X60.0576 Y41.0014
G01 X60.0535 Y40.9953
G01 X60.0501 Y40.9911
G01 X60.0451 Y40.9858
G01 X60.0382 Y40.9800
G01 X60.0321 Y40.9759
G01 X60.0257 Y40.9725
G01 X60.0190 Y40.9697
G01 X60.0120 Y40.9676
G01 X60.0049 Y40.9662
G01 X59.9977 Y40.9655
G01 X59.5601 Y40.9654
G01 X59.5601 Y40.6056
G01 X60.0395 Y40.6057
G01 X60.0838 Y40.6105
G01 X60.0900 Y40.6120
G01 X60.2011 Y40.6537
G01 X60.2075 Y40.6572
G00 Z2.0000
G00 X60.2918 Y40.9776
G01 F30.00
G01 Z-0.0899
G01 F60.00
G01 X60.2945 Y41.0026
G01 X60.2945 Y41.8400
G01 X60.2015 Y41.8400
G01 X60.2014 Y41.0344
G01 X60.1999 Y41.0141
G01 X60.1965 Y40.9940
G01 X60.1910 Y40.9744
G01 X60.1857 Y40.9601
G01 X60.1816 Y40.9508
G01 X60.1770 Y40.9417
G01 X60.1693 Y40.9285
G01 X60.1576 Y40.9118
G01 X60.1511 Y40.9040
G01 X60.1407 Y40.8928
G01 X60.1256 Y40.8791
G01 X60.1135 Y40.8698
G01 X60.1050 Y40.8642
G01 X60.0873 Y40.8541
G01 X60.0687 Y40.8459
G01 X60.0543 Y40.8409
G01 X60.0444 Y40.8382
G01 X60.0295 Y40.8350
G01 X60.0194 Y40.8336
G01 X59.9991 Y40.8321
G01 X59.6935 Y40.8320
G01 X59.6935 Y40.7390
G01 X60.0309 Y40.7390
G01 X60.0559 Y40.7417
G01 X60.1398 Y40.7732
G01 X60.2087 Y40.8248
G01 X60.2603 Y40.8937
G01 X60.2918 Y40.9776
G00 Z2.0000
G00 X60.0031 Y43.6370
G01 F30.00
G01 Z-0.0899
G01 F60.00
G01 X60.0085 Y43.6362
G01 X60.0155 Y43.6344
G01 X60.0224 Y43.6319
G01 X60.0273 Y43.6297
G01 X60.0321 Y43.6270
G01 X60.0382 Y43.6230
G01 X60.0438 Y43.6184
G01 X60.0477 Y43.6146
G01 X60.0513 Y43.6105
G01 X60.0556 Y43.6046
G01 X60.0585 Y43.6000
G01 X60.0618 Y43.5935
G01 X60.0638 Y43.5884
G01 X60.0659 Y43.5815
G01 X60.0670 Y43.5761
G01 X60.0679 Y43.5689
G01 X60.0681 Y42.6296
G01 X60.4279 Y42.6296
G01 X60.4279 Y43.6061
G01 X60.4230 Y43.6532
G01 X60.4215 Y43.6594
G01 X60.3798 Y43.7706
G01 X60.3763 Y43.7769
G01 X60.3062 Y43.8705
G01 X60.3011 Y43.8756
G01 X60.2075 Y43.9458
G01 X60.2011 Y43.9493
G01 X60.0900 Y43.9909
G01 X60.0838 Y43.9924
G01 X60.0367 Y43.9974
G01 X59.5601 Y43.9974
G01 X59.5601 Y43.6376
G01 X59.9940 Y43.6376
G01 X60.0031 Y43.6370
G00 Z2.0000
G00 X60.0194 Y43.7694
G01 F30.00
G01 Z-0.0899
G01 F60.00
G01 X60.0345 Y43.7670
G01 X60.0494 Y43.7634
G01 X60.0639 Y43.7588
G01 X60.0781 Y43.7532
G01 X60.0918 Y43.7465
G01 X60.1050 Y43.7388
G01 X60.1176 Y43.7301
G01 X60.1295 Y43.7206
G01 X60.1407 Y43.7102
G01 X60.1511 Y43.6990
G01 X60.1607 Y43.6871
G01 X60.1693 Y43.6745
G01 X60.1770 Y43.6613
G01 X60.1837 Y43.6476
G01 X60.1894 Y43.6334
G01 X60.1940 Y43.6188
G01 X60.1965 Y43.6089
G01 X60.1993 Y43.5939
G01 X60.2009 Y43.5787
G01 X60.2015 Y43.5635
G01 X60.2015 Y42.7630
G01 X60.2945 Y42.7630
G01 X60.2945 Y43.6003
G01 X60.2918 Y43.6253
G01 X60.2603 Y43.7093
G01 X60.2087 Y43.7782
G01 X60.1398 Y43.8298
G01 X60.0559 Y43.8613
G01 X60.0309 Y43.8640
G01 X59.6935 Y43.8640
G01 X59.6935 Y43.7710
G01 X59.9940 Y43.7710
G01 X60.0093 Y43.7704
G01 X60.0194 Y43.7694
G00 Z2.0000
G00 X58.3963 Y43.5707
G01 F30.00
G01 Z-0.0899
G01 F60.00
G01 X58.3973 Y43.5779
G01 X58.3986 Y43.5832
G01 X58.4023 Y43.5935
G01 X58.4047 Y43.5984
G01 X58.4084 Y43.6046
G01 X58.4116 Y43.6091
G01 X58.4164 Y43.6146
G01 X58.4216 Y43.6196
G01 X58.4259 Y43.6230
G01 X58.4304 Y43.6261
G01 X58.4367 Y43.6297
G01 X58.4434 Y43.6326
G01 X58.4485 Y43.6344
G01 X58.4556 Y43.6362
G01 X58.4610 Y43.6370
G01 X58.4700 Y43.6376
G01 X58.9039 Y43.6376
G01 X58.9039 Y43.9974
G01 X58.4274 Y43.9974
G01 X58.3803 Y43.9924
G01 X58.3741 Y43.9909
G01 X58.2629 Y43.9493
G01 X58.2566 Y43.9458
G01 X58.1630 Y43.8756
G01 X58.1579 Y43.8705
G01 X58.0877 Y43.7769
G01 X58.0842 Y43.7706
G01 X58.0426 Y43.6594
G01 X58.0411 Y43.6532
G01 X58.0361 Y43.6061
G01 X58.0361 Y42.6296
G01 X58.3959 Y42.6296
G01 X58.3959 Y43.5635
G01 X58.3963 Y43.5707
G00 Z2.0000
G00 X58.2635 Y43.5838
G01 F30.00
G01 Z-0.0899
G01 F60.00
G01 X58.2648 Y43.5939
G01 X58.2676 Y43.6089
G01 X58.2715 Y43.6237
G01 X58.2747 Y43.6334
G01 X58.2803 Y43.6476
G01 X58.2847 Y43.6568
G01 X58.2895 Y43.6657
G01 X58.2975 Y43.6787
G01 X58.3034 Y43.6871
G01 X58.3129 Y43.6990
G01 X58.3270 Y43.7137
G01 X58.3345 Y43.7206
G01 X58.3464 Y43.7301
G01 X58.3590 Y43.7388
G01 X58.3678 Y43.7440
G01 X58.3813 Y43.7510
G01 X58.3906 Y43.7552
G01 X58.4098 Y43.7620
G01 X58.4295 Y43.7670
G01 X58.4446 Y43.7694
G01 X58.4548 Y43.7704
G01 X58.4700 Y43.7710
G01 X58.7705 Y43.7710
G01 X58.7705 Y43.8640
G01 X58.4332 Y43.8640
G01 X58.4082 Y43.8613
G01 X58.3242 Y43.8298
G01 X58.2553 Y43.7782
G01 X58.2037 Y43.7093
G01 X58.1722 Y43.6253
G01 X58.1695 Y43.6003
G01 X58.1695 Y42.7630
G01 X58.2625 Y42.7630
G01 X58.2625 Y43.5635
G01 X58.2635 Y43.5838
G00 Z2.0000
G00 X63.1781 Y43.6370
G01 F30.00
G01 Z-0.0899
G01 F60.00
G01 X63.1690 Y43.6376
G01 X61.6432 Y43.6376
G01 X61.6342 Y43.6368
G01 X61.6235 Y43.6344
G01 X61.6150 Y43.6312
G01 X61.6069 Y43.6270
G01 X61.5994 Y43.6219
G01 X61.5926 Y43.6159
G01 X61.5866 Y43.6091
G01 X61.5815 Y43.6016
G01 X61.5766 Y43.5918
G01 X61.5736 Y43.5832
G01 X61.5717 Y43.5743
G01 X61.5709 Y43.5635
G01 X61.5709 Y41.0395
G01 X61.5715 Y41.0304
G01 X61.5736 Y41.0197
G01 X61.5766 Y41.0111
G01 X61.5806 Y41.0030
G01 X61.5855 Y40.9953
G01 X61.5926 Y40.9871
G01 X61.5994 Y40.9811
G01 X61.6069 Y40.9759
G01 X61.6167 Y40.9710
G01 X61.6253 Y40.9681
G01 X61.6360 Y40.9659
G01 X61.6450 Y40.9654
G01 X63.1708 Y40.9654
G01 X63.1799 Y40.9662
G01 X63.1888 Y40.9681
G01 X63.1974 Y40.9710
G01 X63.2055 Y40.9750
G01 X63.2132 Y40.9800
G01 X63.2201 Y40.9858
G01 X63.2274 Y40.9939
G01 X63.2326 Y41.0014
G01 X63.2368 Y41.0094
G01 X63.2404 Y41.0197
G01 X63.2426 Y41.0304
G01 X63.2431 Y41.0395
G01 X63.2431 Y43.5653
G01 X63.2426 Y43.5725
G01 X63.2413 Y43.5797
G01 X63.2394 Y43.5867
G01 X63.2375 Y43.5918
G01 X63.2344 Y43.5984
G01 X63.2316 Y43.6031
G01 X63.2274 Y43.6091
G01 X63.2239 Y43.6132
G01 X63.2201 Y43.6171
G01 X63.2146 Y43.6219
G01 X63.2102 Y43.6251
G01 X63.2040 Y43.6288
G01 X63.1974 Y43.6319
G01 X63.1905 Y43.6344
G01 X63.1853 Y43.6358
G01 X63.1781 Y43.6370
G00 Z2.0000
G00 X63.1944 Y43.7694
G01 F30.00
G01 Z-0.0899
G01 F60.00
G01 X63.1843 Y43.7704
G01 X63.1690 Y43.7710
G01 X61.6348 Y43.7707
G01 X61.6247 Y43.7700
G01 X61.6096 Y43.7679
G01 X61.5996 Y43.7659
G01 X61.5848 Y43.7620
G01 X61.5704 Y43.7571
G01 X61.5563 Y43.7510
G01 X61.5472 Y43.7465
G01 X61.5340 Y43.7388
G01 X61.5214 Y43.7301
G01 X61.5134 Y43.7239
G01 X61.5020 Y43.7137
G01 X61.4948 Y43.7065
G01 X61.4846 Y43.6951
G01 X61.4784 Y43.6871
G01 X61.4725 Y43.6787
G01 X61.4645 Y43.6657
G01 X61.4597 Y43.6568
G01 X61.4533 Y43.6429
G01 X61.4497 Y43.6334
G01 X61.4451 Y43.6188
G01 X61.4426 Y43.6089
G01 X61.4398 Y43.5939
G01 X61.4381 Y43.5787
G01 X61.4375 Y43.5635
G01 X61.4376 Y41.0344
G01 X61.4381 Y41.0242
G01 X61.4398 Y41.0090
G01 X61.4415 Y40.9990
G01 X61.4451 Y40.9841
G01 X61.4497 Y40.9696
G01 X61.4533 Y40.9601
G01 X61.4597 Y40.9462
G01 X61.4671 Y40.9328
G01 X61.4725 Y40.9242
G01 X61.4815 Y40.9118
G01 X61.4913 Y40.9001
G01 X61.4983 Y40.8928
G01 X61.5095 Y40.8824
G01 X61.5214 Y40.8728
G01 X61.5340 Y40.8642
G01 X61.5428 Y40.8589
G01 X61.5563 Y40.8519
G01 X61.5656 Y40.8478
G01 X61.5751 Y40.8441
G01 X61.5897 Y40.8395
G01 X61.5996 Y40.8370
G01 X61.6146 Y40.8342
G01 X61.6247 Y40.8330
G01 X61.6399 Y40.8321
G01 X63.1792 Y40.8322
G01 X63.1894 Y40.8330
G01 X63.2045 Y40.8350
G01 X63.2194 Y40.8382
G01 X63.2341 Y40.8425
G01 X63.2484 Y40.8478
G01 X63.2577 Y40.8519
G01 X63.2713 Y40.8589
G01 X63.2800 Y40.8642
G01 X63.2885 Y40.8698
G01 X63.3006 Y40.8791
G01 X63.3084 Y40.8857
G01 X63.3193 Y40.8964
G01 X63.3261 Y40.9040
G01 X63.3357 Y40.9159
G01 X63.3415 Y40.9242
G01 X63.3496 Y40.9372
G01 X63.3566 Y40.9508
G01 X63.3626 Y40.9648
G01 X63.3660 Y40.9744
G01 X63.3703 Y40.9891
G01 X63.3735 Y41.0040
G01 X63.3749 Y41.0141
G01 X63.3763 Y41.0293
G01 X63.3765 Y41.0395
G01 X63.3763 Y43.5737
G01 X63.3749 Y43.5889
G01 X63.3715 Y43.6089
G01 X63.3660 Y43.6286
G01 X63.3587 Y43.6476
G01 X63.3496 Y43.6657
G01 X63.3415 Y43.6787
G01 X63.3294 Y43.6951
G01 X63.3193 Y43.7065
G01 X63.3084 Y43.7172
G01 X63.2926 Y43.7301
G01 X63.2757 Y43.7414
G01 X63.2623 Y43.7488
G01 X63.2484 Y43.7552
G01 X63.2293 Y43.7620
G01 X63.2095 Y43.7670
G01 X63.1944 Y43.7694
G00 Z2.0000
G00 X63.4025 Y43.8123
G01 F30.00
G01 Z-0.0899
G01 F60.00
G01 X63.4022 Y43.8121
G01 X63.4100 Y43.8045
G01 X63.4216 Y43.7924
G01 X63.4330 Y43.7791
G01 X63.4330 Y43.8363
G01 X63.4161 Y43.8223
G01 X63.4025 Y43.8123
G00 Z2.0000
G00 X63.2897 Y45.5383
G01 F30.00
G01 Z-0.0899
G01 F60.00
G01 X63.2996 Y45.5361
G01 X63.2996 Y45.5660
G01 X63.2897 Y45.5383
G00 Z2.0000
G00 X63.2988 Y46.5096
G01 F30.00
G01 Z-0.0899
G01 F60.00
G01 X63.2905 Y46.5074
G01 X63.2996 Y46.4820
G01 X63.2996 Y46.5098
G01 X63.2988 Y46.5096
G00 Z2.0000
G00 X63.3492 Y46.6746
G01 F30.00
G01 Z-0.0899
G01 F60.00
G01 X63.3269 Y46.6624
G01 X63.3116 Y46.6552
G01 X63.2960 Y46.6488
G01 X63.2719 Y46.6406
G01 X63.2556 Y46.6362
G01 X63.2390 Y46.6325
G01 X63.2140 Y46.6286
G01 X63.1887 Y46.6266
G01 X63.1717 Y46.6263
G01 X63.0958 Y46.6269
G01 X63.1310 Y46.5524
G01 X63.1378 Y46.5371
G01 X63.1438 Y46.5215
G01 X63.1769 Y46.4291
G01 X63.1845 Y46.4052
G01 X63.2105 Y46.3019
G01 X63.2141 Y46.2856
G01 X63.2170 Y46.2691
G01 X63.2314 Y46.1720
G01 X63.2334 Y46.1554
G01 X63.2347 Y46.1387
G01 X63.2395 Y46.0407
G01 X63.2399 Y46.0240
G01 X63.2395 Y46.0072
G01 X63.2347 Y45.9092
G01 X63.2334 Y45.8925
G01 X63.2314 Y45.8759
G01 X63.2170 Y45.7789
G01 X63.2141 Y45.7624
G01 X63.2105 Y45.7461
G01 X63.1845 Y45.6428
G01 X63.1769 Y45.6189
G01 X63.1438 Y45.5265
G01 X63.1378 Y45.5109
G01 X63.1310 Y45.4956
G01 X63.0974 Y45.4244
G01 X63.1110 Y45.4251
G01 X63.1279 Y45.4252
G01 X63.1449 Y45.4244
G01 X63.1617 Y45.4229
G01 X63.2487 Y45.4104
G01 X63.2736 Y45.4052
G01 X63.2980 Y45.3982
G01 X63.3140 Y45.3925
G01 X63.3296 Y45.3861
G01 X63.3524 Y45.3749
G01 X63.3672 Y45.3666
G01 X63.3884 Y45.3527
G01 X63.4020 Y45.3426
G01 X63.4330 Y45.3163
G01 X63.4330 Y46.7283
G01 X63.4164 Y46.7170
G01 X63.3492 Y46.6746
G00 Z2.0000
G00 X64.6604 Y50.3340
G01 F30.00
G01 Z-0.0899
G01 F60.00
G01 X64.6998 Y50.3151
G01 X64.6998 Y32.2976
G01 X64.6613 Y32.2836
G01 X64.5661 Y32.2384
G01 X64.4773 Y32.1851
G01 X64.3940 Y32.1234
G01 X64.3172 Y32.0540
G01 X64.3120 Y32.0488
G01 X64.2437 Y31.9734
G01 X64.1820 Y31.8902
G01 X64.1285 Y31.8015
G01 X64.1251 Y31.7951
G01 X64.0817 Y31.7030
G01 X64.0462 Y31.6038
G01 X64.0206 Y31.5015
G01 X64.0055 Y31.4009
G01 X64.0048 Y31.3936
G01 X63.9999 Y31.2902
G01 X64.0051 Y31.1867
G01 X64.0206 Y31.0824
G01 X64.0462 Y30.9802
G01 X64.0817 Y30.8809
G01 X64.1268 Y30.7856
G01 X64.1809 Y30.6952
G01 X64.2437 Y30.6106
G01 X64.3145 Y30.5325
G01 X64.3926 Y30.4617
G01 X64.4773 Y30.3989
G01 X64.5677 Y30.3447
G01 X64.6630 Y30.2996
G01 X64.7622 Y30.2641
G01 X64.8645 Y30.2385
G01 X64.9687 Y30.2230
G01 X65.0758 Y30.2179
G01 X65.1793 Y30.2230
G01 X65.2836 Y30.2385
G01 X65.3858 Y30.2641
G01 X65.4851 Y30.2996
G01 X65.5804 Y30.3447
G01 X65.6708 Y30.3989
G01 X65.7554 Y30.4617
G01 X65.8335 Y30.5325
G01 X65.9043 Y30.6106
G01 X65.9671 Y30.6952
G01 X66.0213 Y30.7856
G01 X66.0664 Y30.8809
G01 X66.1019 Y30.9802
G01 X66.1275 Y31.0824
G01 X66.1430 Y31.1867
G01 X66.1481 Y31.2902
G01 X66.1432 Y31.3936
G01 X66.1425 Y31.4009
G01 X66.1275 Y31.5015
G01 X66.1019 Y31.6038
G01 X66.0664 Y31.7030
G01 X66.0229 Y31.7951
G01 X66.0195 Y31.8015
G01 X65.9661 Y31.8902
G01 X65.9043 Y31.9734
G01 X65.8360 Y32.0488
G01 X65.8309 Y32.0540
G01 X65.7540 Y32.1234
G01 X65.6708 Y32.1851
G01 X65.5819 Y32.2384
G01 X65.4867 Y32.2836
G01 X65.4483 Y32.2976
G01 X65.4483 Y50.3151
G01 X65.4877 Y50.3340
G01 X65.5581 Y50.3762
G01 X65.6299 Y50.4295
G01 X65.6921 Y50.4859
G01 X65.7473 Y50.5467
G01 X65.7520 Y50.5523
G01 X65.8018 Y50.6199
G01 X65.8449 Y50.6919
G01 X65.8801 Y50.7661
G01 X65.8829 Y50.7729
G01 X65.9105 Y50.8502
G01 X65.9313 Y50.9334
G01 X65.9435 Y51.0147
G01 X65.9442 Y51.0219
G01 X65.9481 Y51.1040
G01 X65.9442 Y51.1860
G01 X65.9435 Y51.1933
G01 X65.9313 Y51.2745
G01 X65.9115 Y51.3542
G01 X65.9093 Y51.3612
G01 X65.8816 Y51.4385
G01 X65.8465 Y51.5128
G01 X65.8431 Y51.5192
G01 X65.8008 Y51.5896
G01 X65.7520 Y51.6556
G01 X65.7473 Y51.6613
G01 X65.6921 Y51.7221
G01 X65.6285 Y51.7797
G01 X65.5626 Y51.8287
G01 X65.5566 Y51.8327
G01 X65.4861 Y51.8749
G01 X65.4085 Y51.9115
G01 X65.3278 Y51.9404
G01 X65.2446 Y51.9613
G01 X65.1597 Y51.9739
G01 X65.0740 Y51.9781
G01 X64.9883 Y51.9739
G01 X64.9035 Y51.9613
G01 X64.8203 Y51.9404
G01 X64.7395 Y51.9115
G01 X64.6620 Y51.8749
G01 X64.5884 Y51.8308
G01 X64.5195 Y51.7797
G01 X64.4559 Y51.7221
G01 X64.3983 Y51.6585
G01 X64.3472 Y51.5896
G01 X64.3031 Y51.5160
G01 X64.2665 Y51.4385
G01 X64.2376 Y51.3577
G01 X64.2167 Y51.2745
G01 X64.2041 Y51.1897
G01 X64.1999 Y51.1040
G01 X64.2041 Y51.0183
G01 X64.2167 Y50.9334
G01 X64.2376 Y50.8502
G01 X64.2665 Y50.7695
G01 X64.3031 Y50.6919
G01 X64.3472 Y50.6184
G01 X64.3983 Y50.5495
G01 X64.4559 Y50.4859
G01 X64.5195 Y50.4283
G01 X64.5884 Y50.3772
G01 X64.6604 Y50.3340
G00 Z2.0000
G00 X63.8038 Y51.0023
G01 F30.00
G01 Z-0.0899
G01 F60.00
G01 X63.8021 Y50.9791
G01 X63.8008 Y50.9675
G01 X63.7964 Y50.9367
G01 X63.8143 Y50.9189
G01 X63.8072 Y50.9675
G01 X63.8049 Y50.9907
G01 X63.8040 Y51.0060
G01 X63.8038 Y51.0023
G00 Z2.0000
G00 X63.9036 Y51.3225
G01 F30.00
G01 Z-0.0899
G01 F60.00
G01 X63.8873 Y51.3180
G01 X63.8708 Y51.3143
G01 X63.8457 Y51.3104
G01 X63.8204 Y51.3083
G01 X63.8035 Y51.3079
G01 X63.7866 Y51.3084
G01 X63.7613 Y51.3107
G01 X63.7446 Y51.3133
G01 X63.7280 Y51.3167
G01 X63.7116 Y51.3210
G01 X63.6504 Y51.3384
G01 X63.6530 Y51.3265
G01 X63.6558 Y51.3101
G01 X63.6673 Y51.2324
G01 X63.6694 Y51.2158
G01 X63.6706 Y51.1991
G01 X63.6745 Y51.1207
G01 X63.6749 Y51.1040
G01 X63.6745 Y51.0872
G01 X63.6706 Y51.0088
G01 X63.6694 Y50.9922
G01 X63.6673 Y50.9755
G01 X63.6546 Y50.8900
G01 X64.4330 Y50.1115
G01 X64.4330 Y50.1603
G01 X64.3635 Y50.2118
G01 X64.3503 Y50.2221
G01 X64.3376 Y50.2330
G01 X64.2794 Y50.2857
G01 X64.2615 Y50.3033
G01 X64.2031 Y50.3676
G01 X64.1921 Y50.3802
G01 X64.1818 Y50.3934
G01 X64.1351 Y50.4565
G01 X64.1254 Y50.4701
G01 X64.1165 Y50.4843
G01 X64.0761 Y50.5516
G01 X64.0640 Y50.5736
G01 X64.0233 Y50.6597
G01 X64.0140 Y50.6830
G01 X63.9875 Y50.7569
G01 X63.9823 Y50.7728
G01 X63.9778 Y50.7889
G01 X63.9588 Y50.8651
G01 X63.9551 Y50.8814
G01 X63.9522 Y50.8979
G01 X63.9407 Y50.9755
G01 X63.9387 Y50.9922
G01 X63.9374 Y51.0088
G01 X63.9336 Y51.0872
G01 X63.9332 Y51.1040
G01 X63.9336 Y51.1207
G01 X63.9374 Y51.1991
G01 X63.9387 Y51.2158
G01 X63.9407 Y51.2324
G01 X63.9522 Y51.3101
G01 X63.9551 Y51.3265
G01 X63.9578 Y51.3389
G01 X63.9036 Y51.3225
G00 Z2.0000
G00 X66.2444 Y50.8855
G01 F30.00
G01 Z-0.0899
G01 F60.00
G01 X66.2690 Y50.8919
G01 X66.2856 Y50.8952
G01 X66.3023 Y50.8976
G01 X66.3276 Y50.8997
G01 X66.3446 Y50.9000
G01 X66.3615 Y50.8995
G01 X66.3868 Y50.8972
G01 X66.4035 Y50.8946
G01 X66.4201 Y50.8912
G01 X66.4365 Y50.8870
G01 X66.4977 Y50.8695
G01 X66.4951 Y50.8814
G01 X66.4922 Y50.8979
G01 X66.4807 Y50.9755
G01 X66.4787 Y50.9922
G01 X66.4774 Y51.0088
G01 X66.4736 Y51.0872
G01 X66.4732 Y51.1040
G01 X66.4736 Y51.1207
G01 X66.4774 Y51.1991
G01 X66.4787 Y51.2158
G01 X66.4807 Y51.2324
G01 X66.4922 Y51.3101
G01 X66.4951 Y51.3265
G01 X66.4978 Y51.3389
G01 X66.4355 Y51.3201
G01 X66.4108 Y51.3143
G01 X66.3941 Y51.3115
G01 X66.3773 Y51.3094
G01 X66.3604 Y51.3083
G01 X66.3435 Y51.3079
G01 X66.3266 Y51.3084
G01 X66.3097 Y51.3097
G01 X66.2929 Y51.3119
G01 X66.2762 Y51.3149
G01 X66.2516 Y51.3210
G01 X66.1904 Y51.3384
G01 X66.1930 Y51.3265
G01 X66.1958 Y51.3101
G01 X66.2073 Y51.2324
G01 X66.2094 Y51.2158
G01 X66.2106 Y51.1991
G01 X66.2145 Y51.1207
G01 X66.2149 Y51.1040
G01 X66.2145 Y51.0872
G01 X66.2106 Y51.0088
G01 X66.2094 Y50.9922
G01 X66.2073 Y50.9755
G01 X66.1958 Y50.8979
G01 X66.1930 Y50.8814
G01 X66.1903 Y50.8691
G01 X66.2444 Y50.8855
G00 Z2.0000
G00 X67.7828 Y51.9616
G01 F30.00
G01 Z-0.0899
G01 F60.00
G01 X67.6997 Y51.9739
G01 X67.6140 Y51.9781
G01 X67.5283 Y51.9739
G01 X67.4435 Y51.9613
G01 X67.3603 Y51.9404
G01 X67.2795 Y51.9115
G01 X67.2020 Y51.8749
G01 X67.1284 Y51.8308
G01 X67.0595 Y51.7797
G01 X66.9959 Y51.7221
G01 X66.9383 Y51.6585
G01 X66.8872 Y51.5896
G01 X66.8431 Y51.5160
G01 X66.8065 Y51.4385
G01 X66.7776 Y51.3577
G01 X66.7567 Y51.2745
G01 X66.7441 Y51.1897
G01 X66.7399 Y51.1040
G01 X66.7441 Y51.0183
G01 X66.7567 Y50.9334
G01 X66.7776 Y50.8502
G01 X66.8065 Y50.7695
G01 X66.8431 Y50.6919
G01 X66.8872 Y50.6184
G01 X66.9383 Y50.5495
G01 X66.9959 Y50.4859
G01 X67.0595 Y50.4283
G01 X67.1284 Y50.3772
G01 X67.2020 Y50.3331
G01 X67.2795 Y50.2964
G01 X67.3603 Y50.2675
G01 X67.4435 Y50.2467
G01 X67.5283 Y50.2341
G01 X67.6140 Y50.2299
G01 X67.6997 Y50.2341
G01 X67.7846 Y50.2467
G01 X67.8678 Y50.2675
G01 X67.9485 Y50.2964
G01 X68.0261 Y50.3331
G01 X68.0996 Y50.3772
G01 X68.1685 Y50.4283
G01 X68.2321 Y50.4859
G01 X68.2897 Y50.5495
G01 X68.3408 Y50.6184
G01 X68.3849 Y50.6919
G01 X68.4216 Y50.7695
G01 X68.4505 Y50.8502
G01 X68.4713 Y50.9334
G01 X68.4839 Y51.0183
G01 X68.4881 Y51.1040
G01 X68.4839 Y51.1897
G01 X68.4713 Y51.2745
G01 X68.4505 Y51.3577
G01 X68.4216 Y51.4385
G01 X68.3849 Y51.5160
G01 X68.3408 Y51.5896
G01 X68.2897 Y51.6585
G01 X68.2321 Y51.7221
G01 X68.1685 Y51.7797
G01 X68.0996 Y51.8308
G01 X68.0261 Y51.8749
G01 X67.9485 Y51.9115
G01 X67.8678 Y51.9404
G01 X67.7828 Y51.9616
G00 Z2.0000
G00 X67.8056 Y52.0930
G01 F30.00
G01 Z-0.0899
G01 F60.00
G01 X67.7128 Y52.1066
G01 X67.6140 Y52.1115
G01 X67.5153 Y52.1066
G01 X67.4175 Y52.0921
G01 X67.3216 Y52.0681
G01 X67.2285 Y52.0348
G01 X67.1391 Y51.9925
G01 X67.0543 Y51.9417
G01 X66.9749 Y51.8828
G01 X66.9016 Y51.8164
G01 X66.8352 Y51.7431
G01 X66.7763 Y51.6637
G01 X66.7255 Y51.5789
G01 X66.6832 Y51.4895
G01 X66.6499 Y51.3964
G01 X66.6259 Y51.3005
G01 X66.6114 Y51.2027
G01 X66.6065 Y51.1040
G01 X66.6114 Y51.0052
G01 X66.6259 Y50.9074
G01 X66.6499 Y50.8115
G01 X66.6832 Y50.7184
G01 X66.7255 Y50.6291
G01 X66.7763 Y50.5442
G01 X66.8352 Y50.4648
G01 X66.9016 Y50.3916
G01 X66.9749 Y50.3252
G01 X67.0543 Y50.2663
G01 X67.1391 Y50.2155
G01 X67.2285 Y50.1732
G01 X67.3216 Y50.1399
G01 X67.4175 Y50.1159
G01 X67.5153 Y50.1013
G01 X67.6140 Y50.0965
G01 X67.7128 Y50.1013
G01 X67.8106 Y50.1159
G01 X67.9065 Y50.1399
G01 X67.9996 Y50.1732
G01 X68.0889 Y50.2155
G01 X68.1738 Y50.2663
G01 X68.2532 Y50.3252
G01 X68.3264 Y50.3916
G01 X68.3928 Y50.4648
G01 X68.4517 Y50.5442
G01 X68.5025 Y50.6291
G01 X68.5448 Y50.7184
G01 X68.5781 Y50.8115
G01 X68.6021 Y50.9074
G01 X68.6167 Y51.0052
G01 X68.6215 Y51.1040
G01 X68.6167 Y51.2027
G01 X68.6021 Y51.3005
G01 X68.5781 Y51.3964
G01 X68.5448 Y51.4895
G01 X68.5025 Y51.5789
G01 X68.4517 Y51.6637
G01 X68.3928 Y51.7431
G01 X68.3264 Y51.8164
G01 X68.2532 Y51.8828
G01 X68.1738 Y51.9417
G01 X68.0889 Y51.9925
G01 X67.9996 Y52.0348
G01 X67.9065 Y52.0681
G01 X67.8205 Y52.0899
G01 X67.8056 Y52.0930
G00 Z2.0000
G00 X68.7844 Y50.8855
G01 F30.00
G01 Z-0.0899
G01 F60.00
G01 X68.8007 Y50.8900
G01 X68.8172 Y50.8936
G01 X68.8423 Y50.8976
G01 X68.8676 Y50.8997
G01 X68.8846 Y50.9000
G01 X68.9015 Y50.8995
G01 X68.9184 Y50.8982
G01 X68.9351 Y50.8960
G01 X68.9601 Y50.8912
G01 X68.9765 Y50.8870
G01 X69.0377 Y50.8695
G01 X69.0351 Y50.8814
G01 X69.0322 Y50.8979
G01 X69.0207 Y50.9755
G01 X69.0187 Y50.9922
G01 X69.0174 Y51.0088
G01 X69.0136 Y51.0872
G01 X69.0132 Y51.1040
G01 X69.0136 Y51.1207
G01 X69.0174 Y51.1991
G01 X69.0187 Y51.2158
G01 X69.0207 Y51.2324
G01 X69.0322 Y51.3101
G01 X69.0351 Y51.3265
G01 X69.0378 Y51.3389
G01 X68.9755 Y51.3201
G01 X68.9508 Y51.3143
G01 X68.9341 Y51.3115
G01 X68.9173 Y51.3094
G01 X68.9004 Y51.3083
G01 X68.8835 Y51.3079
G01 X68.8666 Y51.3084
G01 X68.8497 Y51.3097
G01 X68.8329 Y51.3119
G01 X68.8162 Y51.3149
G01 X68.7916 Y51.3210
G01 X68.7304 Y51.3384
G01 X68.7330 Y51.3265
G01 X68.7358 Y51.3101
G01 X68.7473 Y51.2324
G01 X68.7494 Y51.2158
G01 X68.7506 Y51.1991
G01 X68.7545 Y51.1207
G01 X68.7549 Y51.1040
G01 X68.7545 Y51.0872
G01 X68.7506 Y51.0088
G01 X68.7494 Y50.9922
G01 X68.7473 Y50.9755
G01 X68.7358 Y50.8979
G01 X68.7330 Y50.8814
G01 X68.7303 Y50.8691
G01 X68.7844 Y50.8855
G00 Z2.0000
G00 X70.3228 Y51.9616
G01 F30.00
G01 Z-0.0899
G01 F60.00
G01 X70.2397 Y51.9739
G01 X70.1540 Y51.9781
G01 X70.0683 Y51.9739
G01 X69.9835 Y51.9613
G01 X69.9003 Y51.9404
G01 X69.8195 Y51.9115
G01 X69.7420 Y51.8749
G01 X69.6684 Y51.8308
G01 X69.5995 Y51.7797
G01 X69.5359 Y51.7221
G01 X69.4783 Y51.6585
G01 X69.4272 Y51.5896
G01 X69.3831 Y51.5160
G01 X69.3465 Y51.4385
G01 X69.3176 Y51.3577
G01 X69.2967 Y51.2745
G01 X69.2841 Y51.1897
G01 X69.2799 Y51.1040
G01 X69.2841 Y51.0183
G01 X69.2967 Y50.9334
G01 X69.3176 Y50.8502
G01 X69.3465 Y50.7695
G01 X69.3831 Y50.6919
G01 X69.4272 Y50.6184
G01 X69.4783 Y50.5495
G01 X69.5359 Y50.4859
G01 X69.5995 Y50.4283
G01 X69.6684 Y50.3772
G01 X69.7420 Y50.3331
G01 X69.8195 Y50.2964
G01 X69.9003 Y50.2675
G01 X69.9835 Y50.2467
G01 X70.0683 Y50.2341
G01 X70.1540 Y50.2299
G01 X70.2397 Y50.2341
G01 X70.3246 Y50.2467
G01 X70.4078 Y50.2675
G01 X70.4885 Y50.2964
G01 X70.5661 Y50.3331
G01 X70.6396 Y50.3772
G01 X70.7085 Y50.4283
G01 X70.7721 Y50.4859
G01 X70.8297 Y50.5495
G01 X70.8808 Y50.6184
G01 X70.9249 Y50.6919
G01 X70.9616 Y50.7695
G01 X70.9905 Y50.8502
G01 X71.0113 Y50.9334
G01 X71.0239 Y51.0183
G01 X71.0281 Y51.1040
G01 X71.0239 Y51.1897
G01 X71.0113 Y51.2745
G01 X70.9905 Y51.3577
G01 X70.9616 Y51.4385
G01 X70.9249 Y51.5160
G01 X70.8808 Y51.5896
G01 X70.8297 Y51.6585
G01 X70.7721 Y51.7221
G01 X70.7085 Y51.7797
G01 X70.6396 Y51.8308
G01 X70.5661 Y51.8749
G01 X70.4885 Y51.9115
G01 X70.4078 Y51.9404
G01 X70.3228 Y51.9616
G00 Z2.0000
G00 X70.3456 Y52.0930
G01 F30.00
G01 Z-0.0899
G01 F60.00
G01 X70.2528 Y52.1066
G01 X70.1540 Y52.1115
G01 X70.0553 Y52.1066
G01 X69.9575 Y52.0921
G01 X69.8616 Y52.0681
G01 X69.7685 Y52.0348
G01 X69.6791 Y51.9925
G01 X69.5943 Y51.9417
G01 X69.5149 Y51.8828
G01 X69.4416 Y51.8164
G01 X69.3752 Y51.7431
G01 X69.3163 Y51.6637
G01 X69.2655 Y51.5789
G01 X69.2232 Y51.4895
G01 X69.1899 Y51.3964
G01 X69.1659 Y51.3005
G01 X69.1514 Y51.2027
G01 X69.1465 Y51.1040
G01 X69.1514 Y51.0052
G01 X69.1659 Y50.9074
G01 X69.1899 Y50.8115
G01 X69.2232 Y50.7184
G01 X69.2655 Y50.6291
G01 X69.3163 Y50.5442
G01 X69.3752 Y50.4648
G01 X69.4416 Y50.3916
G01 X69.5149 Y50.3252
G01 X69.5943 Y50.2663
G01 X69.6791 Y50.2155
