(G-CODE GENERATED BY FLATCAM v8.994 - www.flatcam.org - Version Date: 2020/11/7)

(Name: pet_puller_shield-Edge_Cuts.gbr_cutout_cnc)
(Type: G-code from Geometry)
(Units: MM)

(Created on Sunday, 09 February 2025 at 15:24)

(This preprocessor is the default preprocessor used by FlatCAM.)
(It is made to work with MACH3 compatible motion controllers.)

(TOOL DIAMETER: 1.4 mm)
(Feedrate_XY: 120.0 mm/min)
(Feedrate_Z: 60.0 mm/min)
(Feedrate rapids 1500.0 mm/min)

(Z_Cut: -1.8 mm)
(DepthPerCut: 0.3 mm <=>6 passes)
(Z_Move: 2.0 mm)
(Z Start: None mm)
(Z End: 15.0 mm)
(X,Y End: None mm)
(Steps per circle: 64)
(Preprocessor Geometry: default)

(X range:   -0.8000 ...   76.3380  mm)
(Y range:   -0.8000 ...   54.7480  mm)

(Spindle Speed: 20000.0 RPM)
G21
G90
G94

G01 F120.00

M5
G00 Z15.0000
G00 X0.0000 Y0.0000
T1
M6    
(MSG, Change to Tool Dia = 1.4000)
M0
G00 Z15.0000

M03 S20000.0
G01 F120.00
G00 X5.5500 Y25.3740
G01 F60.00
G01 Z-0.3000
G01 F120.00
G01 X5.5500 Y22.4900
G01 X0.0500 Y22.4900
G01 X0.0059 Y22.4888
G01 X-0.0771 Y22.4804
G01 X-0.1541 Y22.4651
G01 X-0.2386 Y22.4395
G01 X-0.3156 Y22.4073
G01 X-0.3848 Y22.3703
G01 X-0.4583 Y22.3213
G01 X-0.5226 Y22.2682
G01 X-0.5781 Y22.2126
G01 X-0.6341 Y22.1444
G01 X-0.6803 Y22.0749
G01 X-0.7194 Y22.0012
G01 X-0.7494 Y21.9287
G01 X-0.7739 Y21.8489
G01 X-0.7904 Y21.7672
G01 X-0.7988 Y21.6842
G01 X-0.8000 Y21.6400
G01 X-0.8000 Y9.4480
G01 X-0.7988 Y9.4039
G01 X-0.7904 Y9.3209
G01 X-0.7739 Y9.2391
G01 X-0.7494 Y9.1594
G01 X-0.7173 Y9.0824
G01 X-0.6803 Y9.0132
G01 X-0.6341 Y8.9437
G01 X-0.5814 Y8.8790
G01 X-0.5190 Y8.8166
G01 X-0.4543 Y8.7639
G01 X-0.3848 Y8.7177
G01 X-0.3112 Y8.6786
G01 X-0.2340 Y8.6469
G01 X-0.1541 Y8.6229
G01 X-0.0723 Y8.6069
G01 X0.0059 Y8.5992
G01 X0.0500 Y8.5980
G01 X5.5500 Y8.5980
G01 X5.5500 Y0.0500
G01 X5.5510 Y0.0108
G01 X5.5589 Y-0.0723
G01 X5.5749 Y-0.1541
G01 X5.5989 Y-0.2340
G01 X5.6306 Y-0.3112
G01 X5.6697 Y-0.3848
G01 X5.7159 Y-0.4543
G01 X5.7719 Y-0.5226
G01 X5.8310 Y-0.5814
G01 X5.8957 Y-0.6341
G01 X5.9652 Y-0.6803
G01 X6.0344 Y-0.7173
G01 X6.1114 Y-0.7494
G01 X6.1911 Y-0.7739
G01 X6.2729 Y-0.7904
G01 X6.3559 Y-0.7988
G01 X6.4000 Y-0.8000
G01 X36.1690 Y-0.8000
G00 X36.1690 Y-0.8000
G01 F60.00
G01 Z-0.6000
G01 F120.00
G01 X6.4000 Y-0.8000
G01 X6.3559 Y-0.7988
G01 X6.2729 Y-0.7904
G01 X6.1911 Y-0.7739
G01 X6.1114 Y-0.7494
G01 X6.0344 Y-0.7173
G01 X5.9652 Y-0.6803
G01 X5.8957 Y-0.6341
G01 X5.8310 Y-0.5814
G01 X5.7719 Y-0.5226
G01 X5.7159 Y-0.4543
G01 X5.6697 Y-0.3848
G01 X5.6306 Y-0.3112
G01 X5.5989 Y-0.2340
G01 X5.5749 Y-0.1541
G01 X5.5589 Y-0.0723
G01 X5.5510 Y0.0108
G01 X5.5500 Y0.0500
G01 X5.5500 Y8.5980
G01 X0.0500 Y8.5980
G01 X0.0059 Y8.5992
G01 X-0.0723 Y8.6069
G01 X-0.1541 Y8.6229
G01 X-0.2340 Y8.6469
G01 X-0.3112 Y8.6786
G01 X-0.3848 Y8.7177
G01 X-0.4543 Y8.7639
G01 X-0.5190 Y8.8166
G01 X-0.5814 Y8.8790
G01 X-0.6341 Y8.9437
G01 X-0.6803 Y9.0132
G01 X-0.7173 Y9.0824
G01 X-0.7494 Y9.1594
G01 X-0.7739 Y9.2391
G01 X-0.7904 Y9.3209
G01 X-0.7988 Y9.4039
G01 X-0.8000 Y9.4480
G01 X-0.8000 Y21.6400
G01 X-0.7988 Y21.6842
G01 X-0.7904 Y21.7672
G01 X-0.7739 Y21.8489
G01 X-0.7494 Y21.9287
G01 X-0.7194 Y22.0012
G01 X-0.6803 Y22.0749
G01 X-0.6341 Y22.1444
G01 X-0.5781 Y22.2126
G01 X-0.5226 Y22.2682
G01 X-0.4583 Y22.3213
G01 X-0.3848 Y22.3703
G01 X-0.3156 Y22.4073
G01 X-0.2386 Y22.4395
G01 X-0.1541 Y22.4651
G01 X-0.0771 Y22.4804
G01 X0.0059 Y22.4888
G01 X0.0500 Y22.4900
G01 X5.5500 Y22.4900
G01 X5.5500 Y25.3740
G00 X5.5500 Y25.3740
G01 F60.00
G01 Z-0.9000
G01 F120.00
G01 X5.5500 Y22.4900
G01 X0.0500 Y22.4900
G01 X0.0059 Y22.4888
G01 X-0.0771 Y22.4804
G01 X-0.1541 Y22.4651
G01 X-0.2386 Y22.4395
G01 X-0.3156 Y22.4073
G01 X-0.3848 Y22.3703
G01 X-0.4583 Y22.3213
G01 X-0.5226 Y22.2682
G01 X-0.5781 Y22.2126
G01 X-0.6341 Y22.1444
G01 X-0.6803 Y22.0749
G01 X-0.7194 Y22.0012
G01 X-0.7494 Y21.9287
G01 X-0.7739 Y21.8489
G01 X-0.7904 Y21.7672
G01 X-0.7988 Y21.6842
G01 X-0.8000 Y21.6400
G01 X-0.8000 Y9.4480
G01 X-0.7988 Y9.4039
G01 X-0.7904 Y9.3209
G01 X-0.7739 Y9.2391
G01 X-0.7494 Y9.1594
G01 X-0.7173 Y9.0824
G01 X-0.6803 Y9.0132
G01 X-0.6341 Y8.9437
G01 X-0.5814 Y8.8790
G01 X-0.5190 Y8.8166
G01 X-0.4543 Y8.7639
G01 X-0.3848 Y8.7177
G01 X-0.3112 Y8.6786
G01 X-0.2340 Y8.6469
G01 X-0.1541 Y8.6229
G01 X-0.0723 Y8.6069
G01 X0.0059 Y8.5992
G01 X0.0500 Y8.5980
G01 X5.5500 Y8.5980
G01 X5.5500 Y0.0500
G01 X5.5510 Y0.0108
G01 X5.5589 Y-0.0723
G01 X5.5749 Y-0.1541
G01 X5.5989 Y-0.2340
G01 X5.6306 Y-0.3112
G01 X5.6697 Y-0.3848
G01 X5.7159 Y-0.4543
G01 X5.7719 Y-0.5226
G01 X5.8310 Y-0.5814
G01 X5.8957 Y-0.6341
G01 X5.9652 Y-0.6803
G01 X6.0344 Y-0.7173
G01 X6.1114 Y-0.7494
G01 X6.1911 Y-0.7739
G01 X6.2729 Y-0.7904
G01 X6.3559 Y-0.7988
G01 X6.4000 Y-0.8000
G01 X36.1690 Y-0.8000
G00 X36.1690 Y-0.8000
G01 F60.00
G01 Z-1.2000
G01 F120.00
G01 X6.4000 Y-0.8000
G01 X6.3559 Y-0.7988
G01 X6.2729 Y-0.7904
G01 X6.1911 Y-0.7739
G01 X6.1114 Y-0.7494
G01 X6.0344 Y-0.7173
G01 X5.9652 Y-0.6803
G01 X5.8957 Y-0.6341
G01 X5.8310 Y-0.5814
G01 X5.7719 Y-0.5226
G01 X5.7159 Y-0.4543
G01 X5.6697 Y-0.3848
G01 X5.6306 Y-0.3112
G01 X5.5989 Y-0.2340
G01 X5.5749 Y-0.1541
G01 X5.5589 Y-0.0723
G01 X5.5510 Y0.0108
G01 X5.5500 Y0.0500
G01 X5.5500 Y8.5980
G01 X0.0500 Y8.5980
G01 X0.0059 Y8.5992
G01 X-0.0723 Y8.6069
G01 X-0.1541 Y8.6229
G01 X-0.2340 Y8.6469
G01 X-0.3112 Y8.6786
G01 X-0.3848 Y8.7177
G01 X-0.4543 Y8.7639
G01 X-0.5190 Y8.8166
G01 X-0.5814 Y8.8790
G01 X-0.6341 Y8.9437
G01 X-0.6803 Y9.0132
G01 X-0.7173 Y9.0824
G01 X-0.7494 Y9.1594
G01 X-0.7739 Y9.2391
G01 X-0.7904 Y9.3209
G01 X-0.7988 Y9.4039
G01 X-0.8000 Y9.4480
G01 X-0.8000 Y21.6400
G01 X-0.7988 Y21.6842
G01 X-0.7904 Y21.7672
G01 X-0.7739 Y21.8489
G01 X-0.7494 Y21.9287
G01 X-0.7194 Y22.0012
G01 X-0.6803 Y22.0749
G01 X-0.6341 Y22.1444
G01 X-0.5781 Y22.2126
G01 X-0.5226 Y22.2682
G01 X-0.4583 Y22.3213
G01 X-0.3848 Y22.3703
G01 X-0.3156 Y22.4073
G01 X-0.2386 Y22.4395
G01 X-0.1541 Y22.4651
G01 X-0.0771 Y22.4804
G01 X0.0059 Y22.4888
G01 X0.0500 Y22.4900
G01 X5.5500 Y22.4900
G01 X5.5500 Y25.3740
G00 X5.5500 Y25.3740
G01 F60.00
G01 Z-1.5000
G01 F120.00
G01 X5.5500 Y22.4900
G01 X0.0500 Y22.4900
G01 X0.0059 Y22.4888
G01 X-0.0771 Y22.4804
G01 X-0.1541 Y22.4651
G01 X-0.2386 Y22.4395
G01 X-0.3156 Y22.4073
G01 X-0.3848 Y22.3703
G01 X-0.4583 Y22.3213
G01 X-0.5226 Y22.2682
G01 X-0.5781 Y22.2126
G01 X-0.6341 Y22.1444
G01 X-0.6803 Y22.0749
G01 X-0.7194 Y22.0012
G01 X-0.7494 Y21.9287
G01 X-0.7739 Y21.8489
G01 X-0.7904 Y21.7672
G01 X-0.7988 Y21.6842
G01 X-0.8000 Y21.6400
G01 X-0.8000 Y9.4480
G01 X-0.7988 Y9.4039
G01 X-0.7904 Y9.3209
G01 X-0.7739 Y9.2391
G01 X-0.7494 Y9.1594
G01 X-0.7173 Y9.0824
G01 X-0.6803 Y9.0132
G01 X-0.6341 Y8.9437
G01 X-0.5814 Y8.8790
G01 X-0.5190 Y8.8166
G01 X-0.4543 Y8.7639
G01 X-0.3848 Y8.7177
G01 X-0.3112 Y8.6786
G01 X-0.2340 Y8.6469
G01 X-0.1541 Y8.6229
G01 X-0.0723 Y8.6069
G01 X0.0059 Y8.5992
G01 X0.0500 Y8.5980
G01 X5.5500 Y8.5980
G01 X5.5500 Y0.0500
G01 X5.5510 Y0.0108
G01 X5.5589 Y-0.0723
G01 X5.5749 Y-0.1541
G01 X5.5989 Y-0.2340
G01 X5.6306 Y-0.3112
G01 X5.6697 Y-0.3848
G01 X5.7159 Y-0.4543
G01 X5.7719 Y-0.5226
G01 X5.8310 Y-0.5814
G01 X5.8957 Y-0.6341
G01 X5.9652 Y-0.6803
G01 X6.0344 Y-0.7173
G01 X6.1114 Y-0.7494
G01 X6.1911 Y-0.7739
G01 X6.2729 Y-0.7904
G01 X6.3559 Y-0.7988
G01 X6.4000 Y-0.8000
G01 X36.1690 Y-0.8000
G00 X36.1690 Y-0.8000
G01 F60.00
G01 Z-1.8000
G01 F120.00
G01 X6.4000 Y-0.8000
G01 X6.3559 Y-0.7988
G01 X6.2729 Y-0.7904
G01 X6.1911 Y-0.7739
G01 X6.1114 Y-0.7494
G01 X6.0344 Y-0.7173
G01 X5.9652 Y-0.6803
G01 X5.8957 Y-0.6341
G01 X5.8310 Y-0.5814
G01 X5.7719 Y-0.5226
G01 X5.7159 Y-0.4543
G01 X5.6697 Y-0.3848
G01 X5.6306 Y-0.3112
G01 X5.5989 Y-0.2340
G01 X5.5749 Y-0.1541
G01 X5.5589 Y-0.0723
G01 X5.5510 Y0.0108
G01 X5.5500 Y0.0500
G01 X5.5500 Y8.5980
G01 X0.0500 Y8.5980
G01 X0.0059 Y8.5992
G01 X-0.0723 Y8.6069
G01 X-0.1541 Y8.6229
G01 X-0.2340 Y8.6469
G01 X-0.3112 Y8.6786
G01 X-0.3848 Y8.7177
G01 X-0.4543 Y8.7639
G01 X-0.5190 Y8.8166
G01 X-0.5814 Y8.8790
G01 X-0.6341 Y8.9437
G01 X-0.6803 Y9.0132
G01 X-0.7173 Y9.0824
G01 X-0.7494 Y9.1594
G01 X-0.7739 Y9.2391
G01 X-0.7904 Y9.3209
G01 X-0.7988 Y9.4039
G01 X-0.8000 Y9.4480
G01 X-0.8000 Y21.6400
G01 X-0.7988 Y21.6842
G01 X-0.7904 Y21.7672
G01 X-0.7739 Y21.8489
G01 X-0.7494 Y21.9287
G01 X-0.7194 Y22.0012
G01 X-0.6803 Y22.0749
G01 X-0.6341 Y22.1444
G01 X-0.5781 Y22.2126
G01 X-0.5226 Y22.2682
G01 X-0.4583 Y22.3213
G01 X-0.3848 Y22.3703
G01 X-0.3156 Y22.4073
G01 X-0.2386 Y22.4395
G01 X-0.1541 Y22.4651
G01 X-0.0771 Y22.4804
G01 X0.0059 Y22.4888
G01 X0.0500 Y22.4900
G01 X5.5500 Y22.4900
G01 X5.5500 Y25.3740
G00 Z2.0000
G00 X3.5180 Y28.7740
G01 F60.00
G01 Z-0.3000
G01 F120.00
G01 X3.5180 Y38.1500
G01 X3.5192 Y38.1942
G01 X3.5276 Y38.2772
G01 X3.5441 Y38.3589
G01 X3.5669 Y38.4341
G01 X3.5986 Y38.5112
G01 X3.6402 Y38.5891
G01 X3.6839 Y38.6544
G01 X3.7366 Y38.7190
G01 X3.7954 Y38.7782
G01 X3.8637 Y38.8342
G01 X3.9332 Y38.8803
G01 X4.0024 Y38.9173
G01 X4.0840 Y38.9511
G01 X4.1591 Y38.9739
G01 X4.2409 Y38.9904
G01 X4.3288 Y38.9991
G01 X4.3680 Y39.0000
G01 X5.5500 Y39.0000
G01 X5.5500 Y40.3480
G01 X4.3680 Y40.3480
G01 X4.3288 Y40.3490
G01 X4.2409 Y40.3576
G01 X4.1591 Y40.3741
G01 X4.0840 Y40.3969
G01 X4.0068 Y40.4286
G01 X3.9290 Y40.4702
G01 X3.8637 Y40.5139
G01 X3.7990 Y40.5666
G01 X3.7366 Y40.6290
G01 X3.6839 Y40.6937
G01 X3.6402 Y40.7590
G01 X3.6007 Y40.8324
G01 X3.5669 Y40.9140
G01 X3.5441 Y40.9891
G01 X3.5276 Y41.0709
G01 X3.5192 Y41.1539
G01 X3.5180 Y41.1980
G01 X3.5180 Y50.8500
G01 X3.5192 Y50.8942
G01 X3.5276 Y50.9772
G01 X3.5429 Y51.0542
G01 X3.5686 Y51.1387
G01 X3.5986 Y51.2112
G01 X3.6377 Y51.2849
G01 X3.6868 Y51.3583
G01 X3.7399 Y51.4226
G01 X3.7954 Y51.4782
G01 X3.8637 Y51.5342
G01 X3.9332 Y51.5803
G01 X4.0024 Y51.6173
G01 X4.0794 Y51.6495
G01 X4.1591 Y51.6739
G01 X4.2409 Y51.6904
G01 X4.3288 Y51.6991
G01 X4.3680 Y51.7000
G01 X5.5500 Y51.7000
G01 X5.5500 Y53.8980
G01 X5.5512 Y53.9422
G01 X5.5589 Y54.0203
G01 X5.5749 Y54.1022
G01 X5.5989 Y54.1821
G01 X5.6306 Y54.2592
G01 X5.6697 Y54.3329
G01 X5.7159 Y54.4024
G01 X5.7686 Y54.4670
G01 X5.8274 Y54.5262
G01 X5.8917 Y54.5793
G01 X5.9652 Y54.6283
G01 X6.0388 Y54.6674
G01 X6.1160 Y54.6991
G01 X6.1911 Y54.7219
G01 X6.2729 Y54.7384
G01 X6.3559 Y54.7468
G01 X6.4000 Y54.7480
G01 X36.1690 Y54.7480
G00 X36.1690 Y54.7480
G01 F60.00
G01 Z-0.6000
G01 F120.00
G01 X6.4000 Y54.7480
G01 X6.3559 Y54.7468
G01 X6.2729 Y54.7384
G01 X6.1911 Y54.7219
G01 X6.1160 Y54.6991
G01 X6.0388 Y54.6674
G01 X5.9652 Y54.6283
G01 X5.8917 Y54.5793
G01 X5.8274 Y54.5262
G01 X5.7686 Y54.4670
G01 X5.7159 Y54.4024
G01 X5.6697 Y54.3329
G01 X5.6306 Y54.2592
G01 X5.5989 Y54.1821
G01 X5.5749 Y54.1022
G01 X5.5589 Y54.0203
G01 X5.5512 Y53.9422
G01 X5.5500 Y53.8980
G01 X5.5500 Y51.7000
G01 X4.3680 Y51.7000
G01 X4.3288 Y51.6991
G01 X4.2409 Y51.6904
G01 X4.1591 Y51.6739
G01 X4.0794 Y51.6495
G01 X4.0024 Y51.6173
G01 X3.9332 Y51.5803
G01 X3.8637 Y51.5342
G01 X3.7954 Y51.4782
G01 X3.7399 Y51.4226
G01 X3.6868 Y51.3583
G01 X3.6377 Y51.2849
G01 X3.5986 Y51.2112
G01 X3.5686 Y51.1387
G01 X3.5429 Y51.0542
G01 X3.5276 Y50.9772
G01 X3.5192 Y50.8942
G01 X3.5180 Y50.8500
G01 X3.5180 Y41.1980
G01 X3.5192 Y41.1539
G01 X3.5276 Y41.0709
G01 X3.5441 Y40.9891
G01 X3.5669 Y40.9140
G01 X3.6007 Y40.8324
G01 X3.6402 Y40.7590
G01 X3.6839 Y40.6937
G01 X3.7366 Y40.6290
G01 X3.7990 Y40.5666
G01 X3.8637 Y40.5139
G01 X3.9290 Y40.4702
G01 X4.0068 Y40.4286
G01 X4.0840 Y40.3969
G01 X4.1591 Y40.3741
G01 X4.2409 Y40.3576
G01 X4.3288 Y40.3490
G01 X4.3680 Y40.3480
G01 X5.5500 Y40.3480
G01 X5.5500 Y39.0000
G01 X4.3680 Y39.0000
G01 X4.3288 Y38.9991
G01 X4.2409 Y38.9904
G01 X4.1591 Y38.9739
G01 X4.0840 Y38.9511
G01 X4.0024 Y38.9173
G01 X3.9332 Y38.8803
G01 X3.8637 Y38.8342
G01 X3.7954 Y38.7782
G01 X3.7366 Y38.7190
G01 X3.6839 Y38.6544
G01 X3.6402 Y38.5891
G01 X3.5986 Y38.5112
G01 X3.5669 Y38.4341
G01 X3.5441 Y38.3589
G01 X3.5276 Y38.2772
G01 X3.5192 Y38.1942
G01 X3.5180 Y38.1500
G01 X3.5180 Y28.7740
G00 X3.5180 Y28.7740
G01 F60.00
G01 Z-0.9000
G01 F120.00
G01 X3.5180 Y38.1500
G01 X3.5192 Y38.1942
G01 X3.5276 Y38.2772
G01 X3.5441 Y38.3589
G01 X3.5669 Y38.4341
G01 X3.5986 Y38.5112
G01 X3.6402 Y38.5891
G01 X3.6839 Y38.6544
G01 X3.7366 Y38.7190
G01 X3.7954 Y38.7782
G01 X3.8637 Y38.8342
G01 X3.9332 Y38.8803
G01 X4.0024 Y38.9173
G01 X4.0840 Y38.9511
G01 X4.1591 Y38.9739
G01 X4.2409 Y38.9904
G01 X4.3288 Y38.9991
G01 X4.3680 Y39.0000
G01 X5.5500 Y39.0000
G01 X5.5500 Y40.3480
G01 X4.3680 Y40.3480
G01 X4.3288 Y40.3490
G01 X4.2409 Y40.3576
G01 X4.1591 Y40.3741
G01 X4.0840 Y40.3969
G01 X4.0068 Y40.4286
G01 X3.9290 Y40.4702
G01 X3.8637 Y40.5139
G01 X3.7990 Y40.5666
G01 X3.7366 Y40.6290
G01 X3.6839 Y40.6937
G01 X3.6402 Y40.7590
G01 X3.6007 Y40.8324
G01 X3.5669 Y40.9140
G01 X3.5441 Y40.9891
G01 X3.5276 Y41.0709
G01 X3.5192 Y41.1539
G01 X3.5180 Y41.1980
G01 X3.5180 Y50.8500
G01 X3.5192 Y50.8942
G01 X3.5276 Y50.9772
G01 X3.5429 Y51.0542
G01 X3.5686 Y51.1387
G01 X3.5986 Y51.2112
G01 X3.6377 Y51.2849
G01 X3.6868 Y51.3583
G01 X3.7399 Y51.4226
G01 X3.7954 Y51.4782
G01 X3.8637 Y51.5342
G01 X3.9332 Y51.5803
G01 X4.0024 Y51.6173
G01 X4.0794 Y51.6495
G01 X4.1591 Y51.6739
G01 X4.2409 Y51.6904
G01 X4.3288 Y51.6991
G01 X4.3680 Y51.7000
G01 X5.5500 Y51.7000
G01 X5.5500 Y53.8980
G01 X5.5512 Y53.9422
G01 X5.5589 Y54.0203
G01 X5.5749 Y54.1022
G01 X5.5989 Y54.1821
G01 X5.6306 Y54.2592
G01 X5.6697 Y54.3329
G01 X5.7159 Y54.4024
G01 X5.7686 Y54.4670
G01 X5.8274 Y54.5262
G01 X5.8917 Y54.5793
G01 X5.9652 Y54.6283
G01 X6.0388 Y54.6674
G01 X6.1160 Y54.6991
G01 X6.1911 Y54.7219
G01 X6.2729 Y54.7384
G01 X6.3559 Y54.7468
G01 X6.4000 Y54.7480
G01 X36.1690 Y54.7480
G00 X36.1690 Y54.7480
G01 F60.00
G01 Z-1.2000
G01 F120.00
G01 X6.4000 Y54.7480
G01 X6.3559 Y54.7468
G01 X6.2729 Y54.7384
G01 X6.1911 Y54.7219
G01 X6.1160 Y54.6991
G01 X6.0388 Y54.6674
G01 X5.9652 Y54.6283
G01 X5.8917 Y54.5793
G01 X5.8274 Y54.5262
G01 X5.7686 Y54.4670
G01 X5.7159 Y54.4024
G01 X5.6697 Y54.3329
G01 X5.6306 Y54.2592
G01 X5.5989 Y54.1821
G01 X5.5749 Y54.1022
G01 X5.5589 Y54.0203
G01 X5.5512 Y53.9422
G01 X5.5500 Y53.8980
G01 X5.5500 Y51.7000
G01 X4.3680 Y51.7000
G01 X4.3288 Y51.6991
G01 X4.2409 Y51.6904
G01 X4.1591 Y51.6739
G01 X4.0794 Y51.6495
G01 X4.0024 Y51.6173
G01 X3.9332 Y51.5803
G01 X3.8637 Y51.5342
G01 X3.7954 Y51.4782
G01 X3.7399 Y51.4226
G01 X3.6868 Y51.3583
G01 X3.6377 Y51.2849
G01 X3.5986 Y51.2112
G01 X3.5686 Y51.1387
G01 X3.5429 Y51.0542
G01 X3.5276 Y50.9772
G01 X3.5192 Y50.8942
G01 X3.5180 Y50.8500
G01 X3.5180 Y41.1980
G01 X3.5192 Y41.1539
G01 X3.5276 Y41.0709
G01 X3.5441 Y40.9891
G01 X3.5669 Y40.9140
G01 X3.6007 Y40.8324
G01 X3.6402 Y40.7590
G01 X3.6839 Y40.6937
G01 X3.7366 Y40.6290
G01 X3.7990 Y40.5666
G01 X3.8637 Y40.5139
G01 X3.9290 Y40.4702
G01 X4.0068 Y40.4286
G01 X4.0840 Y40.3969
G01 X4.1591 Y40.3741
G01 X4.2409 Y40.3576
G01 X4.3288 Y40.3490
G01 X4.3680 Y40.3480
G01 X5.5500 Y40.3480
G01 X5.5500 Y39.0000
G01 X4.3680 Y39.0000
G01 X4.3288 Y38.9991
G01 X4.2409 Y38.9904
G01 X4.1591 Y38.9739
G01 X4.0840 Y38.9511
G01 X4.0024 Y38.9173
G01 X3.9332 Y38.8803
G01 X3.8637 Y38.8342
G01 X3.7954 Y38.7782
G01 X3.7366 Y38.7190
G01 X3.6839 Y38.6544
G01 X3.6402 Y38.5891
G01 X3.5986 Y38.5112
G01 X3.5669 Y38.4341
G01 X3.5441 Y38.3589
G01 X3.5276 Y38.2772
G01 X3.5192 Y38.1942
G01 X3.5180 Y38.1500
G01 X3.5180 Y28.7740
G00 X3.5180 Y28.7740
G01 F60.00
G01 Z-1.5000
G01 F120.00
G01 X3.5180 Y38.1500
G01 X3.5192 Y38.1942
G01 X3.5276 Y38.2772
G01 X3.5441 Y38.3589
G01 X3.5669 Y38.4341
G01 X3.5986 Y38.5112
G01 X3.6402 Y38.5891
G01 X3.6839 Y38.6544
G01 X3.7366 Y38.7190
G01 X3.7954 Y38.7782
G01 X3.8637 Y38.8342
G01 X3.9332 Y38.8803
G01 X4.0024 Y38.9173
G01 X4.0840 Y38.9511
G01 X4.1591 Y38.9739
G01 X4.2409 Y38.9904
G01 X4.3288 Y38.9991
G01 X4.3680 Y39.0000
G01 X5.5500 Y39.0000
G01 X5.5500 Y40.3480
G01 X4.3680 Y40.3480
G01 X4.3288 Y40.3490
G01 X4.2409 Y40.3576
G01 X4.1591 Y40.3741
G01 X4.0840 Y40.3969
G01 X4.0068 Y40.4286
G01 X3.9290 Y40.4702
G01 X3.8637 Y40.5139
G01 X3.7990 Y40.5666
G01 X3.7366 Y40.6290
G01 X3.6839 Y40.6937
G01 X3.6402 Y40.7590
G01 X3.6007 Y40.8324
G01 X3.5669 Y40.9140
G01 X3.5441 Y40.9891
G01 X3.5276 Y41.0709
G01 X3.5192 Y41.1539
G01 X3.5180 Y41.1980
G01 X3.5180 Y50.8500
G01 X3.5192 Y50.8942
G01 X3.5276 Y50.9772
G01 X3.5429 Y51.0542
G01 X3.5686 Y51.1387
G01 X3.5986 Y51.2112
G01 X3.6377 Y51.2849
G01 X3.6868 Y51.3583
G01 X3.7399 Y51.4226
G01 X3.7954 Y51.4782
G01 X3.8637 Y51.5342
G01 X3.9332 Y51.5803
G01 X4.0024 Y51.6173
G01 X4.0794 Y51.6495
G01 X4.1591 Y51.6739
G01 X4.2409 Y51.6904
G01 X4.3288 Y51.6991
G01 X4.3680 Y51.7000
G01 X5.5500 Y51.7000
G01 X5.5500 Y53.8980
G01 X5.5512 Y53.9422
G01 X5.5589 Y54.0203
G01 X5.5749 Y54.1022
G01 X5.5989 Y54.1821
G01 X5.6306 Y54.2592
G01 X5.6697 Y54.3329
G01 X5.7159 Y54.4024
G01 X5.7686 Y54.4670
G01 X5.8274 Y54.5262
G01 X5.8917 Y54.5793
G01 X5.9652 Y54.6283
G01 X6.0388 Y54.6674
G01 X6.1160 Y54.6991
G01 X6.1911 Y54.7219
G01 X6.2729 Y54.7384
G01 X6.3559 Y54.7468
G01 X6.4000 Y54.7480
G01 X36.1690 Y54.7480
G00 X36.1690 Y54.7480
G01 F60.00
G01 Z-1.8000
G01 F120.00
G01 X6.4000 Y54.7480
G01 X6.3559 Y54.7468
G01 X6.2729 Y54.7384
G01 X6.1911 Y54.7219
G01 X6.1160 Y54.6991
G01 X6.0388 Y54.6674
G01 X5.9652 Y54.6283
G01 X5.8917 Y54.5793
G01 X5.8274 Y54.5262
G01 X5.7686 Y54.4670
G01 X5.7159 Y54.4024
G01 X5.6697 Y54.3329
G01 X5.6306 Y54.2592
G01 X5.5989 Y54.1821
G01 X5.5749 Y54.1022
G01 X5.5589 Y54.0203
G01 X5.5512 Y53.9422
G01 X5.5500 Y53.8980
G01 X5.5500 Y51.7000
G01 X4.3680 Y51.7000
G01 X4.3288 Y51.6991
G01 X4.2409 Y51.6904
G01 X4.1591 Y51.6739
G01 X4.0794 Y51.6495
G01 X4.0024 Y51.6173
G01 X3.9332 Y51.5803
G01 X3.8637 Y51.5342
G01 X3.7954 Y51.4782
G01 X3.7399 Y51.4226
G01 X3.6868 Y51.3583
G01 X3.6377 Y51.2849
G01 X3.5986 Y51.2112
G01 X3.5686 Y51.1387
G01 X3.5429 Y51.0542
G01 X3.5276 Y50.9772
G01 X3.5192 Y50.8942
G01 X3.5180 Y50.8500
G01 X3.5180 Y41.1980
G01 X3.5192 Y41.1539
G01 X3.5276 Y41.0709
G01 X3.5441 Y40.9891
G01 X3.5669 Y40.9140
G01 X3.6007 Y40.8324
G01 X3.6402 Y40.7590
G01 X3.6839 Y40.6937
G01 X3.7366 Y40.6290
G01 X3.7990 Y40.5666
G01 X3.8637 Y40.5139
G01 X3.9290 Y40.4702
G01 X4.0068 Y40.4286
G01 X4.0840 Y40.3969
G01 X4.1591 Y40.3741
G01 X4.2409 Y40.3576
G01 X4.3288 Y40.3490
G01 X4.3680 Y40.3480
G01 X5.5500 Y40.3480
G01 X5.5500 Y39.0000
G01 X4.3680 Y39.0000
G01 X4.3288 Y38.9991
G01 X4.2409 Y38.9904
G01 X4.1591 Y38.9739
G01 X4.0840 Y38.9511
G01 X4.0024 Y38.9173
G01 X3.9332 Y38.8803
G01 X3.8637 Y38.8342
G01 X3.7954 Y38.7782
G01 X3.7366 Y38.7190
G01 X3.6839 Y38.6544
G01 X3.6402 Y38.5891
G01 X3.5986 Y38.5112
G01 X3.5669 Y38.4341
G01 X3.5441 Y38.3589
G01 X3.5276 Y38.2772
G01 X3.5192 Y38.1942
G01 X3.5180 Y38.1500
G01 X3.5180 Y28.7740
G00 Z2.0000
G00 X39.5690 Y54.7480
G01 F60.00
G01 Z-0.3000
G01 F120.00
G01 X72.9480 Y54.7480
G01 X72.9922 Y54.7468
G01 X73.0752 Y54.7384
G01 X73.1569 Y54.7219
G01 X73.2321 Y54.6991
G01 X73.3137 Y54.6653
G01 X73.3829 Y54.6283
G01 X73.4524 Y54.5822
G01 X73.5170 Y54.5295
G01 X73.5762 Y54.4706
G01 X73.6293 Y54.4063
G01 X73.6758 Y54.3371
G01 X73.7174 Y54.2592
G01 X73.7491 Y54.1821
G01 X73.7731 Y54.1022
G01 X73.7892 Y54.0203
G01 X73.7968 Y53.9422
G01 X73.7980 Y53.8980
G01 X73.7980 Y51.4561
G01 X76.0891 Y49.1651
G01 X76.1162 Y49.1366
G01 X76.1693 Y49.0723
G01 X76.2158 Y49.0031
G01 X76.2574 Y48.9252
G01 X76.2875 Y48.8527
G01 X76.3119 Y48.7729
G01 X76.3292 Y48.6863
G01 X76.3368 Y48.6082
G01 X76.3380 Y48.5640
G01 X76.3380 Y28.7740
G00 X76.3380 Y28.7740
G01 F60.00
G01 Z-0.6000
G01 F120.00
G01 X76.3380 Y48.5640
G01 X76.3368 Y48.6082
G01 X76.3292 Y48.6863
G01 X76.3119 Y48.7729
G01 X76.2875 Y48.8527
G01 X76.2574 Y48.9252
G01 X76.2158 Y49.0031
G01 X76.1693 Y49.0723
G01 X76.1162 Y49.1366
G01 X76.0891 Y49.1651
G01 X73.7980 Y51.4561
G01 X73.7980 Y53.8980
G01 X73.7968 Y53.9422
G01 X73.7892 Y54.0203
G01 X73.7731 Y54.1022
G01 X73.7491 Y54.1821
G01 X73.7174 Y54.2592
G01 X73.6758 Y54.3371
G01 X73.6293 Y54.4063
G01 X73.5762 Y54.4706
G01 X73.5170 Y54.5295
G01 X73.4524 Y54.5822
G01 X73.3829 Y54.6283
G01 X73.3137 Y54.6653
G01 X73.2321 Y54.6991
G01 X73.1569 Y54.7219
G01 X73.0752 Y54.7384
G01 X72.9922 Y54.7468
G01 X72.9480 Y54.7480
G01 X39.5690 Y54.7480
G00 X39.5690 Y54.7480
G01 F60.00
G01 Z-0.9000
G01 F120.00
G01 X72.9480 Y54.7480
G01 X72.9922 Y54.7468
G01 X73.0752 Y54.7384
G01 X73.1569 Y54.7219
G01 X73.2321 Y54.6991
G01 X73.3137 Y54.6653
G01 X73.3829 Y54.6283
G01 X73.4524 Y54.5822
G01 X73.5170 Y54.5295
G01 X73.5762 Y54.4706
G01 X73.6293 Y54.4063
G01 X73.6758 Y54.3371
G01 X73.7174 Y54.2592
G01 X73.7491 Y54.1821
G01 X73.7731 Y54.1022
G01 X73.7892 Y54.0203
G01 X73.7968 Y53.9422
G01 X73.7980 Y53.8980
G01 X73.7980 Y51.4561
G01 X76.0891 Y49.1651
G01 X76.1162 Y49.1366
G01 X76.1693 Y49.0723
G01 X76.2158 Y49.0031
G01 X76.2574 Y48.9252
G01 X76.2875 Y48.8527
G01 X76.3119 Y48.7729
G01 X76.3292 Y48.6863
G01 X76.3368 Y48.6082
G01 X76.3380 Y48.5640
G01 X76.3380 Y28.7740
G00 X76.3380 Y28.7740
G01 F60.00
G01 Z-1.2000
G01 F120.00
G01 X76.3380 Y48.5640
G01 X76.3368 Y48.6082
G01 X76.3292 Y48.6863
G01 X76.3119 Y48.7729
G01 X76.2875 Y48.8527
G01 X76.2574 Y48.9252
G01 X76.2158 Y49.0031
G01 X76.1693 Y49.0723
G01 X76.1162 Y49.1366
G01 X76.0891 Y49.1651
G01 X73.7980 Y51.4561
G01 X73.7980 Y53.8980
G01 X73.7968 Y53.9422
G01 X73.7892 Y54.0203
G01 X73.7731 Y54.1022
G01 X73.7491 Y54.1821
G01 X73.7174 Y54.2592
G01 X73.6758 Y54.3371
G01 X73.6293 Y54.4063
G01 X73.5762 Y54.4706
G01 X73.5170 Y54.5295
G01 X73.4524 Y54.5822
G01 X73.3829 Y54.6283
G01 X73.3137 Y54.6653
G01 X73.2321 Y54.6991
G01 X73.1569 Y54.7219
G01 X73.0752 Y54.7384
G01 X72.9922 Y54.7468
G01 X72.9480 Y54.7480
G01 X39.5690 Y54.7480
G00 X39.5690 Y54.7480
G01 F60.00
G01 Z-1.5000
G01 F120.00
G01 X72.9480 Y54.7480
G01 X72.9922 Y54.7468
G01 X73.0752 Y54.7384
G01 X73.1569 Y54.7219
G01 X73.2321 Y54.6991
G01 X73.3137 Y54.6653
G01 X73.3829 Y54.6283
G01 X73.4524 Y54.5822
G01 X73.5170 Y54.5295
G01 X73.5762 Y54.4706
G01 X73.6293 Y54.4063
G01 X73.6758 Y54.3371
G01 X73.7174 Y54.2592
G01 X73.7491 Y54.1821
G01 X73.7731 Y54.1022
G01 X73.7892 Y54.0203
G01 X73.7968 Y53.9422
G01 X73.7980 Y53.8980
G01 X73.7980 Y51.4561
G01 X76.0891 Y49.1651
G01 X76.1162 Y49.1366
G01 X76.1693 Y49.0723
G01 X76.2158 Y49.0031
G01 X76.2574 Y48.9252
G01 X76.2875 Y48.8527
G01 X76.3119 Y48.7729
G01 X76.3292 Y48.6863
G01 X76.3368 Y48.6082
G01 X76.3380 Y48.5640
G01 X76.3380 Y28.7740
G00 X76.3380 Y28.7740
G01 F60.00
G01 Z-1.8000
G01 F120.00
G01 X76.3380 Y48.5640
G01 X76.3368 Y48.6082
G01 X76.3292 Y48.6863
G01 X76.3119 Y48.7729
G01 X76.2875 Y48.8527
G01 X76.2574 Y48.9252
G01 X76.2158 Y49.0031
G01 X76.1693 Y49.0723
G01 X76.1162 Y49.1366
G01 X76.0891 Y49.1651
G01 X73.7980 Y51.4561
G01 X73.7980 Y53.8980
G01 X73.7968 Y53.9422
G01 X73.7892 Y54.0203
G01 X73.7731 Y54.1022
G01 X73.7491 Y54.1821
G01 X73.7174 Y54.2592
G01 X73.6758 Y54.3371
G01 X73.6293 Y54.4063
G01 X73.5762 Y54.4706
G01 X73.5170 Y54.5295
G01 X73.4524 Y54.5822
G01 X73.3829 Y54.6283
G01 X73.3137 Y54.6653
G01 X73.2321 Y54.6991
G01 X73.1569 Y54.7219
G01 X73.0752 Y54.7384
G01 X72.9922 Y54.7468
G01 X72.9480 Y54.7480
G01 X39.5690 Y54.7480
G00 Z2.0000
G00 X76.3380 Y25.3740
G01 F60.00
G01 Z-0.3000
G01 F120.00
G01 X76.3380 Y15.7980
G01 X76.3368 Y15.7539
G01 X76.3284 Y15.6709
G01 X76.3131 Y15.5939
G01 X76.2891 Y15.5140
G01 X76.2553 Y15.4324
G01 X76.2183 Y15.3632
G01 X76.1722 Y15.2937
G01 X76.1162 Y15.2254
G01 X76.0891 Y15.1970
G01 X73.7980 Y12.9059
G01 X73.7980 Y1.8280
G01 X73.7968 Y1.7839
G01 X73.7884 Y1.7009
G01 X73.7719 Y1.6191
G01 X73.7475 Y1.5394
G01 X73.7174 Y1.4668
G01 X73.6758 Y1.3890
G01 X73.6293 Y1.3197
G01 X73.5795 Y1.2590
G01 X73.5491 Y1.2270
G01 X71.7711 Y-0.5510
G01 X71.7390 Y-0.5814
G01 X71.6744 Y-0.6341
G01 X71.6091 Y-0.6778
G01 X71.5357 Y-0.7173
G01 X71.4541 Y-0.7511
G01 X71.3789 Y-0.7739
G01 X71.2972 Y-0.7904
G01 X71.2142 Y-0.7988
G01 X71.1700 Y-0.8000
G01 X39.5690 Y-0.8000
G00 X39.5690 Y-0.8000
G01 F60.00
G01 Z-0.6000
G01 F120.00
G01 X71.1700 Y-0.8000
G01 X71.2142 Y-0.7988
G01 X71.2972 Y-0.7904
G01 X71.3789 Y-0.7739
G01 X71.4541 Y-0.7511
G01 X71.5357 Y-0.7173
G01 X71.6091 Y-0.6778
G01 X71.6744 Y-0.6341
G01 X71.7390 Y-0.5814
G01 X71.7711 Y-0.5510
G01 X73.5491 Y1.2270
G01 X73.5795 Y1.2590
G01 X73.6293 Y1.3197
G01 X73.6758 Y1.3890
G01 X73.7174 Y1.4668
G01 X73.7475 Y1.5394
G01 X73.7719 Y1.6191
G01 X73.7884 Y1.7009
G01 X73.7968 Y1.7839
G01 X73.7980 Y1.8280
G01 X73.7980 Y12.9059
G01 X76.0891 Y15.1970
G01 X76.1162 Y15.2254
G01 X76.1722 Y15.2937
G01 X76.2183 Y15.3632
G01 X76.2553 Y15.4324
G01 X76.2891 Y15.5140
G01 X76.3131 Y15.5939
G01 X76.3284 Y15.6709
G01 X76.3368 Y15.7539
G01 X76.3380 Y15.7980
G01 X76.3380 Y25.3740
G00 X76.3380 Y25.3740
G01 F60.00
G01 Z-0.9000
G01 F120.00
G01 X76.3380 Y15.7980
G01 X76.3368 Y15.7539
G01 X76.3284 Y15.6709
G01 X76.3131 Y15.5939
G01 X76.2891 Y15.5140
G01 X76.2553 Y15.4324
G01 X76.2183 Y15.3632
G01 X76.1722 Y15.2937
G01 X76.1162 Y15.2254
G01 X76.0891 Y15.1970
G01 X73.7980 Y12.9059
G01 X73.7980 Y1.8280
G01 X73.7968 Y1.7839
G01 X73.7884 Y1.7009
G01 X73.7719 Y1.6191
G01 X73.7475 Y1.5394
G01 X73.7174 Y1.4668
G01 X73.6758 Y1.3890
G01 X73.6293 Y1.3197
G01 X73.5795 Y1.2590
G01 X73.5491 Y1.2270
G01 X71.7711 Y-0.5510
G01 X71.7390 Y-0.5814
G01 X71.6744 Y-0.6341
G01 X71.6091 Y-0.6778
G01 X71.5357 Y-0.7173
G01 X71.4541 Y-0.7511
G01 X71.3789 Y-0.7739
G01 X71.2972 Y-0.7904
G01 X71.2142 Y-0.7988
G01 X71.1700 Y-0.8000
G01 X39.5690 Y-0.8000
G00 X39.5690 Y-0.8000
G01 F60.00
G01 Z-1.2000
G01 F120.00
G01 X71.1700 Y-0.8000
G01 X71.2142 Y-0.7988
G01 X71.2972 Y-0.7904
G01 X71.3789 Y-0.7739
G01 X71.4541 Y-0.7511
G01 X71.5357 Y-0.7173
G01 X71.6091 Y-0.6778
G01 X71.6744 Y-0.6341
G01 X71.7390 Y-0.5814
G01 X71.7711 Y-0.5510
G01 X73.5491 Y1.2270
G01 X73.5795 Y1.2590
G01 X73.6293 Y1.3197
G01 X73.6758 Y1.3890
G01 X73.7174 Y1.4668
G01 X73.7475 Y1.5394
G01 X73.7719 Y1.6191
G01 X73.7884 Y1.7009
G01 X73.7968 Y1.7839
G01 X73.7980 Y1.8280
G01 X73.7980 Y12.9059
G01 X76.0891 Y15.1970
G01 X76.1162 Y15.2254
G01 X76.1722 Y15.2937
G01 X76.2183 Y15.3632
G01 X76.2553 Y15.4324
G01 X76.2891 Y15.5140
G01 X76.3131 Y15.5939
G01 X76.3284 Y15.6709
G01 X76.3368 Y15.7539
G01 X76.3380 Y15.7980
G01 X76.3380 Y25.3740
G00 X76.3380 Y25.3740
G01 F60.00
G01 Z-1.5000
G01 F120.00
G01 X76.3380 Y15.7980
G01 X76.3368 Y15.7539
G01 X76.3284 Y15.6709
G01 X76.3131 Y15.5939
G01 X76.2891 Y15.5140
G01 X76.2553 Y15.4324
G01 X76.2183 Y15.3632
G01 X76.1722 Y15.2937
G01 X76.1162 Y15.2254
G01 X76.0891 Y15.1970
G01 X73.7980 Y12.9059
G01 X73.7980 Y1.8280
G01 X73.7968 Y1.7839
G01 X73.7884 Y1.7009
G01 X73.7719 Y1.6191
G01 X73.7475 Y1.5394
G01 X73.7174 Y1.4668
G01 X73.6758 Y1.3890
G01 X73.6293 Y1.3197
G01 X73.5795 Y1.2590
G01 X73.5491 Y1.2270
G01 X71.7711 Y-0.5510
G01 X71.7390 Y-0.5814
G01 X71.6744 Y-0.6341
G01 X71.6091 Y-0.6778
G01 X71.5357 Y-0.7173
G01 X71.4541 Y-0.7511
G01 X71.3789 Y-0.7739
G01 X71.2972 Y-0.7904
G01 X71.2142 Y-0.7988
G01 X71.1700 Y-0.8000
G01 X39.5690 Y-0.8000
G00 X39.5690 Y-0.8000
G01 F60.00
G01 Z-1.8000
G01 F120.00
G01 X71.1700 Y-0.8000
G01 X71.2142 Y-0.7988
G01 X71.2972 Y-0.7904
G01 X71.3789 Y-0.7739
G01 X71.4541 Y-0.7511
G01 X71.5357 Y-0.7173
G01 X71.6091 Y-0.6778
G01 X71.6744 Y-0.6341
G01 X71.7390 Y-0.5814
G01 X71.7711 Y-0.5510
G01 X73.5491 Y1.2270
G01 X73.5795 Y1.2590
G01 X73.6293 Y1.3197
G01 X73.6758 Y1.3890
G01 X73.7174 Y1.4668
G01 X73.7475 Y1.5394
G01 X73.7719 Y1.6191
G01 X73.7884 Y1.7009
G01 X73.7968 Y1.7839
G01 X73.7980 Y1.8280
G01 X73.7980 Y12.9059
G01 X76.0891 Y15.1970
G01 X76.1162 Y15.2254
G01 X76.1722 Y15.2937
G01 X76.2183 Y15.3632
G01 X76.2553 Y15.4324
G01 X76.2891 Y15.5140
G01 X76.3131 Y15.5939
G01 X76.3284 Y15.6709
G01 X76.3368 Y15.7539
G01 X76.3380 Y15.7980
G01 X76.3380 Y25.3740
G00 Z2.0000
M05
G00 Z2.0000
G00 Z15.00


