(G-CODE GENERATED BY FLATCAM v8.994 - www.flatcam.org - Version Date: 2020/11/7)

(Name: pet_puller_shield-F_Cu.gbr_iso_combined_cnc)
(Type: G-code from Geometry)
(Units: MM)

(Created on Sunday, 09 February 2025 at 14:07)

(This preprocessor is the default preprocessor used by FlatCAM.)
(It is made to work with MACH3 compatible motion controllers.)

(TOOL DIAMETER: 0.1655 mm)
(Feedrate_XY: 60.0 mm/min)
(Feedrate_Z: 30.0 mm/min)
(Feedrate rapids 1500.0 mm/min)

(Z_Cut: -0.09 mm)
(Z_Move: 2.0 mm)
(Z Start: None mm)
(Z End: 35.0 mm)
(X,Y End: None mm)
(Steps per circle: 64)
(Preprocessor Geometry: default)

(X range:   -0.1200 ...   75.6581  mm)
(Y range:   -0.1200 ...   54.0878  mm)

(Spindle Speed: 20000.0 RPM)
G21
G90
G94

G01 F60.00

M5
G00 Z15.0000
G00 X0.0000 Y0.0000
T1
M6    
(MSG, Change to Tool Dia = 0.1655)
M0
G00 Z15.0000

M03 S20000.0
G01 F60.00
G00 X9.8067 Y6.9692
G01 F30.00
G01 Z-0.0900
G01 F60.00
G01 X9.8264 Y6.8916
G01 X9.8532 Y6.8161
G01 X9.8572 Y6.8055
G01 X9.8619 Y6.7951
G01 X9.8963 Y6.7228
G01 X9.9373 Y6.6540
G01 X9.9433 Y6.6444
G01 X9.9499 Y6.6351
G01 X9.9978 Y6.5710
G01 X10.0514 Y6.5115
G01 X10.0592 Y6.5032
G01 X10.1183 Y6.4492
G01 X10.1270 Y6.4418
G01 X10.1359 Y6.4348
G01 X10.2004 Y6.3873
G01 X10.2689 Y6.3459
G01 X10.2788 Y6.3403
G01 X10.2890 Y6.3352
G01 X10.3615 Y6.3012
G01 X10.4368 Y6.2740
G01 X10.4476 Y6.2704
G01 X10.4585 Y6.2674
G01 X10.5252 Y6.2507
G01 X10.5363 Y6.2482
G01 X10.5475 Y6.2463
G01 X10.6267 Y6.2348
G01 X10.7067 Y6.2306
G01 X10.7180 Y6.2303
G01 X10.7294 Y6.2306
G01 X10.8093 Y6.2348
G01 X10.8886 Y6.2463
G01 X10.8998 Y6.2482
G01 X10.9775 Y6.2674
G01 X10.9885 Y6.2704
G01 X10.9993 Y6.2740
G01 X11.0640 Y6.2972
G01 X11.0746 Y6.3012
G01 X11.0850 Y6.3059
G01 X11.1572 Y6.3403
G01 X11.2260 Y6.3813
G01 X11.2356 Y6.3873
G01 X11.2449 Y6.3939
G01 X11.3091 Y6.4418
G01 X11.3686 Y6.4954
G01 X11.3768 Y6.5032
G01 X11.3847 Y6.5115
G01 X11.4308 Y6.5623
G01 X11.4382 Y6.5710
G01 X11.4452 Y6.5799
G01 X11.4927 Y6.6444
G01 X11.5341 Y6.7129
G01 X11.5397 Y6.7228
G01 X11.5448 Y6.7330
G01 X11.5742 Y6.7951
G01 X11.5788 Y6.8055
G01 X11.5829 Y6.8161
G01 X11.6096 Y6.8916
G01 X11.6293 Y6.9692
G01 X11.6318 Y6.9803
G01 X11.6338 Y6.9915
G01 X11.6452 Y7.0707
G01 X11.6494 Y7.1507
G01 X11.6497 Y7.1620
G01 X11.6494 Y7.1734
G01 X11.6452 Y7.2533
G01 X11.6438 Y7.2646
G01 X11.6329 Y7.3382
G01 X11.6293 Y7.3549
G01 X11.6126 Y7.4215
G01 X11.6096 Y7.4325
G01 X11.6060 Y7.4433
G01 X11.5788 Y7.5186
G01 X11.5448 Y7.5911
G01 X11.5370 Y7.6062
G01 X11.4988 Y7.6700
G01 X11.4927 Y7.6796
G01 X11.4862 Y7.6889
G01 X11.4418 Y7.7486
G01 X11.4308 Y7.7617
G01 X11.3808 Y7.8168
G01 X11.3728 Y7.8248
G01 X11.3499 Y7.8456
G01 X11.3499 Y11.7263
G01 X14.5358 Y14.9121
G01 X17.9660 Y14.9121
G01 X17.9788 Y14.8909
G01 X17.9851 Y14.8814
G01 X18.0441 Y14.8017
G01 X18.0548 Y14.7884
G01 X18.1213 Y14.7149
G01 X18.1292 Y14.7067
G01 X18.2067 Y14.6361
G01 X18.2197 Y14.6251
G01 X18.2993 Y14.5659
G01 X18.3086 Y14.5594
G01 X18.3182 Y14.5533
G01 X18.4083 Y14.4997
G01 X18.5030 Y14.4546
G01 X18.5134 Y14.4500
G01 X18.6120 Y14.4144
G01 X18.6228 Y14.4108
G01 X18.6337 Y14.4078
G01 X18.7244 Y14.3851
G01 X18.7355 Y14.3826
G01 X18.7467 Y14.3806
G01 X18.8505 Y14.3655
G01 X18.9552 Y14.3601
G01 X18.9665 Y14.3598
G01 X19.0672 Y14.3599
G01 X19.1663 Y14.3647
G01 X19.1832 Y14.3662
G01 X19.2813 Y14.3806
G01 X19.2926 Y14.3826
G01 X19.3036 Y14.3851
G01 X19.3998 Y14.4092
G01 X19.4161 Y14.4144
G01 X19.5147 Y14.4500
G01 X19.6096 Y14.4945
G01 X19.6198 Y14.4997
G01 X19.6296 Y14.5053
G01 X19.7194 Y14.5594
G01 X19.8038 Y14.6216
G01 X19.8128 Y14.6286
G01 X19.8214 Y14.6361
G01 X19.8989 Y14.7067
G01 X19.9695 Y14.7842
G01 X19.9769 Y14.7928
G01 X19.9839 Y14.8017
G01 X20.0462 Y14.8861
G01 X20.1003 Y14.9759
G01 X20.1059 Y14.9858
G01 X20.1110 Y14.9960
G01 X20.1556 Y15.0909
G01 X20.1912 Y15.1895
G01 X20.1947 Y15.2003
G01 X20.1978 Y15.2112
G01 X20.2230 Y15.3130
G01 X20.2386 Y15.4167
G01 X20.2400 Y15.4280
G01 X20.2409 Y15.4393
G01 X20.2457 Y15.5440
G01 X20.2409 Y15.6488
G01 X20.2400 Y15.6601
G01 X20.2386 Y15.6714
G01 X20.2230 Y15.7751
G01 X20.1978 Y15.8768
G01 X20.1947 Y15.8878
G01 X20.1912 Y15.8986
G01 X20.1556 Y15.9972
G01 X20.1110 Y16.0921
G01 X20.1059 Y16.1023
G01 X20.1003 Y16.1121
G01 X20.0462 Y16.2019
G01 X19.9839 Y16.2863
G01 X19.9769 Y16.2953
G01 X19.9695 Y16.3039
G01 X19.9029 Y16.3773
G01 X19.8906 Y16.3892
G01 X19.8128 Y16.4594
G01 X19.7287 Y16.5221
G01 X19.7194 Y16.5287
G01 X19.7098 Y16.5347
G01 X19.6198 Y16.5884
G01 X19.5251 Y16.6335
G01 X19.5147 Y16.6381
G01 X19.5041 Y16.6422
G01 X19.4107 Y16.6755
G01 X19.3943 Y16.6803
G01 X19.2926 Y16.7055
G01 X19.1889 Y16.7211
G01 X19.1719 Y16.7230
G01 X19.0672 Y16.7282
G01 X18.9665 Y16.7282
G01 X18.9552 Y16.7279
G01 X18.8561 Y16.7230
G01 X18.8392 Y16.7211
G01 X18.7355 Y16.7055
G01 X18.6337 Y16.6803
G01 X18.6228 Y16.6772
G01 X18.6120 Y16.6737
G01 X18.5134 Y16.6381
G01 X18.4185 Y16.5935
G01 X18.4083 Y16.5884
G01 X18.3984 Y16.5828
G01 X18.3182 Y16.5347
G01 X18.3086 Y16.5287
G01 X18.2993 Y16.5221
G01 X18.2153 Y16.4594
G01 X18.2067 Y16.4520
G01 X18.1292 Y16.3814
G01 X18.0586 Y16.3039
G01 X18.0476 Y16.2908
G01 X17.9851 Y16.2066
G01 X17.9788 Y16.1972
G01 X17.9660 Y16.1759
G01 X14.2740 Y16.1759
G01 X14.2627 Y16.1756
G01 X14.2121 Y16.1729
G01 X14.1620 Y16.1657
G01 X14.1507 Y16.1638
G01 X14.1397 Y16.1613
G01 X14.0906 Y16.1487
G01 X14.0798 Y16.1451
G01 X14.0322 Y16.1278
G01 X13.9863 Y16.1064
G01 X13.9761 Y16.1013
G01 X13.9326 Y16.0755
G01 X13.9230 Y16.0694
G01 X13.9137 Y16.0629
G01 X13.8732 Y16.0325
G01 X13.8313 Y15.9948
G01 X10.2712 Y12.4348
G01 X10.2634 Y12.4266
G01 X10.2296 Y12.3889
G01 X10.1992 Y12.3484
G01 X10.1926 Y12.3391
G01 X10.1865 Y12.3295
G01 X10.1607 Y12.2859
G01 X10.1365 Y12.2351
G01 X10.1301 Y12.2192
G01 X10.1133 Y12.1715
G01 X10.1008 Y12.1224
G01 X10.0983 Y12.1113
G01 X10.0963 Y12.1001
G01 X10.0892 Y12.0500
G01 X10.0883 Y12.0386
G01 X10.0861 Y11.9880
G01 X10.0861 Y7.8456
G01 X10.0633 Y7.8248
G01 X10.0552 Y7.8168
G01 X10.0015 Y7.7574
G01 X9.9908 Y7.7441
G01 X9.9499 Y7.6889
G01 X9.9402 Y7.6749
G01 X9.9019 Y7.6111
G01 X9.8963 Y7.6012
G01 X9.8619 Y7.5290
G01 X9.8572 Y7.5186
G01 X9.8532 Y7.5080
G01 X9.8282 Y7.4379
G01 X9.8234 Y7.4215
G01 X9.8067 Y7.3549
G01 X9.8042 Y7.3438
G01 X9.8023 Y7.3326
G01 X9.7908 Y7.2533
G01 X9.7866 Y7.1734
G01 X9.7863 Y7.1620
G01 X9.7866 Y7.1507
G01 X9.7908 Y7.0707
G01 X9.8023 Y6.9915
G01 X9.8042 Y6.9803
G01 X9.8067 Y6.9692
G00 Z2.0000
G00 X9.9512 Y7.0054
G01 F30.00
G01 Z-0.0900
G01 F60.00
G01 X9.9690 Y6.9348
G01 X9.9934 Y6.8663
G01 X9.9965 Y6.8588
G01 X10.0277 Y6.7930
G01 X10.0672 Y6.7272
G01 X10.1105 Y6.6687
G01 X10.1156 Y6.6624
G01 X10.1617 Y6.6115
G01 X10.1675 Y6.6057
G01 X10.2215 Y6.5570
G01 X10.2798 Y6.5135
G01 X10.2866 Y6.5090
G01 X10.3455 Y6.4737
G01 X10.3527 Y6.4699
G01 X10.4185 Y6.4389
G01 X10.4908 Y6.4130
G01 X10.5653 Y6.3943
G01 X10.6373 Y6.3835
G01 X10.6454 Y6.3827
G01 X10.7140 Y6.3794
G01 X10.7221 Y6.3794
G01 X10.7947 Y6.3830
G01 X10.8707 Y6.3943
G01 X10.9452 Y6.4130
G01 X11.0138 Y6.4374
G01 X11.0213 Y6.4405
G01 X11.0870 Y6.4717
G01 X11.1495 Y6.5090
G01 X11.1562 Y6.5135
G01 X11.2146 Y6.5570
G01 X11.2715 Y6.6085
G01 X11.3204 Y6.6624
G01 X11.3256 Y6.6687
G01 X11.3689 Y6.7272
G01 X11.4074 Y6.7913
G01 X11.4412 Y6.8625
G01 X11.4658 Y6.9309
G01 X11.4682 Y6.9387
G01 X11.4848 Y7.0054
G01 X11.4864 Y7.0133
G01 X11.4970 Y7.0853
G01 X11.5008 Y7.1620
G01 X11.4970 Y7.2387
G01 X11.4857 Y7.3147
G01 X11.4671 Y7.3892
G01 X11.4412 Y7.4616
G01 X11.4083 Y7.5310
G01 X11.3710 Y7.5935
G01 X11.3665 Y7.6002
G01 X11.3231 Y7.6586
G01 X11.2743 Y7.7126
G01 X11.2686 Y7.7183
G01 X11.2162 Y7.7658
G01 X11.2010 Y7.7773
G01 X11.2010 Y11.7880
G01 X14.4741 Y15.0611
G01 X18.0510 Y15.0611
G01 X18.0555 Y15.0525
G01 X18.1036 Y14.9723
G01 X18.1081 Y14.9656
G01 X18.1663 Y14.8873
G01 X18.2317 Y14.8149
G01 X18.2374 Y14.8092
G01 X18.3098 Y14.7438
G01 X18.3914 Y14.6832
G01 X18.4785 Y14.6310
G01 X18.5685 Y14.5884
G01 X18.6622 Y14.5546
G01 X18.6699 Y14.5523
G01 X18.7646 Y14.5287
G01 X18.8671 Y14.5136
G01 X18.9645 Y14.5088
G01 X19.0656 Y14.5089
G01 X19.1630 Y14.5138
G01 X19.2655 Y14.5291
G01 X19.3620 Y14.5534
G01 X19.4539 Y14.5861
G01 X19.4614 Y14.5892
G01 X19.5495 Y14.6310
G01 X19.6332 Y14.6811
G01 X19.6400 Y14.6856
G01 X19.7183 Y14.7438
G01 X19.7906 Y14.8092
G01 X19.7964 Y14.8149
G01 X19.8618 Y14.8873
G01 X19.9200 Y14.9656
G01 X19.9245 Y14.9723
G01 X19.9745 Y15.0560
G01 X20.0163 Y15.1441
G01 X20.0194 Y15.1516
G01 X20.0522 Y15.2435
G01 X20.0760 Y15.3381
G01 X20.0776 Y15.3461
G01 X20.0918 Y15.4426
G01 X20.0967 Y15.5400
G01 X20.0967 Y15.5481
G01 X20.0918 Y15.6455
G01 X20.0776 Y15.7420
G01 X20.0760 Y15.7500
G01 X20.0522 Y15.8445
G01 X20.0194 Y15.9364
G01 X20.0163 Y15.9439
G01 X19.9745 Y16.0320
G01 X19.9245 Y16.1157
G01 X19.9200 Y16.1225
G01 X19.8618 Y16.2008
G01 X19.7950 Y16.2746
G01 X19.7183 Y16.3443
G01 X19.6400 Y16.4025
G01 X19.6332 Y16.4070
G01 X19.5495 Y16.4570
G01 X19.4614 Y16.4988
G01 X19.4539 Y16.5019
G01 X19.3640 Y16.5341
G01 X19.2635 Y16.5594
G01 X19.1610 Y16.5745
G01 X19.0636 Y16.5792
G01 X18.9665 Y16.5793
G01 X18.8671 Y16.5745
G01 X18.7646 Y16.5594
G01 X18.6699 Y16.5358
G01 X18.6622 Y16.5334
G01 X18.5704 Y16.5005
G01 X18.4821 Y16.4589
G01 X18.4750 Y16.4550
G01 X18.3914 Y16.4048
G01 X18.3130 Y16.3468
G01 X18.3067 Y16.3416
G01 X18.2345 Y16.2761
G01 X18.1689 Y16.2039
G01 X18.1638 Y16.1976
G01 X18.1057 Y16.1192
G01 X18.0555 Y16.0356
G01 X18.0510 Y16.0270
G01 X14.2720 Y16.0269
G01 X14.2267 Y16.0246
G01 X14.1798 Y16.0177
G01 X14.1338 Y16.0062
G01 X14.0892 Y15.9902
G01 X14.0464 Y15.9699
G01 X14.0057 Y15.9456
G01 X13.9676 Y15.9174
G01 X13.9340 Y15.8869
G01 X10.3765 Y12.3295
G01 X10.3447 Y12.2944
G01 X10.3165 Y12.2563
G01 X10.2921 Y12.2157
G01 X10.2726 Y12.1747
G01 X10.2559 Y12.1282
G01 X10.2444 Y12.0822
G01 X10.2374 Y12.0354
G01 X10.2351 Y11.9880
G01 X10.2351 Y7.7773
G01 X10.2199 Y7.7658
G01 X10.1645 Y7.7155
G01 X10.1156 Y7.6617
G01 X10.1105 Y7.6554
G01 X10.0672 Y7.5969
G01 X10.0297 Y7.5345
G01 X10.0259 Y7.5274
G01 X9.9965 Y7.4653
G01 X9.9934 Y7.4578
G01 X9.9690 Y7.3892
G01 X9.9512 Y7.3187
G01 X9.9496 Y7.3107
G01 X9.9390 Y7.2387
G01 X9.9353 Y7.1620
G01 X9.9387 Y7.0894
G01 X9.9395 Y7.0813
G01 X9.9496 Y7.0133
G01 X9.9512 Y7.0054
G00 Z2.0000
G00 X15.1687 Y12.0443
G01 F30.00
G01 Z-0.0900
G01 F60.00
G01 X15.1661 Y11.9880
G01 X15.1661 Y7.8456
G01 X15.1433 Y7.8248
G01 X15.1352 Y7.8168
G01 X15.0815 Y7.7574
G01 X15.0708 Y7.7441
G01 X15.0266 Y7.6843
G01 X15.0173 Y7.6700
G01 X14.9763 Y7.6012
G01 X14.9419 Y7.5290
G01 X14.9351 Y7.5133
G01 X14.9100 Y7.4433
G01 X14.9064 Y7.4325
G01 X14.9034 Y7.4215
G01 X14.8842 Y7.3438
G01 X14.8722 Y7.2646
G01 X14.8708 Y7.2533
G01 X14.8700 Y7.2420
G01 X14.8663 Y7.1620
G01 X14.8700 Y7.0820
G01 X14.8714 Y7.0651
G01 X14.8823 Y6.9915
G01 X14.8842 Y6.9803
G01 X14.9034 Y6.9025
G01 X14.9064 Y6.8916
G01 X14.9100 Y6.8808
G01 X14.9372 Y6.8055
G01 X14.9419 Y6.7951
G01 X14.9763 Y6.7228
G01 X15.0173 Y6.6540
G01 X15.0233 Y6.6444
G01 X15.0299 Y6.6351
G01 X15.0778 Y6.5710
G01 X15.1314 Y6.5115
G01 X15.1392 Y6.5032
G01 X15.1475 Y6.4954
G01 X15.2070 Y6.4418
G01 X15.2159 Y6.4348
G01 X15.2804 Y6.3873
G01 X15.3489 Y6.3459
G01 X15.3588 Y6.3403
G01 X15.3690 Y6.3352
G01 X15.4415 Y6.3012
G01 X15.4521 Y6.2972
G01 X15.5276 Y6.2704
G01 X15.6052 Y6.2507
G01 X15.6163 Y6.2482
G01 X15.6954 Y6.2362
G01 X15.7067 Y6.2348
G01 X15.7180 Y6.2340
G01 X15.7980 Y6.2303
G01 X15.8780 Y6.2340
G01 X15.8950 Y6.2354
G01 X15.9686 Y6.2463
G01 X15.9798 Y6.2482
G01 X16.0575 Y6.2674
G01 X16.0685 Y6.2704
G01 X16.0793 Y6.2740
G01 X16.1546 Y6.3012
G01 X16.2271 Y6.3352
G01 X16.2372 Y6.3403
G01 X16.2471 Y6.3459
G01 X16.3060 Y6.3813
G01 X16.3156 Y6.3873
G01 X16.3249 Y6.3939
G01 X16.3891 Y6.4418
G01 X16.4486 Y6.4954
G01 X16.4568 Y6.5032
G01 X16.4647 Y6.5115
G01 X16.5182 Y6.5710
G01 X16.5662 Y6.6351
G01 X16.5727 Y6.6444
G01 X16.5788 Y6.6540
G01 X16.6141 Y6.7129
G01 X16.6197 Y6.7228
G01 X16.6248 Y6.7330
G01 X16.6588 Y6.8055
G01 X16.6860 Y6.8808
G01 X16.6896 Y6.8916
G01 X16.6926 Y6.9025
G01 X16.7118 Y6.9803
G01 X16.7238 Y7.0594
G01 X16.7252 Y7.0707
G01 X16.7261 Y7.0820
G01 X16.7297 Y7.1620
G01 X16.7261 Y7.2420
G01 X16.7252 Y7.2533
G01 X16.7238 Y7.2646
G01 X16.7118 Y7.3438
G01 X16.6926 Y7.4215
G01 X16.6896 Y7.4325
G01 X16.6860 Y7.4433
G01 X16.6609 Y7.5133
G01 X16.6542 Y7.5290
G01 X16.6197 Y7.6012
G01 X16.5788 Y7.6700
G01 X16.5695 Y7.6843
G01 X16.5252 Y7.7441
G01 X16.5146 Y7.7574
G01 X16.4608 Y7.8168
G01 X16.4528 Y7.8248
G01 X16.4299 Y7.8456
G01 X16.4299 Y11.7263
G01 X17.0758 Y12.3721
G01 X17.7823 Y12.3721
G01 X17.7824 Y12.0458
G01 X17.7834 Y12.0288
G01 X17.7857 Y12.0119
G01 X17.7893 Y11.9952
G01 X17.7940 Y11.9788
G01 X17.7979 Y11.9681
G01 X17.8046 Y11.9525
G01 X17.8124 Y11.9373
G01 X17.8183 Y11.9276
G01 X17.8246 Y11.9181
G01 X17.8349 Y11.9045
G01 X17.8462 Y11.8918
G01 X17.8584 Y11.8798
G01 X17.8670 Y11.8724
G01 X17.8806 Y11.8621
G01 X17.8949 Y11.8528
G01 X17.9099 Y11.8446
G01 X17.9254 Y11.8375
G01 X17.9413 Y11.8315
G01 X17.9522 Y11.8282
G01 X17.9688 Y11.8243
G01 X17.9800 Y11.8223
G01 X17.9913 Y11.8209
G01 X18.0027 Y11.8201
G01 X18.0140 Y11.8198
G01 X20.0140 Y11.8198
G01 X20.0254 Y11.8201
G01 X20.0424 Y11.8216
G01 X20.0592 Y11.8243
G01 X20.0758 Y11.8282
G01 X20.0921 Y11.8334
G01 X20.1079 Y11.8397
G01 X20.1182 Y11.8446
G01 X20.1331 Y11.8528
G01 X20.1474 Y11.8621
G01 X20.1610 Y11.8724
G01 X20.1738 Y11.8837
G01 X20.1857 Y11.8959
G01 X20.1967 Y11.9090
G01 X20.2067 Y11.9228
G01 X20.2156 Y11.9373
G01 X20.2235 Y11.9525
G01 X20.2302 Y11.9681
G01 X20.2357 Y11.9843
G01 X20.2401 Y12.0008
G01 X20.2423 Y12.0119
G01 X20.2440 Y12.0232
G01 X20.2454 Y12.0402
G01 X20.2457 Y12.0515
G01 X20.2457 Y12.3721
G01 X21.2590 Y12.3721
G01 X21.3096 Y12.3743
G01 X21.3266 Y12.3758
G01 X21.3823 Y12.3843
G01 X21.4370 Y12.3978
G01 X21.4533 Y12.4029
G01 X21.4902 Y12.4161
G01 X21.5008 Y12.4202
G01 X21.5112 Y12.4248
G01 X21.5569 Y12.4467
G01 X21.6005 Y12.4725
G01 X21.6101 Y12.4786
G01 X21.6194 Y12.4852
G01 X21.6599 Y12.5156
G01 X21.6976 Y12.5494
G01 X21.7058 Y12.5572
G01 X28.0558 Y18.9072
G01 X28.0938 Y18.9488
G01 X28.1045 Y18.9621
G01 X28.1279 Y18.9937
G01 X28.1344 Y19.0030
G01 X28.1405 Y19.0126
G01 X28.1663 Y19.0561
G01 X28.1714 Y19.0663
G01 X28.1928 Y19.1122
G01 X28.1969 Y19.1228
G01 X28.2137 Y19.1706
G01 X28.2263 Y19.2197
G01 X28.2288 Y19.2307
G01 X28.2307 Y19.2420
G01 X28.2365 Y19.2808
G01 X28.2384 Y19.2978
G01 X28.2409 Y19.3540
G01 X28.2409 Y20.9073
G01 X33.6113 Y26.2777
G01 X33.6511 Y26.2796
G01 X33.6681 Y26.2811
G01 X33.7349 Y26.2909
G01 X33.7517 Y26.2941
G01 X33.8282 Y26.3134
G01 X33.8972 Y26.3378
G01 X33.9130 Y26.3442
G01 X33.9842 Y26.3781
G01 X34.0472 Y26.4155
G01 X34.0568 Y26.4215
G01 X34.0661 Y26.4281
G01 X34.1247 Y26.4719
G01 X34.1791 Y26.5209
G01 X34.1873 Y26.5287
G01 X34.1952 Y26.5369
G01 X34.2441 Y26.5914
G01 X34.2511 Y26.6003
G01 X34.2945 Y26.6593
G01 X34.3324 Y26.7219
G01 X34.3380 Y26.7318
G01 X34.3719 Y26.8030
G01 X34.3782 Y26.8189
G01 X34.4026 Y26.8879
G01 X34.4220 Y26.9644
G01 X34.4251 Y26.9811
G01 X34.4349 Y27.0479
G01 X34.4364 Y27.0649
G01 X34.4384 Y27.1047
G01 X36.1513 Y28.8177
G01 X36.1911 Y28.8196
G01 X36.2081 Y28.8211
G01 X36.2749 Y28.8309
G01 X36.2917 Y28.8341
G01 X36.3682 Y28.8534
G01 X36.4372 Y28.8778
G01 X36.4530 Y28.8842
G01 X36.5242 Y28.9181
G01 X36.5872 Y28.9555
G01 X36.5968 Y28.9615
G01 X36.6061 Y28.9681
G01 X36.6647 Y29.0119
G01 X36.7191 Y29.0609
G01 X36.7273 Y29.0687
G01 X36.7352 Y29.0769
G01 X36.7841 Y29.1314
G01 X36.7911 Y29.1403
G01 X36.8345 Y29.1993
G01 X36.8724 Y29.2619
G01 X36.8780 Y29.2718
G01 X36.9095 Y29.3379
G01 X36.9141 Y29.3483
G01 X36.9182 Y29.3589
G01 X36.9426 Y29.4279
G01 X36.9457 Y29.4388
G01 X36.9632 Y29.5099
G01 X36.9742 Y29.5823
G01 X36.9756 Y29.5936
G01 X36.9794 Y29.6667
G01 X36.9797 Y29.6780
G01 X36.9794 Y29.6894
G01 X36.9761 Y29.7568
G01 X36.9742 Y29.7738
G01 X36.9651 Y29.8349
G01 X36.9632 Y29.8461
G01 X36.9607 Y29.8572
G01 X36.9442 Y29.9227
G01 X36.9391 Y29.9390
G01 X36.9141 Y30.0078
G01 X36.9095 Y30.0182
G01 X36.8780 Y30.0842
G01 X36.8406 Y30.1472
G01 X36.8345 Y30.1568
G01 X36.8280 Y30.1661
G01 X36.7841 Y30.2247
G01 X36.7352 Y30.2791
G01 X36.7273 Y30.2873
G01 X36.7191 Y30.2952
G01 X36.6647 Y30.3441
G01 X36.6061 Y30.3880
G01 X36.5968 Y30.3945
G01 X36.5872 Y30.4006
G01 X36.5242 Y30.4380
G01 X36.4582 Y30.4695
G01 X36.4478 Y30.4741
G01 X36.4372 Y30.4782
G01 X36.3682 Y30.5026
G01 X36.2972 Y30.5207
G01 X36.2861 Y30.5232
G01 X36.2749 Y30.5251
G01 X36.2025 Y30.5356
G01 X36.1294 Y30.5394
G01 X36.1180 Y30.5397
G01 X36.1067 Y30.5394
G01 X36.0336 Y30.5356
G01 X35.9611 Y30.5251
G01 X35.9499 Y30.5232
G01 X35.9388 Y30.5207
G01 X35.8679 Y30.5026
G01 X35.7989 Y30.4782
G01 X35.7883 Y30.4741
G01 X35.7220 Y30.4431
G01 X35.7118 Y30.4380
G01 X35.6489 Y30.4006
G01 X35.6393 Y30.3945
G01 X35.5803 Y30.3511
G01 X35.5714 Y30.3441
G01 X35.5628 Y30.3367
G01 X35.5087 Y30.2873
G01 X35.4594 Y30.2333
G01 X35.4484 Y30.2202
G01 X35.4015 Y30.1568
G01 X35.3637 Y30.0941
G01 X35.3581 Y30.0842
G01 X35.3530 Y30.0741
G01 X35.3265 Y30.0182
G01 X35.3198 Y30.0025
G01 X35.2970 Y29.9390
G01 X35.2934 Y29.9282
G01 X35.2904 Y29.9172
G01 X35.2741 Y29.8517
G01 X35.2709 Y29.8349
G01 X35.2605 Y29.7625
G01 X35.2577 Y29.7113
G01 X33.5447 Y27.9984
G01 X33.5049 Y27.9964
G01 X33.4879 Y27.9949
G01 X33.4211 Y27.9851
G01 X33.4044 Y27.9820
G01 X33.3279 Y27.9626
G01 X33.2589 Y27.9382
G01 X33.2430 Y27.9319
G01 X33.1718 Y27.8980
G01 X33.1089 Y27.8606
G01 X33.0993 Y27.8545
G01 X33.0900 Y27.8480
G01 X33.0314 Y27.8041
G01 X32.9769 Y27.7552
G01 X32.9687 Y27.7473
G01 X32.9609 Y27.7391
G01 X32.9119 Y27.6847
G01 X32.9049 Y27.6757
G01 X32.8615 Y27.6168
G01 X32.8237 Y27.5541
G01 X32.8181 Y27.5442
G01 X32.7842 Y27.4730
G01 X32.7778 Y27.4572
G01 X32.7534 Y27.3882
G01 X32.7341 Y27.3117
G01 X32.7309 Y27.2949
G01 X32.7211 Y27.2281
G01 X32.7196 Y27.2111
G01 X32.7177 Y27.1713
G01 X27.4019 Y21.8555
G01 X27.3672 Y21.8428
G01 X27.3162 Y21.8189
G01 X27.3013 Y21.8107
G01 X27.2627 Y21.7875
G01 X27.2487 Y21.7779
G01 X27.2082 Y21.7475
G01 X27.1704 Y21.7137
G01 X27.1582 Y21.7018
G01 X27.1206 Y21.6599
G01 X27.1136 Y21.6509
G01 X27.0836 Y21.6101
G01 X27.0573 Y21.5668
G01 X27.0517 Y21.5569
G01 X27.0298 Y21.5112
G01 X27.0252 Y21.5008
G01 X27.0211 Y21.4902
G01 X27.0061 Y21.4479
G01 X27.0013 Y21.4315
G01 X26.9893 Y21.3823
G01 X26.9873 Y21.3711
G01 X26.9802 Y21.3210
G01 X26.9793 Y21.3096
G01 X26.9771 Y21.2590
G01 X26.9771 Y19.6158
G01 X20.9973 Y13.6359
G01 X20.2457 Y13.6359
G01 X20.2457 Y13.9622
G01 X20.2446 Y13.9792
G01 X20.2423 Y13.9961
G01 X20.2388 Y14.0128
G01 X20.2357 Y14.0238
G01 X20.2322 Y14.0346
G01 X20.2258 Y14.0504
G01 X20.2210 Y14.0607
G01 X20.2128 Y14.0756
G01 X20.2035 Y14.0899
G01 X20.1931 Y14.1035
G01 X20.1818 Y14.1163
G01 X20.1738 Y14.1243
G01 X20.1610 Y14.1356
G01 X20.1520 Y14.1426
G01 X20.1380 Y14.1523
G01 X20.1282 Y14.1581
G01 X20.1131 Y14.1660
G01 X20.0974 Y14.1727
G01 X20.0867 Y14.1765
G01 X20.0703 Y14.1813
G01 X20.0536 Y14.1848
G01 X20.0367 Y14.1871
G01 X20.0254 Y14.1879
G01 X20.0140 Y14.1882
G01 X18.0140 Y14.1882
G01 X17.9970 Y14.1876
G01 X17.9800 Y14.1857
G01 X17.9633 Y14.1826
G01 X17.9522 Y14.1798
G01 X17.9360 Y14.1747
G01 X17.9254 Y14.1706
G01 X17.9099 Y14.1635
G01 X17.8998 Y14.1581
G01 X17.8853 Y14.1492
G01 X17.8715 Y14.1392
G01 X17.8584 Y14.1282
G01 X17.8502 Y14.1204
G01 X17.8386 Y14.1079
G01 X17.8314 Y14.0991
G01 X17.8246 Y14.0899
G01 X17.8153 Y14.0756
G01 X17.8071 Y14.0607
G01 X17.8022 Y14.0504
G01 X17.7959 Y14.0346
G01 X17.7923 Y14.0238
G01 X17.7880 Y14.0073
G01 X17.7857 Y13.9961
G01 X17.7834 Y13.9792
G01 X17.7824 Y13.9622
G01 X17.7823 Y13.6359
G01 X16.8140 Y13.6359
G01 X16.8027 Y13.6356
G01 X16.7521 Y13.6329
G01 X16.7020 Y13.6257
G01 X16.6907 Y13.6238
G01 X16.6797 Y13.6213
G01 X16.6306 Y13.6087
G01 X16.6198 Y13.6051
G01 X16.5722 Y13.5878
G01 X16.5263 Y13.5664
G01 X16.5161 Y13.5613
G01 X16.5063 Y13.5557
G01 X16.4630 Y13.5294
G01 X16.4176 Y13.4960
G01 X16.4045 Y13.4851
G01 X16.3672 Y13.4508
G01 X15.3512 Y12.4348
G01 X15.3132 Y12.3932
G01 X15.3026 Y12.3799
G01 X15.2792 Y12.3484
G01 X15.2726 Y12.3391
G01 X15.2665 Y12.3295
G01 X15.2407 Y12.2859
G01 X15.2356 Y12.2757
G01 X15.2142 Y12.2298
G01 X15.2101 Y12.2192
G01 X15.1933 Y12.1715
G01 X15.1808 Y12.1224
G01 X15.1783 Y12.1113
G01 X15.1763 Y12.1001
G01 X15.1706 Y12.0612
G01 X15.1687 Y12.0443
G00 Z2.0000
G00 X15.3172 Y12.0333
G01 F30.00
G01 Z-0.0900
G01 F60.00
G01 X15.3151 Y11.9880
G01 X15.3151 Y7.7773
G01 X15.2999 Y7.7658
G01 X15.2445 Y7.7155
G01 X15.1956 Y7.6617
G01 X15.1905 Y7.6554
G01 X15.1472 Y7.5969
G01 X15.1097 Y7.5345
G01 X15.1059 Y7.5274
G01 X15.0749 Y7.4616
G01 X15.0503 Y7.3931
G01 X15.0479 Y7.3853
G01 X15.0303 Y7.3147
G01 X15.0195 Y7.2428
G01 X15.0187 Y7.2347
G01 X15.0153 Y7.1620
G01 X15.0190 Y7.0853
G01 X15.0303 Y7.0093
G01 X15.0490 Y6.9348
G01 X15.0749 Y6.8625
G01 X15.1077 Y6.7930
G01 X15.1472 Y6.7272
G01 X15.1930 Y6.6655
G01 X15.2445 Y6.6085
G01 X15.3015 Y6.5570
G01 X15.3632 Y6.5112
G01 X15.4290 Y6.4717
G01 X15.4985 Y6.4389
G01 X15.5708 Y6.4130
G01 X15.6453 Y6.3943
G01 X15.7213 Y6.3830
G01 X15.7980 Y6.3793
G01 X15.8747 Y6.3830
G01 X15.9507 Y6.3943
G01 X16.0213 Y6.4119
G01 X16.0291 Y6.4143
G01 X16.0938 Y6.4374
G01 X16.1013 Y6.4405
G01 X16.1670 Y6.4717
G01 X16.2329 Y6.5112
G01 X16.2946 Y6.5570
G01 X16.3515 Y6.6085
G01 X16.4031 Y6.6655
G01 X16.4489 Y6.7272
G01 X16.4883 Y6.7930
G01 X16.5195 Y6.8588
G01 X16.5227 Y6.8663
G01 X16.5458 Y6.9309
G01 X16.5482 Y6.9387
G01 X16.5657 Y7.0093
G01 X16.5772 Y7.0873
G01 X16.5807 Y7.1580
G01 X16.5807 Y7.1661
G01 X16.5770 Y7.2387
G01 X16.5664 Y7.3107
G01 X16.5648 Y7.3187
G01 X16.5471 Y7.3892
G01 X16.5204 Y7.4634
G01 X16.4883 Y7.5310
G01 X16.4510 Y7.5935
G01 X16.4465 Y7.6002
G01 X16.4044 Y7.6570
G01 X16.3501 Y7.7169
G01 X16.2962 Y7.7658
G01 X16.2810 Y7.7773
G01 X16.2810 Y11.7880
G01 X17.0141 Y12.5211
G01 X17.9313 Y12.5211
G01 X17.9313 Y12.0515
G01 X17.9319 Y12.0414
G01 X17.9343 Y12.0295
G01 X17.9361 Y12.0236
G01 X17.9392 Y12.0161
G01 X17.9420 Y12.0107
G01 X17.9464 Y12.0039
G01 X17.9541 Y11.9945
G01 X17.9631 Y11.9863
G01 X17.9698 Y11.9816
G01 X17.9750 Y11.9785
G01 X17.9861 Y11.9736
G01 X17.9939 Y11.9713
G01 X17.9999 Y11.9700
G01 X18.0059 Y11.9692
G01 X18.0140 Y11.9688
G01 X20.0161 Y11.9688
G01 X20.0242 Y11.9694
G01 X20.0302 Y11.9704
G01 X20.0361 Y11.9718
G01 X20.0438 Y11.9743
G01 X20.0512 Y11.9776
G01 X20.0583 Y11.9816
G01 X20.0633 Y11.9851
G01 X20.0696 Y11.9902
G01 X20.0740 Y11.9945
G01 X20.0793 Y12.0006
G01 X20.0839 Y12.0073
G01 X20.0870 Y12.0125
G01 X20.0897 Y12.0180
G01 X20.0926 Y12.0256
G01 X20.0948 Y12.0334
G01 X20.0959 Y12.0394
G01 X20.0968 Y12.0515
G01 X20.0968 Y12.5211
G01 X21.2590 Y12.5211
G01 X21.3043 Y12.5232
G01 X21.3492 Y12.5297
G01 X21.3572 Y12.5312
G01 X21.3992 Y12.5419
G01 X21.4438 Y12.5578
G01 X21.4867 Y12.5781
G01 X21.5239 Y12.6003
G01 X21.5307 Y12.6048
G01 X21.5622 Y12.6282
G01 X21.5685 Y12.6334
G01 X21.6005 Y12.6625
G01 X27.9505 Y19.0125
G01 X27.9810 Y19.0461
G01 X28.0082 Y19.0824
G01 X28.0128 Y19.0891
G01 X28.0349 Y19.1264
G01 X28.0552 Y19.1692
G01 X28.0712 Y19.2138
G01 X28.0818 Y19.2558
G01 X28.0834 Y19.2638
G01 X28.0892 Y19.3027
G01 X28.0899 Y19.3107
G01 X28.0920 Y19.3540
G01 X28.0920 Y20.9690
G01 X33.5496 Y26.4266
G01 X33.5801 Y26.4253
G01 X33.6459 Y26.4285
G01 X33.7151 Y26.4386
G01 X33.7849 Y26.4560
G01 X33.8489 Y26.4788
G01 X33.9140 Y26.5094
G01 X33.9740 Y26.5454
G01 X34.0302 Y26.5871
G01 X34.0820 Y26.6340
G01 X34.1290 Y26.6859
G01 X34.1707 Y26.7420
G01 X34.2066 Y26.8020
G01 X34.2373 Y26.8672
G01 X34.2601 Y26.9311
G01 X34.2775 Y27.0010
G01 X34.2875 Y27.0702
G01 X34.2907 Y27.1360
G01 X34.2895 Y27.1665
G01 X36.0896 Y28.9666
G01 X36.1201 Y28.9653
G01 X36.1859 Y28.9685
G01 X36.2551 Y28.9786
G01 X36.3249 Y28.9960
G01 X36.3889 Y29.0188
G01 X36.4540 Y29.0494
G01 X36.5140 Y29.0854
G01 X36.5702 Y29.1271
G01 X36.6234 Y29.1755
G01 X36.6690 Y29.2259
G01 X36.7107 Y29.2820
G01 X36.7466 Y29.3420
G01 X36.7765 Y29.4053
G01 X36.8001 Y29.4711
G01 X36.8171 Y29.5390
G01 X36.8273 Y29.6082
G01 X36.8307 Y29.6740
G01 X36.8307 Y29.6821
G01 X36.8273 Y29.7479
G01 X36.8178 Y29.8131
G01 X36.8162 Y29.8210
G01 X36.8012 Y29.8810
G01 X36.7988 Y29.8888
G01 X36.7765 Y29.9508
G01 X36.7466 Y30.0140
G01 X36.7107 Y30.0740
G01 X36.6677 Y30.1317
G01 X36.6220 Y30.1820
G01 X36.5702 Y30.2290
G01 X36.5140 Y30.2707
G01 X36.4540 Y30.3066
G01 X36.3908 Y30.3365
G01 X36.3249 Y30.3601
G01 X36.2571 Y30.3771
G01 X36.1919 Y30.3868
G01 X36.1838 Y30.3876
G01 X36.1180 Y30.3908
G01 X36.0482 Y30.3873
G01 X35.9790 Y30.3771
G01 X35.9150 Y30.3612
G01 X35.9073 Y30.3588
G01 X35.8453 Y30.3365
G01 X35.7857 Y30.3084
G01 X35.7785 Y30.3046
G01 X35.7255 Y30.2728
G01 X35.7187 Y30.2683
G01 X35.6659 Y30.2290
G01 X35.6170 Y30.1848
G01 X35.6112 Y30.1791
G01 X35.5671 Y30.1302
G01 X35.5254 Y30.0740
G01 X35.4894 Y30.0140
G01 X35.4588 Y29.9489
G01 X35.4360 Y29.8849
G01 X35.4186 Y29.8151
G01 X35.4085 Y29.7459
G01 X35.4053 Y29.6801
G01 X35.4066 Y29.6496
G01 X33.6065 Y27.8495
G01 X33.5760 Y27.8507
G01 X33.5102 Y27.8475
G01 X33.4410 Y27.8375
G01 X33.3711 Y27.8201
G01 X33.3072 Y27.7973
G01 X33.2420 Y27.7666
G01 X33.1820 Y27.7307
G01 X33.1259 Y27.6890
G01 X33.0740 Y27.6420
G01 X33.0271 Y27.5902
G01 X32.9854 Y27.5340
G01 X32.9494 Y27.4740
G01 X32.9188 Y27.4089
G01 X32.8960 Y27.3449
G01 X32.8786 Y27.2751
G01 X32.8685 Y27.2059
G01 X32.8653 Y27.1401
G01 X32.8666 Y27.1096
G01 X27.4814 Y21.7244
G01 X27.4669 Y21.7206
G01 X27.4261 Y21.7060
G01 X27.3796 Y21.6840
G01 X27.3407 Y21.6606
G01 X27.3058 Y21.6348
G01 X27.2996 Y21.6297
G01 X27.2661 Y21.5991
G01 X27.2357 Y21.5654
G01 X27.2075 Y21.5273
G01 X27.1831 Y21.4867
G01 X27.1645 Y21.4476
G01 X27.1614 Y21.4401
G01 X27.1481 Y21.4031
G01 X27.1458 Y21.3953
G01 X27.1354 Y21.3532
G01 X27.1282 Y21.3043
G01 X27.1261 Y21.2590
G01 X27.1261 Y19.5541
G01 X21.0590 Y13.4870
G01 X20.0968 Y13.4870
G01 X20.0968 Y13.9565
G01 X20.0962 Y13.9667
G01 X20.0938 Y13.9786
G01 X20.0919 Y13.9844
G01 X20.0888 Y13.9919
G01 X20.0860 Y13.9973
G01 X20.0817 Y14.0042
G01 X20.0740 Y14.0136
G01 X20.0649 Y14.0218
G01 X20.0583 Y14.0264
G01 X20.0530 Y14.0295
G01 X20.0419 Y14.0344
G01 X20.0341 Y14.0368
G01 X20.0282 Y14.0381
G01 X20.0221 Y14.0389
G01 X20.0140 Y14.0393
G01 X18.0140 Y14.0393
G01 X18.0039 Y14.0387
G01 X17.9939 Y14.0368
G01 X17.9824 Y14.0330
G01 X17.9715 Y14.0275
G01 X17.9615 Y14.0205
G01 X17.9527 Y14.0121
G01 X17.9452 Y14.0025
G01 X17.9420 Y13.9973
G01 X17.9384 Y13.9901
G01 X17.9343 Y13.9786
G01 X17.9319 Y13.9667
G01 X17.9313 Y13.9565
G01 X17.9313 Y13.4870
G01 X16.8100 Y13.4869
G01 X16.7707 Y13.4849
G01 X16.7627 Y13.4842
G01 X16.7198 Y13.4777
G01 X16.6777 Y13.4673
G01 X16.6700 Y13.4649
G01 X16.6292 Y13.4502
G01 X16.5846 Y13.4290
G01 X16.5457 Y13.4056
G01 X16.5108 Y13.3798
G01 X16.5046 Y13.3747
G01 X16.4740 Y13.3469
G01 X15.4537 Y12.3266
G01 X15.4247 Y12.2944
G01 X15.3965 Y12.2563
G01 X15.3721 Y12.2157
G01 X15.3535 Y12.1766
G01 X15.3504 Y12.1691
G01 X15.3371 Y12.1321
G01 X15.3348 Y12.1243
G01 X15.3244 Y12.0822
G01 X15.3172 Y12.0333
G00 Z2.0000
G00 X18.3381 Y14.3683
G01 F30.00
G01 Z-0.0900
G01 F60.00
G01 X18.3218 Y14.3775
G01 X18.2337 Y14.4305
G01 X18.2182 Y14.4408
G01 X18.1982 Y14.4555
G01 X18.1967 Y14.4421
G01 X18.1938 Y14.4234
G01 X18.1877 Y14.3957
G01 X18.1795 Y14.3686
G01 X18.1730 Y14.3508
G01 X18.1672 Y14.3372
G01 X18.4028 Y14.3372
G01 X18.3548 Y14.3599
G01 X18.3381 Y14.3683
G00 Z2.0000
G00 X19.6900 Y14.3683
G01 F30.00
G01 Z-0.0900
G01 F60.00
G01 X19.6733 Y14.3599
G01 X19.6252 Y14.3372
G01 X19.8226 Y14.3372
G01 X19.7993 Y14.4003
G01 X19.7936 Y14.4183
G01 X19.7909 Y14.4283
G01 X19.7062 Y14.3775
G01 X19.6900 Y14.3683
G00 Z2.0000
G00 X19.4663 Y16.8139
G01 F30.00
G01 Z-0.0900
G01 F60.00
G01 X19.5152 Y16.7964
G01 X19.5141 Y16.8090
G01 X19.5133 Y16.8310
G01 X19.4659 Y16.8140
G01 X19.4663 Y16.8139
G00 Z2.0000
G00 X18.5132 Y16.8285
G01 F30.00
G01 Z-0.0900
G01 F60.00
G01 X18.5144 Y16.8096
G01 X18.5147 Y16.7971
G01 X18.5621 Y16.8140
G01 X18.5129 Y16.8316
G01 X18.5132 Y16.8285
G00 Z2.0000
G00 X11.0875 Y23.0364
G01 F30.00
G01 Z-0.0900
G01 F60.00
G01 X11.2655 Y23.2201
G01 X11.4169 Y23.4263
G01 X11.5390 Y23.6511
G01 X11.6294 Y23.8904
G01 X11.6427 Y23.9483
G01 X11.5937 Y23.9483
G01 X11.5849 Y23.9133
G01 X11.5801 Y23.8969
G01 X11.5254 Y23.7437
G01 X11.5191 Y23.7278
G01 X11.4496 Y23.5807
G01 X11.4444 Y23.5706
G01 X11.4388 Y23.5607
G01 X11.3551 Y23.4212
G01 X11.3455 Y23.4071
G01 X11.2519 Y23.2810
G01 X11.2449 Y23.2720
G01 X11.2375 Y23.2634
G01 X11.1321 Y23.1471
G01 X11.1242 Y23.1388
G01 X11.1160 Y23.1310
G01 X10.9997 Y23.0255
G01 X10.9910 Y23.0181
G01 X10.9821 Y23.0111
G01 X10.8560 Y22.9176
G01 X10.8419 Y22.9079
G01 X10.7024 Y22.8242
G01 X10.6925 Y22.8186
G01 X10.6823 Y22.8135
G01 X10.5352 Y22.7440
G01 X10.5194 Y22.7377
G01 X10.3662 Y22.6829
G01 X10.3498 Y22.6782
G01 X10.3147 Y22.6694
G01 X10.3147 Y22.6216
G01 X10.4289 Y22.6516
G01 X10.6652 Y22.7495
G01 X10.8861 Y22.8785
G01 X11.0875 Y23.0364
G00 Z2.0000
G00 X10.4779 Y22.5106
G01 F30.00
G01 Z-0.0900
G01 F60.00
G01 X10.7329 Y22.6165
G01 X10.9712 Y22.7560
G01 X11.1862 Y22.9246
G01 X11.3785 Y23.1227
G01 X11.5421 Y23.3451
G01 X11.6741 Y23.5877
G01 X11.7718 Y23.8459
G01 X11.8296 Y24.0973
G01 X11.4774 Y24.0973
G01 X11.4393 Y23.9455
G01 X11.3851 Y23.7939
G01 X11.3820 Y23.7864
G01 X11.3131 Y23.6408
G01 X11.2304 Y23.5026
G01 X11.2258 Y23.4958
G01 X11.1298 Y23.3665
G01 X11.0189 Y23.2441
G01 X10.8966 Y23.1332
G01 X10.7672 Y23.0372
G01 X10.7605 Y23.0327
G01 X10.6223 Y22.9500
G01 X10.4767 Y22.8810
G01 X10.4692 Y22.8779
G01 X10.3175 Y22.8237
G01 X10.1658 Y22.7856
G01 X10.1658 Y22.4347
G01 X10.2108 Y22.4404
G01 X10.4779 Y22.5106
G00 Z2.0000
G00 X8.5273 Y23.0766
G01 F30.00
G01 Z-0.0900
G01 F60.00
G01 X8.7236 Y22.9125
G01 X8.9403 Y22.7766
G01 X9.1735 Y22.6713
G01 X9.3433 Y22.6210
G01 X9.3433 Y22.6694
G01 X9.3083 Y22.6782
G01 X9.2919 Y22.6829
G01 X9.1387 Y22.7377
G01 X9.1228 Y22.7440
G01 X8.9757 Y22.8135
G01 X8.9656 Y22.8186
G01 X8.9557 Y22.8242
G01 X8.8162 Y22.9079
G01 X8.8021 Y22.9176
G01 X8.6760 Y23.0111
G01 X8.6670 Y23.0181
G01 X8.6584 Y23.0255
G01 X8.5421 Y23.1310
G01 X8.5338 Y23.1388
G01 X8.5260 Y23.1471
G01 X8.4205 Y23.2634
G01 X8.4131 Y23.2720
G01 X8.4061 Y23.2810
G01 X8.3126 Y23.4071
G01 X8.3060 Y23.4164
G01 X8.2999 Y23.4260
G01 X8.2164 Y23.5656
G01 X8.2085 Y23.5807
G01 X8.1414 Y23.7227
G01 X8.1346 Y23.7383
G01 X8.0779 Y23.8969
G01 X8.0732 Y23.9133
G01 X8.0644 Y23.9483
G01 X8.0122 Y23.9483
G01 X8.0953 Y23.7052
G01 X8.2102 Y23.4767
G01 X8.3551 Y23.2658
G01 X8.5273 Y23.0766
G00 Z2.0000
G00 X8.0811 Y23.4020
G01 F30.00
G01 Z-0.0900
G01 F60.00
G01 X8.2373 Y23.1743
G01 X8.4230 Y22.9699
G01 X8.6371 Y22.7910
G01 X8.8711 Y22.6444
G01 X9.1201 Y22.5320
G01 X9.3848 Y22.4533
G01 X9.4923 Y22.4367
G01 X9.4923 Y22.7856
G01 X9.3405 Y22.8237
G01 X9.1889 Y22.8779
G01 X9.1814 Y22.8810
G01 X9.0358 Y22.9500
G01 X8.8976 Y23.0327
G01 X8.8908 Y23.0372
G01 X8.7615 Y23.1332
G01 X8.6391 Y23.2441
G01 X8.5282 Y23.3665
G01 X8.4322 Y23.4958
G01 X8.4277 Y23.5026
G01 X8.3450 Y23.6408
G01 X8.2760 Y23.7864
G01 X8.2729 Y23.7939
G01 X8.2187 Y23.9455
G01 X8.1806 Y24.0973
G01 X7.8312 Y24.0973
G01 X7.8687 Y23.9072
G01 X7.9572 Y23.6488
G01 X8.0811 Y23.4020
G00 Z2.0000
G00 X8.2193 Y24.9244
G01 F30.00
G01 Z-0.0900
G01 F60.00
G01 X8.2729 Y25.0742
G01 X8.2760 Y25.0817
G01 X8.3450 Y25.2273
G01 X8.4277 Y25.3655
G01 X8.4322 Y25.3722
G01 X8.5282 Y25.5016
G01 X8.6363 Y25.6210
G01 X8.6421 Y25.6267
G01 X8.7615 Y25.7348
G01 X8.8908 Y25.8308
G01 X8.8976 Y25.8354
G01 X9.0358 Y25.9181
G01 X9.1814 Y25.9870
G01 X9.1889 Y25.9901
G01 X9.3405 Y26.0443
G01 X9.4923 Y26.0824
G01 X9.4923 Y26.4324
G01 X9.4264 Y26.4236
G01 X9.1629 Y26.3515
G01 X8.9062 Y26.2420
G01 X8.6693 Y26.1000
G01 X8.4540 Y25.9272
G01 X8.2659 Y25.7290
G01 X8.1046 Y25.5049
G01 X7.9752 Y25.2610
G01 X7.8801 Y25.0018
G01 X7.8296 Y24.7708
G01 X8.1806 Y24.7708
G01 X8.2193 Y24.9244
G00 Z2.0000
G00 X8.0779 Y24.9712
G01 F30.00
G01 Z-0.0900
G01 F60.00
G01 X8.1327 Y25.1244
G01 X8.1368 Y25.1350
G01 X8.1414 Y25.1454
G01 X8.2085 Y25.2873
G01 X8.2136 Y25.2975
G01 X8.2192 Y25.3074
G01 X8.2999 Y25.4421
G01 X8.3060 Y25.4517
G01 X8.3126 Y25.4610
G01 X8.4061 Y25.5871
G01 X8.4131 Y25.5960
G01 X8.4205 Y25.6047
G01 X8.5260 Y25.7210
G01 X8.5338 Y25.7292
G01 X8.5421 Y25.7371
G01 X8.6584 Y25.8425
G01 X8.6670 Y25.8499
G01 X8.6760 Y25.8569
G01 X8.8021 Y25.9505
G01 X8.8162 Y25.9601
G01 X8.9557 Y26.0438
G01 X8.9656 Y26.0494
G01 X8.9757 Y26.0546
G01 X9.1228 Y26.1241
G01 X9.1387 Y26.1304
G01 X9.2919 Y26.1851
G01 X9.3083 Y26.1899
G01 X9.3433 Y26.1987
G01 X9.3433 Y26.2464
G01 X9.2105 Y26.2101
G01 X8.9752 Y26.1097
G01 X8.7557 Y25.9784
G01 X8.5560 Y25.8184
G01 X8.3799 Y25.6328
G01 X8.2306 Y25.4251
G01 X8.1109 Y25.1990
G01 X8.0230 Y24.9587
G01 X8.0145 Y24.9197
G01 X8.0644 Y24.9197
G01 X8.0732 Y24.9548
G01 X8.0779 Y24.9712
G00 Z2.0000
G00 X10.3214 Y26.0430
G01 F30.00
G01 Z-0.0900
G01 F60.00
G01 X10.4730 Y25.9887
G01 X10.6186 Y25.9199
G01 X10.6258 Y25.9161
G01 X10.7605 Y25.8354
G01 X10.7672 Y25.8308
G01 X10.8966 Y25.7348
G01 X11.0160 Y25.6267
G01 X11.0217 Y25.6210
G01 X11.1298 Y25.5016
G01 X11.2258 Y25.3722
G01 X11.2304 Y25.3655
G01 X11.3131 Y25.2273
G01 X11.3820 Y25.0817
G01 X11.3851 Y25.0742
G01 X11.4393 Y24.9225
G01 X11.4774 Y24.7708
G01 X11.8275 Y24.7708
G01 X11.7837 Y24.9813
G01 X11.6925 Y25.2389
G01 X11.5661 Y25.4843
G01 X11.4075 Y25.7103
G01 X11.2175 Y25.9147
G01 X11.0037 Y26.0895
G01 X10.7682 Y26.2336
G01 X10.5152 Y26.3444
G01 X10.2525 Y26.4192
G01 X10.1658 Y26.4318
G01 X10.1658 Y26.0824
G01 X10.3136 Y26.0454
G01 X10.3214 Y26.0430
G00 Z2.0000
G00 X10.3662 Y26.1851
G01 F30.00
G01 Z-0.0900
G01 F60.00
G01 X10.5194 Y26.1304
G01 X10.5300 Y26.1263
G01 X10.5404 Y26.1217
G01 X10.6823 Y26.0546
G01 X10.6925 Y26.0494
G01 X10.7024 Y26.0438
G01 X10.8371 Y25.9631
G01 X10.8467 Y25.9570
G01 X10.8560 Y25.9505
G01 X10.9821 Y25.8569
G01 X10.9910 Y25.8499
G01 X10.9997 Y25.8425
G01 X11.1160 Y25.7371
G01 X11.1242 Y25.7292
G01 X11.1321 Y25.7210
G01 X11.2375 Y25.6047
G01 X11.2449 Y25.5960
G01 X11.2519 Y25.5871
G01 X11.3455 Y25.4610
G01 X11.3520 Y25.4517
G01 X11.3581 Y25.4421
G01 X11.4417 Y25.3025
G01 X11.4496 Y25.2873
G01 X11.5167 Y25.1454
G01 X11.5234 Y25.1297
G01 X11.5801 Y24.9712
G01 X11.5849 Y24.9548
G01 X11.5937 Y24.9197
G01 X11.6446 Y24.9197
G01 X11.6404 Y24.9398
G01 X11.5550 Y25.1809
G01 X11.4377 Y25.4083
G01 X11.2906 Y25.6176
G01 X11.1164 Y25.8050
G01 X10.9185 Y25.9670
G01 X10.7003 Y26.1007
G01 X10.4661 Y26.2035
G01 X10.3147 Y26.2466
G01 X10.3147 Y26.1987
G01 X10.3498 Y26.1899
G01 X10.3662 Y26.1851
G00 Z2.0000
G00 X11.3937 Y31.2030
G01 F30.00
G01 Z-0.0900
G01 F60.00
G01 X11.5295 Y31.0489
G01 X11.6882 Y30.9186
G01 X11.8658 Y30.8153
G01 X11.9333 Y30.7893
G01 X11.9333 Y30.8386
G01 X11.8384 Y30.8838
G01 X11.8285 Y30.8894
G01 X11.7443 Y30.9398
G01 X11.7347 Y30.9459
G01 X11.7254 Y30.9525
G01 X11.6466 Y31.0109
G01 X11.6376 Y31.0179
G01 X11.6290 Y31.0253
G01 X11.5563 Y31.0912
G01 X11.5481 Y31.0991
G01 X11.5402 Y31.1073
G01 X11.4743 Y31.1800
G01 X11.4669 Y31.1886
G01 X11.4599 Y31.1976
G01 X11.4015 Y31.2764
G01 X11.3949 Y31.2857
G01 X11.3888 Y31.2953
G01 X11.3384 Y31.3795
G01 X11.3328 Y31.3894
G01 X11.3276 Y31.3996
G01 X11.2833 Y31.4934
G01 X11.2770 Y31.5093
G01 X11.2439 Y31.6017
G01 X11.2404 Y31.6125
G01 X11.2373 Y31.6234
G01 X11.2135 Y31.7186
G01 X11.2110 Y31.7297
G01 X11.2090 Y31.7409
G01 X11.1946 Y31.8380
G01 X11.1933 Y31.8493
G01 X11.1924 Y31.8606
G01 X11.1876 Y31.9587
G01 X11.1873 Y31.9700
G01 X11.1873 Y32.5843
G01 X11.1427 Y32.5843
G01 X11.1427 Y31.9184
G01 X11.1550 Y31.7653
G01 X11.2040 Y31.5658
G01 X11.2843 Y31.3768
G01 X11.3937 Y31.2030
G00 Z2.0000
G00 X11.0618 Y31.5204
G01 F30.00
G01 Z-0.0900
G01 F60.00
G01 X11.0629 Y31.5171
G01 X11.1512 Y31.3092
G01 X11.1528 Y31.3061
G01 X11.2731 Y31.1149
G01 X11.2752 Y31.1122
G01 X11.4246 Y30.9427
G01 X11.4271 Y30.9404
G01 X11.6016 Y30.7970
G01 X11.6045 Y30.7950
G01 X11.7997 Y30.6814
G01 X11.8028 Y30.6799
G01 X12.0137 Y30.5989
G01 X12.0170 Y30.5980
G01 X12.0823 Y30.5843
G01 X12.0823 Y30.9418
G01 X12.0047 Y30.9697
G01 X11.9122 Y31.0133
G01 X11.9051 Y31.0171
G01 X11.8209 Y31.0676
G01 X11.8142 Y31.0721
G01 X11.7321 Y31.1330
G01 X11.6534 Y31.2044
G01 X11.5820 Y31.2831
G01 X11.5211 Y31.3652
G01 X11.5166 Y31.3719
G01 X11.4641 Y31.4596
G01 X11.4203 Y31.5520
G01 X11.4172 Y31.5595
G01 X11.3842 Y31.6519
G01 X11.3818 Y31.6596
G01 X11.3580 Y31.7548
G01 X11.3564 Y31.7628
G01 X11.3415 Y31.8639
G01 X11.3364 Y31.9660
G01 X11.3363 Y32.7333
G01 X10.9938 Y32.7333
G01 X10.9938 Y31.9115
G01 X11.0074 Y31.7431
G01 X11.0079 Y31.7397
G01 X11.0618 Y31.5204
G00 Z2.0000
G00 X13.1267 Y30.7277
G01 F30.00
G01 Z-0.0900
G01 F60.00
G01 X13.3136 Y30.8547
G01 X13.3163 Y30.8569
G01 X13.4804 Y31.0121
G01 X13.4827 Y31.0146
G01 X13.6199 Y31.1941
G01 X13.6218 Y31.1970
G01 X13.7285 Y31.3960
G01 X13.7299 Y31.3992
G01 X13.8034 Y31.6128
G01 X13.8043 Y31.6161
G01 X13.8433 Y31.8432
G01 X13.8443 Y31.8643
G01 X13.8443 Y32.7333
G01 X13.5018 Y32.7333
G01 X13.5018 Y31.9700
G01 X13.4967 Y31.8659
G01 X13.4817 Y31.7628
G01 X13.4801 Y31.7548
G01 X13.4552 Y31.6557
G01 X13.4194 Y31.5557
G01 X13.3739 Y31.4596
G01 X13.3193 Y31.3685
G01 X13.2560 Y31.2831
G01 X13.1874 Y31.2073
G01 X13.1817 Y31.2016
G01 X13.1059 Y31.1330
G01 X13.0239 Y31.0721
G01 X13.0171 Y31.0676
G01 X12.9330 Y31.0171
G01 X12.9258 Y31.0133
G01 X12.8334 Y30.9697
G01 X12.7558 Y30.9418
G01 X12.7558 Y30.5841
G01 X12.9158 Y30.6293
G01 X12.9190 Y30.6305
G01 X13.1237 Y30.7260
G01 X13.1267 Y30.7277
G00 Z2.0000
G00 X13.5924 Y31.4574
G01 F30.00
G01 Z-0.0900
G01 F60.00
G01 X13.6593 Y31.6516
G01 X13.6949 Y31.8580
G01 X13.6953 Y31.8672
G01 X13.6953 Y32.5843
G01 X13.6507 Y32.5843
G01 X13.6507 Y31.9700
G01 X13.6504 Y31.9587
G01 X13.6456 Y31.8606
G01 X13.6448 Y31.8493
G01 X13.6434 Y31.8380
G01 X13.6290 Y31.7409
G01 X13.6271 Y31.7297
G01 X13.6246 Y31.7186
G01 X13.6007 Y31.6234
G01 X13.5977 Y31.6125
G01 X13.5941 Y31.6017
G01 X13.5611 Y31.5093
G01 X13.5547 Y31.4934
G01 X13.5104 Y31.3996
G01 X13.5053 Y31.3894
G01 X13.4997 Y31.3795
G01 X13.4492 Y31.2953
G01 X13.4431 Y31.2857
G01 X13.4366 Y31.2764
G01 X13.3781 Y31.1976
G01 X13.3711 Y31.1886
G01 X13.3637 Y31.1800
G01 X13.2978 Y31.1073
G01 X13.2900 Y31.0991
G01 X13.2817 Y31.0912
G01 X13.2090 Y31.0253
G01 X13.2004 Y31.0179
G01 X13.1914 Y31.0109
G01 X13.1126 Y30.9525
G01 X13.1033 Y30.9459
G01 X13.0937 Y30.9398
G01 X13.0095 Y30.8894
G01 X12.9996 Y30.8838
G01 X12.9047 Y30.8386
G01 X12.9047 Y30.7882
G01 X13.0515 Y30.8567
G01 X13.2214 Y30.9721
G01 X13.3706 Y31.1132
G01 X13.4953 Y31.2764
G01 X13.5924 Y31.4574
G00 Z2.0000
G00 X11.3412 Y34.2721
G01 F30.00
G01 Z-0.0900
G01 F60.00
G01 X11.3420 Y34.2802
G01 X11.3564 Y34.3773
G01 X11.3580 Y34.3852
G01 X11.3829 Y34.4843
G01 X11.4187 Y34.5844
G01 X11.4623 Y34.6768
G01 X11.4661 Y34.6840
G01 X11.5188 Y34.7716
G01 X11.5808 Y34.8553
G01 X11.6506 Y34.9327
G01 X11.6563 Y34.9384
G01 X11.7321 Y35.0070
G01 X11.8175 Y35.0703
G01 X11.9051 Y35.1229
G01 X11.9122 Y35.1268
G01 X12.0047 Y35.1704
G01 X12.0823 Y35.1982
G01 X12.0823 Y35.5560
G01 X11.9223 Y35.5107
G01 X11.9190 Y35.5095
G01 X11.7143 Y35.4140
G01 X11.7113 Y35.4123
G01 X11.5245 Y35.2854
G01 X11.5218 Y35.2832
G01 X11.3577 Y35.1280
G01 X11.3554 Y35.1254
G01 X11.2182 Y34.9460
G01 X11.2163 Y34.9431
G01 X11.1095 Y34.7440
G01 X11.1082 Y34.7408
G01 X11.0346 Y34.5273
G01 X11.0338 Y34.5239
G01 X10.9947 Y34.2968
G01 X10.9938 Y34.2757
G01 X10.9938 Y33.4068
G01 X11.3363 Y33.4068
G01 X11.3363 Y34.1700
G01 X11.3412 Y34.2721
G00 Z2.0000
G00 X11.1924 Y34.2794
G01 F30.00
G01 Z-0.0900
G01 F60.00
G01 X11.1933 Y34.2908
G01 X11.1946 Y34.3020
G01 X11.2090 Y34.3991
G01 X11.2110 Y34.4103
G01 X11.2135 Y34.4214
G01 X11.2373 Y34.5166
G01 X11.2404 Y34.5276
G01 X11.2439 Y34.5384
G01 X11.2770 Y34.6308
G01 X11.2811 Y34.6414
G01 X11.2857 Y34.6518
G01 X11.3276 Y34.7405
G01 X11.3328 Y34.7506
G01 X11.3384 Y34.7605
G01 X11.3888 Y34.8447
G01 X11.3981 Y34.8590
G01 X11.4599 Y34.9424
G01 X11.4669 Y34.9514
G01 X11.4743 Y34.9600
G01 X11.5402 Y35.0327
G01 X11.5481 Y35.0410
G01 X11.5563 Y35.0488
G01 X11.6290 Y35.1147
G01 X11.6376 Y35.1221
G01 X11.6466 Y35.1291
G01 X11.7254 Y35.1876
G01 X11.7347 Y35.1941
G01 X11.7443 Y35.2002
G01 X11.8285 Y35.2507
G01 X11.8384 Y35.2563
G01 X11.9333 Y35.3015
G01 X11.9333 Y35.3518
G01 X11.7865 Y35.2834
G01 X11.6167 Y35.1679
G01 X11.4675 Y35.0268
G01 X11.3427 Y34.8637
G01 X11.2457 Y34.6827
G01 X11.1788 Y34.4885
G01 X11.1431 Y34.2821
G01 X11.1427 Y34.2728
G01 X11.1427 Y33.5557
G01 X11.1873 Y33.5557
G01 X11.1873 Y34.1700
G01 X11.1876 Y34.1814
G01 X11.1924 Y34.2794
G00 Z2.0000
G00 X12.8352 Y35.1696
G01 F30.00
G01 Z-0.0900
G01 F60.00
G01 X12.9294 Y35.1249
G01 X13.0206 Y35.0703
G01 X13.1059 Y35.0070
G01 X13.1846 Y34.9356
G01 X13.2560 Y34.8569
G01 X13.3193 Y34.7716
G01 X13.3739 Y34.6804
G01 X13.4201 Y34.5825
G01 X13.4552 Y34.4843
G01 X13.4801 Y34.3852
G01 X13.4817 Y34.3773
G01 X13.4967 Y34.2741
G01 X13.5018 Y34.1700
G01 X13.5018 Y33.4068
G01 X13.8443 Y33.4068
G01 X13.8443 Y34.2268
G01 X13.8307 Y34.3969
G01 X13.8301 Y34.4003
G01 X13.7762 Y34.6197
G01 X13.7751 Y34.6230
G01 X13.6869 Y34.8309
G01 X13.6853 Y34.8339
G01 X13.5649 Y35.0251
G01 X13.5628 Y35.0279
G01 X13.4134 Y35.1973
G01 X13.4110 Y35.1997
G01 X13.2364 Y35.3431
G01 X13.2336 Y35.3450
G01 X13.0384 Y35.4587
G01 X13.0352 Y35.4602
G01 X12.8244 Y35.5411
G01 X12.8210 Y35.5421
G01 X12.7558 Y35.5557
G01 X12.7558 Y35.1982
G01 X12.8352 Y35.1696
G00 Z2.0000
G00 X13.0046 Y35.2535
G01 F30.00
G01 Z-0.0900
G01 F60.00
G01 X13.0937 Y35.2002
G01 X13.1033 Y35.1941
G01 X13.1126 Y35.1876
G01 X13.1914 Y35.1291
G01 X13.2004 Y35.1221
G01 X13.2090 Y35.1147
G01 X13.2817 Y35.0488
G01 X13.2900 Y35.0410
G01 X13.2978 Y35.0327
G01 X13.3637 Y34.9600
G01 X13.3711 Y34.9514
G01 X13.3781 Y34.9424
G01 X13.4366 Y34.8636
G01 X13.4431 Y34.8543
G01 X13.4492 Y34.8447
G01 X13.4997 Y34.7605
G01 X13.5053 Y34.7506
G01 X13.5104 Y34.7405
G01 X13.5524 Y34.6518
G01 X13.5570 Y34.6414
G01 X13.5611 Y34.6308
G01 X13.5941 Y34.5384
G01 X13.5977 Y34.5276
G01 X13.6007 Y34.5166
G01 X13.6246 Y34.4214
G01 X13.6271 Y34.4103
G01 X13.6290 Y34.3991
G01 X13.6434 Y34.3020
G01 X13.6448 Y34.2908
G01 X13.6456 Y34.2794
G01 X13.6504 Y34.1814
G01 X13.6507 Y34.1700
G01 X13.6507 Y33.5557
G01 X13.6953 Y33.5557
G01 X13.6953 Y34.2217
G01 X13.6830 Y34.3747
G01 X13.6340 Y34.5742
G01 X13.5538 Y34.7633
G01 X13.4443 Y34.9370
G01 X13.3085 Y35.0911
G01 X13.1498 Y35.2215
G01 X12.9723 Y35.3248
G01 X12.9047 Y35.3507
G01 X12.9047 Y35.3015
G01 X12.9895 Y35.2614
G01 X13.0046 Y35.2535
G00 Z2.0000
G00 X14.1435 Y36.7811
G01 F30.00
G01 Z-0.0900
G01 F60.00
G01 X14.2373 Y36.7367
G01 X14.2477 Y36.7321
G01 X14.2583 Y36.7280
G01 X14.3507 Y36.6949
G01 X14.3615 Y36.6914
G01 X14.3724 Y36.6883
G01 X14.4676 Y36.6645
G01 X14.4787 Y36.6620
G01 X14.4899 Y36.6600
G01 X14.5870 Y36.6456
G01 X14.5983 Y36.6443
G01 X14.6096 Y36.6434
G01 X14.7133 Y36.6384
G01 X16.9247 Y36.6384
G01 X17.0284 Y36.6434
G01 X17.0398 Y36.6443
G01 X17.0510 Y36.6456
G01 X17.1481 Y36.6600
G01 X17.1593 Y36.6620
G01 X17.1704 Y36.6645
G01 X17.2656 Y36.6883
G01 X17.2766 Y36.6914
G01 X17.2874 Y36.6949
G01 X17.3851 Y36.7300
G01 X17.4008 Y36.7367
G01 X17.4895 Y36.7786
G01 X17.4996 Y36.7838
G01 X17.5095 Y36.7894
G01 X17.5937 Y36.8398
G01 X17.6033 Y36.8459
G01 X17.6126 Y36.8525
G01 X17.6914 Y36.9109
G01 X17.7004 Y36.9179
G01 X17.7090 Y36.9253
G01 X17.7817 Y36.9912
G01 X17.7900 Y36.9991
G01 X17.7978 Y37.0073
G01 X17.8637 Y37.0800
G01 X17.8711 Y37.0886
G01 X17.8781 Y37.0976
G01 X17.9366 Y37.1764
G01 X17.9431 Y37.1857
G01 X17.9492 Y37.1953
G01 X17.9997 Y37.2795
G01 X18.0053 Y37.2894
G01 X18.0104 Y37.2996
G01 X18.0524 Y37.3883
G01 X18.0570 Y37.3987
G01 X18.0611 Y37.4093
G01 X18.0941 Y37.5017
G01 X18.0977 Y37.5125
G01 X18.1007 Y37.5234
G01 X18.1246 Y37.6186
G01 X18.1271 Y37.6297
G01 X18.1290 Y37.6409
G01 X18.1434 Y37.7380
G01 X18.1448 Y37.7493
G01 X18.1456 Y37.7606
G01 X18.1504 Y37.8587
G01 X18.1507 Y37.8700
G01 X18.1504 Y37.8814
G01 X18.1456 Y37.9794
G01 X18.1448 Y37.9908
G01 X18.1434 Y38.0020
G01 X18.1290 Y38.0991
G01 X18.1271 Y38.1103
G01 X18.1246 Y38.1214
G01 X18.1007 Y38.2166
G01 X18.0977 Y38.2276
G01 X18.0941 Y38.2384
G01 X18.0591 Y38.3361
G01 X18.0524 Y38.3518
G01 X18.0104 Y38.4405
G01 X18.0053 Y38.4506
G01 X17.9997 Y38.4605
G01 X17.9492 Y38.5447
G01 X17.9431 Y38.5543
G01 X17.9366 Y38.5636
G01 X17.8781 Y38.6424
G01 X17.8711 Y38.6514
G01 X17.8637 Y38.6600
G01 X17.7978 Y38.7327
G01 X17.7900 Y38.7410
G01 X17.7817 Y38.7488
G01 X17.7090 Y38.8147
G01 X17.7004 Y38.8221
G01 X17.6914 Y38.8291
G01 X17.6126 Y38.8876
G01 X17.6033 Y38.8941
G01 X17.5937 Y38.9002
G01 X17.5095 Y38.9507
G01 X17.4996 Y38.9563
G01 X17.4895 Y38.9614
G01 X17.4008 Y39.0034
G01 X17.3904 Y39.0080
G01 X17.3798 Y39.0121
G01 X17.2874 Y39.0451
G01 X17.2766 Y39.0487
G01 X17.2656 Y39.0517
G01 X17.1704 Y39.0756
G01 X17.1537 Y39.0791
G01 X17.0510 Y39.0944
G01 X17.0398 Y39.0958
G01 X17.0284 Y39.0966
G01 X16.9304 Y39.1014
G01 X16.9190 Y39.1017
G01 X14.7133 Y39.1017
G01 X14.6096 Y39.0966
G01 X14.5983 Y39.0958
G01 X14.5870 Y39.0944
G01 X14.4899 Y39.0800
G01 X14.4787 Y39.0781
G01 X14.4676 Y39.0756
G01 X14.3724 Y39.0517
G01 X14.3615 Y39.0487
G01 X14.3507 Y39.0451
G01 X14.2530 Y39.0101
G01 X14.2373 Y39.0034
G01 X14.1486 Y38.9614
G01 X14.1384 Y38.9563
G01 X14.1285 Y38.9507
G01 X14.0443 Y38.9002
G01 X14.0347 Y38.8941
G01 X14.0254 Y38.8876
G01 X13.9466 Y38.8291
G01 X13.9376 Y38.8221
G01 X13.9290 Y38.8147
G01 X13.8563 Y38.7488
G01 X13.8481 Y38.7410
G01 X13.8402 Y38.7327
G01 X13.7743 Y38.6600
G01 X13.7669 Y38.6514
G01 X13.7599 Y38.6424
G01 X13.7015 Y38.5636
G01 X13.6949 Y38.5543
G01 X13.6888 Y38.5447
G01 X13.6384 Y38.4605
G01 X13.6328 Y38.4506
G01 X13.6276 Y38.4405
G01 X13.5857 Y38.3518
G01 X13.5811 Y38.3414
G01 X13.5770 Y38.3308
G01 X13.5439 Y38.2384
G01 X13.5404 Y38.2276
G01 X13.5373 Y38.2166
G01 X13.5135 Y38.1214
G01 X13.5110 Y38.1103
G01 X13.5090 Y38.0991
G01 X13.4946 Y38.0020
G01 X13.4933 Y37.9908
G01 X13.4924 Y37.9794
G01 X13.4876 Y37.8814
G01 X13.4873 Y37.8700
G01 X13.4876 Y37.8587
G01 X13.4924 Y37.7606
G01 X13.4933 Y37.7493
G01 X13.4946 Y37.7380
G01 X13.5090 Y37.6409
G01 X13.5110 Y37.6297
G01 X13.5135 Y37.6186
G01 X13.5373 Y37.5234
G01 X13.5404 Y37.5125
G01 X13.5439 Y37.5017
G01 X13.5770 Y37.4093
G01 X13.5811 Y37.3987
G01 X13.5857 Y37.3883
G01 X13.6276 Y37.2996
G01 X13.6328 Y37.2894
G01 X13.6384 Y37.2795
G01 X13.6888 Y37.1953
G01 X13.6949 Y37.1857
G01 X13.7015 Y37.1764
G01 X13.7599 Y37.0976
G01 X13.7669 Y37.0886
G01 X13.7743 Y37.0800
G01 X13.8402 Y37.0073
G01 X13.8481 Y36.9991
G01 X13.8563 Y36.9912
G01 X13.9290 Y36.9253
G01 X13.9376 Y36.9179
G01 X13.9466 Y36.9109
G01 X14.0254 Y36.8525
G01 X14.0347 Y36.8459
G01 X14.0443 Y36.8398
G01 X14.1285 Y36.7894
G01 X14.1435 Y36.7811
G00 Z2.0000
G00 X14.2104 Y36.9142
G01 F30.00
G01 Z-0.0900
G01 F60.00
G01 X14.3010 Y36.8713
G01 X14.3085 Y36.8682
G01 X14.4047 Y36.8339
G01 X14.5038 Y36.8090
G01 X14.5118 Y36.8074
G01 X14.6129 Y36.7925
G01 X14.7170 Y36.7873
G01 X16.9211 Y36.7873
G01 X17.0252 Y36.7925
G01 X17.1263 Y36.8074
G01 X17.1342 Y36.8090
G01 X17.2353 Y36.8345
G01 X17.3334 Y36.8697
G01 X17.4294 Y36.9151
G01 X17.5206 Y36.9698
G01 X17.6059 Y37.0330
G01 X17.6846 Y37.1044
G01 X17.7560 Y37.1831
G01 X17.8193 Y37.2685
G01 X17.8739 Y37.3596
G01 X17.9194 Y37.4557
G01 X17.9552 Y37.5557
G01 X17.9810 Y37.6588
G01 X17.9966 Y37.7639
G01 X18.0018 Y37.8700
G01 X17.9966 Y37.9762
G01 X17.9810 Y38.0813
G01 X17.9545 Y38.1863
G01 X17.9194 Y38.2844
G01 X17.8758 Y38.3768
G01 X17.8719 Y38.3840
G01 X17.8193 Y38.4716
G01 X17.7585 Y38.5537
G01 X17.7533 Y38.5600
G01 X17.6846 Y38.6356
G01 X17.6090 Y38.7043
G01 X17.6027 Y38.7095
G01 X17.5206 Y38.7703
G01 X17.4330 Y38.8229
G01 X17.4258 Y38.8268
G01 X17.3334 Y38.8704
G01 X17.2372 Y38.9049
G01 X17.2294 Y38.9072
G01 X17.1303 Y38.9320
G01 X17.0252 Y38.9476
G01 X16.9190 Y38.9528
G01 X14.7190 Y38.9528
G01 X14.6129 Y38.9476
G01 X14.5118 Y38.9327
G01 X14.5038 Y38.9311
G01 X14.4028 Y38.9055
G01 X14.3047 Y38.8704
G01 X14.2122 Y38.8268
G01 X14.2051 Y38.8229
G01 X14.1175 Y38.7703
G01 X14.0321 Y38.7070
G01 X13.9563 Y38.6384
G01 X13.9506 Y38.6327
G01 X13.8820 Y38.5569
G01 X13.8188 Y38.4716
G01 X13.7661 Y38.3840
G01 X13.7623 Y38.3768
G01 X13.7187 Y38.2844
G01 X13.6842 Y38.1882
G01 X13.6818 Y38.1804
G01 X13.6571 Y38.0813
G01 X13.6415 Y37.9762
G01 X13.6364 Y37.8741
G01 X13.6364 Y37.8660
G01 X13.6415 Y37.7639
G01 X13.6571 Y37.6588
G01 X13.6829 Y37.5557
G01 X13.7172 Y37.4595
G01 X13.7203 Y37.4520
G01 X13.7641 Y37.3596
G01 X13.8166 Y37.2719
G01 X13.8211 Y37.2652
G01 X13.8820 Y37.1831
G01 X13.9534 Y37.1044
G01 X14.0321 Y37.0330
G01 X14.1142 Y36.9721
G01 X14.1209 Y36.9676
G01 X14.2104 Y36.9142
G00 Z2.0000
G00 X13.6052 Y37.2373
G01 F30.00
G01 Z-0.0900
G01 F60.00
G01 X13.7207 Y37.0674
G01 X13.8619 Y36.9181
G01 X14.0251 Y36.7933
G01 X14.2062 Y36.6962
G01 X14.4005 Y36.6293
G01 X14.6069 Y36.5936
G01 X14.6148 Y36.5933
G01 X16.9707 Y36.5932
G01 X17.1238 Y36.6055
G01 X17.3234 Y36.6546
G01 X17.5125 Y36.7348
G01 X17.6863 Y36.8443
G01 X17.8405 Y36.9802
G01 X17.9709 Y37.1390
G01 X18.0742 Y37.3165
G01 X18.1479 Y37.5084
G01 X18.1651 Y37.5908
G01 X18.1899 Y37.7095
G01 X18.1992 Y37.9147
G01 X18.1756 Y38.1188
G01 X18.1196 Y38.3165
G01 X18.0328 Y38.5027
G01 X17.9173 Y38.6727
G01 X17.7762 Y38.8220
G01 X17.6129 Y38.9468
G01 X17.4319 Y39.0438
G01 X17.2376 Y39.1107
G01 X17.0311 Y39.1464
G01 X17.0233 Y39.1468
G01 X14.6673 Y39.1468
G01 X14.5142 Y39.1345
G01 X14.3147 Y39.0855
G01 X14.2865 Y39.0735
G01 X14.1256 Y39.0052
G01 X13.9517 Y38.8957
G01 X13.7976 Y38.7599
G01 X13.6672 Y38.6011
G01 X13.5638 Y38.4235
G01 X13.4902 Y38.2317
G01 X13.4482 Y38.0306
G01 X13.4388 Y37.8253
G01 X13.4625 Y37.6212
G01 X13.5184 Y37.4235
G01 X13.6052 Y37.2373
G00 Z2.0000
G00 X13.4724 Y37.1698
G01 F30.00
G01 Z-0.0900
G01 F60.00
G01 X13.4753 Y37.1635
G01 X13.6043 Y36.9737
G01 X13.7619 Y36.8070
G01 X13.9442 Y36.6677
G01 X14.1464 Y36.5593
G01 X14.3633 Y36.4846
G01 X14.5908 Y36.4453
G01 X14.6128 Y36.4443
G01 X16.9767 Y36.4443
G01 X17.1477 Y36.4580
G01 X17.3705 Y36.5128
G01 X17.5817 Y36.6024
G01 X17.7759 Y36.7247
G01 X17.9480 Y36.8764
G01 X18.0936 Y37.0537
G01 X18.2090 Y37.2520
G01 X18.2912 Y37.4662
G01 X18.3109 Y37.5604
G01 X18.3381 Y37.6907
G01 X18.3485 Y37.9199
G01 X18.3222 Y38.1479
G01 X18.2597 Y38.3686
G01 X18.1627 Y38.5766
G01 X18.0338 Y38.7663
G01 X17.8761 Y38.9330
G01 X17.6934 Y39.0726
G01 X17.4917 Y39.1808
G01 X17.2747 Y39.2555
G01 X17.0472 Y39.2948
G01 X17.0252 Y39.2958
G01 X14.6614 Y39.2958
G01 X14.4903 Y39.2820
G01 X14.2675 Y39.2273
G01 X14.2283 Y39.2106
G01 X14.0563 Y39.1376
G01 X13.8622 Y39.0154
G01 X13.6901 Y38.8637
G01 X13.5445 Y38.6864
G01 X13.4291 Y38.4881
G01 X13.3468 Y38.2739
G01 X13.2999 Y38.0493
G01 X13.2895 Y37.8201
G01 X13.3159 Y37.5922
G01 X13.3783 Y37.3714
G01 X13.4724 Y37.1698
G00 Z2.0000
G00 X19.4804 Y39.1090
G01 F30.00
G01 Z-0.0900
G01 F60.00
G01 X19.5934 Y38.9476
G01 X19.7326 Y38.8084
G01 X19.8940 Y38.6954
G01 X20.0725 Y38.6121
G01 X20.2628 Y38.5611
G01 X20.4590 Y38.5440
G01 X20.6553 Y38.5611
G01 X20.8455 Y38.6121
G01 X21.0240 Y38.6954
G01 X21.1854 Y38.8084
G01 X21.3247 Y38.9476
G01 X21.4377 Y39.1090
G01 X21.5209 Y39.2875
G01 X21.5659 Y39.4556
G01 X21.5691 Y39.4649
G01 X21.5723 Y39.4721
G01 X21.5752 Y39.4772
G01 X21.6144 Y39.5413
G01 X21.6207 Y39.5494
G01 X21.6279 Y39.5567
G01 X21.6343 Y39.5618
G01 X21.6430 Y39.5673
G01 X21.7142 Y39.6019
G01 X21.7258 Y39.6058
G01 X21.7317 Y39.6072
G01 X21.7398 Y39.6082
G01 X21.7676 Y39.6103
G01 X24.4945 Y39.6103
G01 X24.5004 Y39.6101
G01 X24.5082 Y39.6091
G01 X24.5178 Y39.6069
G01 X24.5879 Y39.5863
G01 X24.5974 Y39.5826
G01 X24.6065 Y39.5777
G01 X24.6164 Y39.5704
G01 X24.6238 Y39.5632
G01 X24.6755 Y39.5033
G01 X24.6820 Y39.4929
G01 X24.6870 Y39.4817
G01 X24.6995 Y39.4371
G01 X24.7018 Y39.4259
G01 X24.7054 Y39.3925
G01 X24.7487 Y39.2770
G01 X24.8219 Y39.1794
G01 X24.9195 Y39.1062
G01 X25.0350 Y39.0629
G01 X25.0824 Y39.0578
G01 X27.1697 Y39.0578
G01 X27.2170 Y39.0629
G01 X27.3326 Y39.1062
G01 X27.4302 Y39.1794
G01 X27.5033 Y39.2770
G01 X27.5466 Y39.3925
G01 X27.5518 Y39.4399
G01 X27.5518 Y41.4322
G01 X27.5466 Y41.4795
G01 X27.5033 Y41.5951
G01 X27.4302 Y41.6927
G01 X27.3326 Y41.7658
G01 X27.3166 Y41.7722
G01 X27.3096 Y41.7760
G01 X27.3047 Y41.7793
G01 X27.2447 Y41.8243
G01 X27.2386 Y41.8297
G01 X27.2329 Y41.8357
G01 X27.2257 Y41.8457
G01 X27.2200 Y41.8566
G01 X27.1938 Y41.9270
G01 X27.1913 Y41.9348
G01 X27.1896 Y41.9429
G01 X27.1888 Y41.9511
G01 X27.1887 Y41.9593
G01 X27.1901 Y41.9715
G01 X27.2062 Y42.0449
G01 X27.2100 Y42.0565
G01 X27.2144 Y42.0656
G01 X27.2318 Y42.0921
G01 X27.3254 Y42.2107
G01 X27.4350 Y42.4091
G01 X27.5106 Y42.6227
G01 X27.5504 Y42.8459
G01 X27.5531 Y43.0725
G01 X27.5189 Y43.2965
G01 X27.4484 Y43.5119
G01 X27.3438 Y43.7130
G01 X27.2077 Y43.8942
G01 X27.0439 Y44.0508
G01 X27.0104 Y44.0736
G01 X27.0014 Y44.0812
G01 X26.9947 Y44.0884
G01 X26.9484 Y44.1449
G01 X26.9426 Y44.1534
G01 X26.9387 Y44.1607
G01 X26.9356 Y44.1683
G01 X26.9328 Y44.1781
G01 X26.9315 Y44.1863
G01 X26.9233 Y44.2568
G01 X26.9228 Y44.2670
G01 X26.9232 Y44.2752
G01 X26.9245 Y44.2833
G01 X26.9266 Y44.2913
G01 X26.9295 Y44.2990
G01 X26.9634 Y44.3683
G01 X26.9674 Y44.3752
G01 X26.9734 Y44.3833
G01 X26.9789 Y44.3892
G01 X26.9833 Y44.3932
G01 X27.0094 Y44.4153
G01 X27.0183 Y44.4219
G01 X27.1833 Y44.5720
G01 X27.1857 Y44.5746
G01 X27.3239 Y44.7496
G01 X27.3259 Y44.7525
G01 X27.4337 Y44.9478
G01 X27.4351 Y44.9510
G01 X27.5095 Y45.1612
G01 X27.5131 Y45.1793
G01 X27.1513 Y45.1793
G01 X27.1292 Y45.1180
G01 X27.0856 Y45.0262
G01 X27.0343 Y44.9409
G01 X26.9751 Y44.8609
G01 X26.9084 Y44.7869
G01 X26.9026 Y44.7812
G01 X26.8303 Y44.7158
G01 X26.7504 Y44.6564
G01 X26.6651 Y44.6050
G01 X26.6579 Y44.6012
G01 X26.5697 Y44.5596
G01 X26.4740 Y44.5254
G01 X26.3755 Y44.5007
G01 X26.2790 Y44.4863
G01 X26.2709 Y44.4855
G01 X26.1735 Y44.4808
G01 X26.0765 Y44.4808
G01 X25.9750 Y44.4860
G01 X25.8766 Y44.5007
G01 X25.7819 Y44.5243
G01 X25.7742 Y44.5266
G01 X25.6861 Y44.5581
G01 X25.6786 Y44.5612
G01 X25.5905 Y44.6030
G01 X25.5034 Y44.6552
G01 X25.4218 Y44.7158
G01 X25.3494 Y44.7812
G01 X25.3437 Y44.7869
G01 X25.2770 Y44.8609
G01 X25.2177 Y44.9409
G01 X25.1665 Y45.0262
G01 X25.1229 Y45.1180
G01 X25.1007 Y45.1793
G01 X24.7390 Y45.1793
G01 X24.8035 Y44.9820
G01 X24.8049 Y44.9787
G01 X24.9079 Y44.7809
G01 X24.9097 Y44.7779
G01 X25.0437 Y44.5996
G01 X25.0460 Y44.5969
G01 X25.2072 Y44.4429
G01 X25.2100 Y44.4406
G01 X25.2416 Y44.4190
G01 X25.2507 Y44.4115
G01 X25.2574 Y44.4042
G01 X25.3049 Y44.3461
G01 X25.3095 Y44.3392
G01 X25.3142 Y44.3301
G01 X25.3177 Y44.3205
G01 X25.3196 Y44.3125
G01 X25.3288 Y44.2359
G01 X25.3293 Y44.2236
G01 X25.3286 Y44.2154
G01 X25.3275 Y44.2093
G01 X25.3254 Y44.2014
G01 X25.3226 Y44.1937
G01 X25.2887 Y44.1244
G01 X25.2835 Y44.1158
G01 X25.2787 Y44.1094
G01 X25.2732 Y44.1035
G01 X25.2687 Y44.0994
G01 X25.2426 Y44.0774
G01 X25.2347 Y44.0717
G01 X25.0671 Y43.9192
G01 X24.9266 Y43.7414
G01 X24.8171 Y43.5429
G01 X24.7414 Y43.3293
G01 X24.7017 Y43.1062
G01 X24.6989 Y42.8796
G01 X24.7332 Y42.6555
G01 X24.8036 Y42.4401
G01 X24.9083 Y42.2391
G01 X25.0206 Y42.0894
G01 X25.0270 Y42.0795
G01 X25.0319 Y42.0688
G01 X25.0582 Y41.9984
G01 X25.0598 Y41.9925
G01 X25.0613 Y41.9844
G01 X25.0619 Y41.9783
G01 X25.0620 Y41.9700
G01 X25.0616 Y41.9639
G01 X25.0602 Y41.9558
G01 X25.0437 Y41.8804
G01 X25.0410 Y41.8727
G01 X25.0375 Y41.8652
G01 X25.0333 Y41.8581
G01 X25.0285 Y41.8515
G01 X25.0229 Y41.8454
G01 X24.9728 Y41.7952
G01 X24.9639 Y41.7874
G01 X24.9574 Y41.7830
G01 X24.9505 Y41.7792
G01 X24.9306 Y41.7701
G01 X24.9195 Y41.7658
G01 X24.8219 Y41.6927
G01 X24.7487 Y41.5951
G01 X24.7054 Y41.4795
G01 X24.7015 Y41.4441
G01 X24.6999 Y41.4364
G01 X24.6976 Y41.4288
G01 X24.6672 Y41.3559
G01 X24.6611 Y41.3451
G01 X24.6549 Y41.3370
G01 X24.6477 Y41.3297
G01 X24.6413 Y41.3245
G01 X24.5812 Y41.2829
G01 X24.5707 Y41.2767
G01 X24.5612 Y41.2727
G01 X24.5513 Y41.2700
G01 X24.5077 Y41.2628
G01 X24.4982 Y41.2619
G01 X21.3024 Y41.2618
G01 X21.2762 Y41.2636
G01 X21.2645 Y41.2652
G01 X21.2049 Y41.2621
G01 X21.1778 Y41.2618
G01 X21.1507 Y41.2592
G01 X21.0911 Y41.2561
G01 X21.0817 Y41.2537
G01 X21.0602 Y41.2497
G01 X21.0484 Y41.2482
G01 X20.9832 Y41.2272
G01 X20.9235 Y41.2112
G01 X20.9128 Y41.2060
G01 X20.8925 Y41.1976
G01 X20.8833 Y41.1945
G01 X20.8239 Y41.1605
G01 X20.7688 Y41.1324
G01 X20.7594 Y41.1251
G01 X20.7413 Y41.1127
G01 X20.7330 Y41.1078
G01 X20.6870 Y41.0664
G01 X20.6677 Y41.0505
G01 X20.6484 Y41.0315
G01 X20.6040 Y40.9916
G01 X20.5968 Y40.9821
G01 X20.5796 Y40.9623
G01 X20.4700 Y40.8528
G01 X20.4625 Y40.8465
G01 X20.4525 Y40.8401
G01 X20.3884 Y40.8051
G01 X20.3809 Y40.8017
G01 X20.3731 Y40.7990
G01 X20.3650 Y40.7972
G01 X20.3437 Y40.7940
G01 X20.2628 Y40.7869
G01 X20.0725 Y40.7359
G01 X19.8940 Y40.6527
G01 X19.7326 Y40.5397
G01 X19.5934 Y40.4004
G01 X19.4804 Y40.2390
G01 X19.3971 Y40.0605
G01 X19.3461 Y39.8703
G01 X19.3290 Y39.6740
G01 X19.3461 Y39.4778
G01 X19.3971 Y39.2875
G01 X19.4804 Y39.1090
G00 Z2.0000
G00 X19.7079 Y39.0438
G01 F30.00
G01 Z-0.0900
G01 F60.00
G01 X19.8288 Y38.9229
G01 X19.9688 Y38.8249
G01 X20.1237 Y38.7526
G01 X20.2888 Y38.7084
G01 X20.4590 Y38.6935
G01 X20.6293 Y38.7084
G01 X20.7944 Y38.7526
G01 X20.9493 Y38.8249
G01 X21.0893 Y38.9229
G01 X21.2102 Y39.0438
G01 X21.3082 Y39.1838
G01 X21.3804 Y39.3387
G01 X21.4236 Y39.4994
G01 X21.4269 Y39.5099
G01 X21.4329 Y39.5253
G01 X21.4399 Y39.5403
G01 X21.4452 Y39.5500
G01 X21.4880 Y39.6202
G01 X21.4945 Y39.6297
G01 X21.5014 Y39.6389
G01 X21.5088 Y39.6478
G01 X21.5166 Y39.6562
G01 X21.5291 Y39.6681
G01 X21.5379 Y39.6755
G01 X21.5518 Y39.6858
G01 X21.5664 Y39.6951
G01 X21.5816 Y39.7032
G01 X21.6558 Y39.7389
G01 X21.6664 Y39.7431
G01 X21.6772 Y39.7468
G01 X21.6937 Y39.7513
G01 X21.7048 Y39.7537
G01 X21.7217 Y39.7561
G01 X21.7483 Y39.7584
G01 X21.7612 Y39.7591
G01 X24.4945 Y39.7592
G01 X24.5110 Y39.7586
G01 X24.5220 Y39.7576
G01 X24.5329 Y39.7560
G01 X24.5437 Y39.7539
G01 X24.5544 Y39.7513
G01 X24.6279 Y39.7298
G01 X24.6388 Y39.7263
G01 X24.6549 Y39.7200
G01 X24.6705 Y39.7126
G01 X24.6805 Y39.7070
G01 X24.6903 Y39.7009
G01 X24.6997 Y39.6943
G01 X24.7088 Y39.6873
G01 X24.7176 Y39.6798
G01 X24.7259 Y39.6719
G01 X24.7377 Y39.6593
G01 X24.7879 Y39.6012
G01 X24.7950 Y39.5922
G01 X24.8016 Y39.5828
G01 X24.8077 Y39.5731
G01 X24.8134 Y39.5631
G01 X24.8209 Y39.5477
G01 X24.8253 Y39.5371
G01 X24.8292 Y39.5263
G01 X24.8325 Y39.5153
G01 X24.8457 Y39.4663
G01 X24.8487 Y39.4507
G01 X24.8515 Y39.4272
G01 X24.8807 Y39.3492
G01 X24.9283 Y39.2858
G01 X24.9917 Y39.2382
G01 X25.0697 Y39.2090
G01 X25.0904 Y39.2067
G01 X27.1616 Y39.2067
G01 X27.1823 Y39.2090
G01 X27.2603 Y39.2382
G01 X27.3238 Y39.2858
G01 X27.3713 Y39.3492
G01 X27.4006 Y39.4272
G01 X27.4028 Y39.4479
G01 X27.4028 Y41.4241
G01 X27.4006 Y41.4448
G01 X27.3713 Y41.5228
G01 X27.3238 Y41.5863
G01 X27.2592 Y41.6347
G01 X27.2463 Y41.6408
G01 X27.2367 Y41.6461
G01 X27.2272 Y41.6519
G01 X27.2181 Y41.6581
G01 X27.1524 Y41.7075
G01 X27.1392 Y41.7187
G01 X27.1270 Y41.7308
G01 X27.1156 Y41.7439
G01 X27.1053 Y41.7577
G01 X27.0990 Y41.7673
G01 X27.0932 Y41.7773
G01 X27.0879 Y41.7875
G01 X27.0831 Y41.7979
G01 X27.0541 Y41.8752
G01 X27.0504 Y41.8861
G01 X27.0472 Y41.8971
G01 X27.0446 Y41.9083
G01 X27.0417 Y41.9253
G01 X27.0401 Y41.9425
G01 X27.0397 Y41.9598
G01 X27.0406 Y41.9770
G01 X27.0429 Y41.9941
G01 X27.0603 Y42.0748
G01 X27.0630 Y42.0858
G01 X27.0662 Y42.0968
G01 X27.0700 Y42.1075
G01 X27.0767 Y42.1233
G01 X27.0845 Y42.1385
G01 X27.0903 Y42.1483
G01 X27.1050 Y42.1706
G01 X27.1124 Y42.1812
G01 X27.2010 Y42.2934
G01 X27.2986 Y42.4704
G01 X27.3661 Y42.6609
G01 X27.4016 Y42.8599
G01 X27.4040 Y43.0621
G01 X27.3735 Y43.2619
G01 X27.3107 Y43.4540
G01 X27.2173 Y43.6333
G01 X27.0960 Y43.7950
G01 X26.9498 Y43.9347
G01 X26.9236 Y43.9526
G01 X26.9148 Y43.9593
G01 X26.9022 Y43.9700
G01 X26.8942 Y43.9776
G01 X26.8867 Y43.9856
G01 X26.8795 Y43.9940
G01 X26.8345 Y44.0489
G01 X26.8240 Y44.0627
G01 X26.8177 Y44.0722
G01 X26.8118 Y44.0821
G01 X26.8039 Y44.0975
G01 X26.7992 Y44.1080
G01 X26.7951 Y44.1188
G01 X26.7916 Y44.1297
G01 X26.7886 Y44.1408
G01 X26.7861 Y44.1521
G01 X26.7842 Y44.1634
G01 X26.7753 Y44.2396
G01 X26.7743 Y44.2511
G01 X26.7738 Y44.2683
G01 X26.7746 Y44.2856
G01 X26.7758 Y44.2970
G01 X26.7777 Y44.3084
G01 X26.7814 Y44.3252
G01 X26.7846 Y44.3363
G01 X26.7884 Y44.3472
G01 X26.7927 Y44.3578
G01 X26.7975 Y44.3683
G01 X26.8287 Y44.4320
G01 X26.8367 Y44.4469
G01 X26.8457 Y44.4612
G01 X26.8523 Y44.4703
G01 X26.8630 Y44.4834
G01 X26.8707 Y44.4916
G01 X26.8788 Y44.4995
G01 X26.9117 Y44.5277
G01 X26.9238 Y44.5373
G01 X27.0753 Y44.6751
G01 X27.2005 Y44.8337
G01 X27.2982 Y45.0106
G01 X27.3052 Y45.0303
G01 X27.2525 Y45.0303
G01 X27.2179 Y44.9578
G01 X27.2123 Y44.9479
G01 X27.1613 Y44.8629
G01 X27.1516 Y44.8488
G01 X27.0959 Y44.7737
G01 X27.0853 Y44.7604
G01 X27.0187 Y44.6869
G01 X27.0109 Y44.6787
G01 X26.9334 Y44.6081
G01 X26.9248 Y44.6006
G01 X26.9158 Y44.5936
G01 X26.8407 Y44.5379
G01 X26.8267 Y44.5283
G01 X26.7416 Y44.4773
G01 X26.7318 Y44.4717
G01 X26.6371 Y44.4266
G01 X26.6267 Y44.4220
G01 X26.6161 Y44.4179
G01 X26.5173 Y44.3828
G01 X26.4156 Y44.3571
G01 X26.4046 Y44.3546
G01 X26.3009 Y44.3389
G01 X26.2896 Y44.3375
G01 X26.2783 Y44.3367
G01 X26.1735 Y44.3318
G01 X26.0728 Y44.3319
G01 X25.9681 Y44.3370
G01 X25.9512 Y44.3389
G01 X25.8587 Y44.3526
G01 X25.8419 Y44.3558
G01 X25.7457 Y44.3798
G01 X25.7348 Y44.3828
G01 X25.6360 Y44.4179
G01 X25.6254 Y44.4220
G01 X25.6150 Y44.4266
G01 X25.5305 Y44.4665
G01 X25.5153 Y44.4744
G01 X25.4302 Y44.5253
G01 X25.4206 Y44.5314
G01 X25.3362 Y44.5936
G01 X25.3273 Y44.6006
G01 X25.3187 Y44.6081
G01 X25.2412 Y44.6787
G01 X25.2333 Y44.6869
G01 X25.1631 Y44.7648
G01 X25.1561 Y44.7737
G01 X25.0971 Y44.8534
G01 X25.0878 Y44.8677
G01 X25.0369 Y44.9528
G01 X25.0290 Y44.9680
G01 X24.9995 Y45.0303
G01 X24.9460 Y45.0303
G01 X25.0351 Y44.8590
G01 X25.1565 Y44.6974
G01 X25.3026 Y44.5578
G01 X25.3285 Y44.5400
G01 X25.3373 Y44.5334
G01 X25.3457 Y44.5263
G01 X25.3578 Y44.5150
G01 X25.3654 Y44.5070
G01 X25.3726 Y44.4987
G01 X25.4176 Y44.4437
G01 X25.4247 Y44.4347
G01 X25.4313 Y44.4253
G01 X25.4374 Y44.4155
G01 X25.4431 Y44.4055
G01 X25.4482 Y44.3952
G01 X25.4528 Y44.3847
G01 X25.4569 Y44.3739
G01 X25.4605 Y44.3630
G01 X25.4648 Y44.3462
G01 X25.4669 Y44.3349
G01 X25.4685 Y44.3235
G01 X25.4773 Y44.2473
G01 X25.4782 Y44.2301
G01 X25.4779 Y44.2128
G01 X25.4762 Y44.1956
G01 X25.4733 Y44.1786
G01 X25.4691 Y44.1619
G01 X25.4656 Y44.1509
G01 X25.4616 Y44.1401
G01 X25.4546 Y44.1244
G01 X25.4208 Y44.0556
G01 X25.4125 Y44.0409
G01 X25.4063 Y44.0315
G01 X25.3997 Y44.0223
G01 X25.3890 Y44.0093
G01 X25.3814 Y44.0010
G01 X25.3733 Y43.9931
G01 X25.3404 Y43.9650
G01 X25.3277 Y43.9550
G01 X25.1764 Y43.8173
G01 X25.0511 Y43.6587
G01 X24.9534 Y43.4817
G01 X24.8859 Y43.2911
G01 X24.8505 Y43.0921
G01 X24.8480 Y42.8900
G01 X24.8786 Y42.6902
G01 X24.9414 Y42.4980
G01 X25.0347 Y42.3187
G01 X25.1430 Y42.1744
G01 X25.1492 Y42.1653
G01 X25.1549 Y42.1559
G01 X25.1602 Y42.1462
G01 X25.1651 Y42.1363
G01 X25.1714 Y42.1210
G01 X25.1963 Y42.0545
G01 X25.2001 Y42.0437
G01 X25.2033 Y42.0326
G01 X25.2071 Y42.0158
G01 X25.2096 Y41.9987
G01 X25.2106 Y41.9872
G01 X25.2110 Y41.9757
G01 X25.2106 Y41.9585
G01 X25.2088 Y41.9413
G01 X25.2058 Y41.9243
G01 X25.1908 Y41.8549
G01 X25.1881 Y41.8438
G01 X25.1849 Y41.8327
G01 X25.1811 Y41.8219
G01 X25.1767 Y41.8112
G01 X25.1692 Y41.7956
G01 X25.1606 Y41.7807
G01 X25.1542 Y41.7711
G01 X25.1474 Y41.7618
G01 X25.1363 Y41.7486
G01 X25.1284 Y41.7403
G01 X25.0744 Y41.6861
G01 X25.0662 Y41.6787
G01 X25.0577 Y41.6717
G01 X25.0444 Y41.6619
G01 X25.0304 Y41.6531
G01 X25.0158 Y41.6453
G01 X24.9932 Y41.6349
G01 X24.9283 Y41.5863
G01 X24.8807 Y41.5228
G01 X24.8515 Y41.4448
G01 X24.8486 Y41.4210
G01 X24.8455 Y41.4047
G01 X24.8412 Y41.3888
G01 X24.8357 Y41.3731
G01 X24.8065 Y41.3025
G01 X24.7992 Y41.2868
G01 X24.7909 Y41.2717
G01 X24.7847 Y41.2620
G01 X24.7745 Y41.2480
G01 X24.7672 Y41.2392
G01 X24.7594 Y41.2307
G01 X24.7512 Y41.2226
G01 X24.7427 Y41.2149
G01 X24.7291 Y41.2042
G01 X24.6613 Y41.1573
G01 X24.6516 Y41.1512
G01 X24.6364 Y41.1430
G01 X24.6260 Y41.1382
G01 X24.6154 Y41.1339
G01 X24.5990 Y41.1285
G01 X24.5879 Y41.1256
G01 X24.5711 Y41.1222
G01 X24.5314 Y41.1158
G01 X24.5156 Y41.1138
G01 X24.5051 Y41.1131
G01 X21.3024 Y41.1128
G01 X21.2903 Y41.1131
G01 X21.2581 Y41.1157
G01 X21.2127 Y41.1133
G01 X21.1856 Y41.1128
G01 X21.1585 Y41.1105
G01 X21.1131 Y41.1081
G01 X21.0809 Y41.1021
G01 X21.0255 Y41.0844
G01 X20.9758 Y41.0710
G01 X20.9455 Y41.0584
G01 X20.8950 Y41.0296
G01 X20.8491 Y41.0061
G01 X20.8221 Y40.9876
G01 X20.7883 Y40.9571
G01 X20.7675 Y40.9397
G01 X20.7480 Y40.9209
G01 X20.7142 Y40.8904
G01 X20.6891 Y40.8614
G01 X20.5728 Y40.7450
G01 X20.5604 Y40.7340
G01 X20.5473 Y40.7240
G01 X20.5335 Y40.7149
G01 X20.5239 Y40.7093
G01 X20.4513 Y40.6700
G01 X20.4408 Y40.6653
G01 X20.4301 Y40.6610
G01 X20.4136 Y40.6557
G01 X20.4024 Y40.6528
G01 X20.3911 Y40.6505
G01 X20.3647 Y40.6465
G01 X20.2888 Y40.6397
G01 X20.1237 Y40.5954
G01 X19.9688 Y40.5232
G01 X19.8288 Y40.4252
G01 X19.7079 Y40.3043
G01 X19.6099 Y40.1643
G01 X19.5376 Y40.0094
G01 X19.4934 Y39.8443
G01 X19.4785 Y39.6740
G01 X19.4934 Y39.5038
G01 X19.5376 Y39.3387
G01 X19.6099 Y39.1838
G01 X19.7079 Y39.0438
G00 Z2.0000
G00 X20.0249 Y38.8497
G01 F30.00
G01 Z-0.0900
G01 F60.00
G01 X20.0921 Y38.8179
G01 X20.1025 Y38.8132
G01 X20.1778 Y38.7860
G01 X20.1886 Y38.7824
G01 X20.1995 Y38.7794
G01 X20.2773 Y38.7602
G01 X20.3564 Y38.7482
G01 X20.3677 Y38.7468
G01 X20.3790 Y38.7460
G01 X20.4590 Y38.7423
G01 X20.5390 Y38.7460
G01 X20.5503 Y38.7468
G01 X20.5616 Y38.7482
G01 X20.6408 Y38.7602
G01 X20.7185 Y38.7794
G01 X20.7295 Y38.7824
G01 X20.7403 Y38.7860
G01 X20.8156 Y38.8132
G01 X20.8881 Y38.8472
G01 X20.8982 Y38.8523
G01 X20.9081 Y38.8579
G01 X20.9766 Y38.8993
G01 X20.9859 Y38.9059
G01 X21.0501 Y38.9538
G01 X21.1096 Y39.0074
G01 X21.1178 Y39.0152
G01 X21.1257 Y39.0235
G01 X21.1792 Y39.0830
G01 X21.2272 Y39.1471
G01 X21.2337 Y39.1564
G01 X21.2398 Y39.1660
G01 X21.2780 Y39.2298
G01 X21.2858 Y39.2450
G01 X21.3152 Y39.3071
G01 X21.3198 Y39.3175
G01 X21.3239 Y39.3281
G01 X21.3506 Y39.4036
G01 X21.3536 Y39.4145
G01 X21.3716 Y39.4867
G01 X21.3748 Y39.5035
G01 X21.3848 Y39.5714
G01 X21.3867 Y39.5884
G01 X21.3907 Y39.6683
G01 X21.3907 Y39.6797
G01 X21.3892 Y39.7106
G01 X21.4828 Y39.8041
G01 X24.8943 Y39.8041
G01 X24.8944 Y39.4778
G01 X24.8954 Y39.4608
G01 X24.8977 Y39.4439
G01 X24.9013 Y39.4272
G01 X24.9060 Y39.4108
G01 X24.9099 Y39.4001
G01 X24.9166 Y39.3845
G01 X24.9244 Y39.3693
G01 X24.9334 Y39.3548
G01 X24.9399 Y39.3455
G01 X24.9506 Y39.3322
G01 X24.9582 Y39.3238
G01 X24.9704 Y39.3118
G01 X24.9835 Y39.3009
G01 X24.9926 Y39.2941
G01 X25.0069 Y39.2848
G01 X25.0219 Y39.2766
G01 X25.0321 Y39.2717
G01 X25.0480 Y39.2654
G01 X25.0588 Y39.2618
G01 X25.0753 Y39.2575
G01 X25.0920 Y39.2543
G01 X25.1033 Y39.2529
G01 X25.1147 Y39.2521
G01 X25.1260 Y39.2518
G01 X27.1260 Y39.2518
G01 X27.1374 Y39.2521
G01 X27.1487 Y39.2529
G01 X27.1656 Y39.2552
G01 X27.1768 Y39.2575
G01 X27.1878 Y39.2602
G01 X27.2041 Y39.2654
G01 X27.2199 Y39.2717
G01 X27.2302 Y39.2766
G01 X27.2451 Y39.2848
G01 X27.2594 Y39.2941
G01 X27.2730 Y39.3044
G01 X27.2858 Y39.3157
G01 X27.2977 Y39.3279
G01 X27.3087 Y39.3410
G01 X27.3187 Y39.3548
G01 X27.3276 Y39.3693
G01 X27.3355 Y39.3845
G01 X27.3422 Y39.4001
G01 X27.3477 Y39.4163
G01 X27.3521 Y39.4328
G01 X27.3552 Y39.4495
G01 X27.3571 Y39.4665
G01 X27.3577 Y39.4835
G01 X27.3577 Y41.3885
G01 X27.3571 Y41.4056
G01 X27.3560 Y41.4169
G01 X27.3543 Y41.4281
G01 X27.3521 Y41.4393
G01 X27.3493 Y41.4503
G01 X27.3442 Y41.4666
G01 X27.3378 Y41.4824
G01 X27.3304 Y41.4977
G01 X27.3218 Y41.5125
G01 X27.3121 Y41.5265
G01 X27.3015 Y41.5399
G01 X27.2899 Y41.5524
G01 X27.2816 Y41.5602
G01 X27.2686 Y41.5712
G01 X27.2548 Y41.5812
G01 X27.2402 Y41.5901
G01 X27.2251 Y41.5980
G01 X27.2094 Y41.6047
G01 X27.1933 Y41.6102
G01 X27.1768 Y41.6146
G01 X27.1600 Y41.6177
G01 X27.1431 Y41.6196
G01 X27.1260 Y41.6202
G01 X25.1260 Y41.6202
G01 X25.1090 Y41.6196
G01 X25.0977 Y41.6185
G01 X25.0808 Y41.6158
G01 X25.0642 Y41.6118
G01 X25.0480 Y41.6067
G01 X25.0321 Y41.6003
G01 X25.0168 Y41.5929
G01 X25.0021 Y41.5843
G01 X24.9880 Y41.5746
G01 X24.9747 Y41.5640
G01 X24.9622 Y41.5524
G01 X24.9506 Y41.5399
G01 X24.9434 Y41.5311
G01 X24.9334 Y41.5173
G01 X24.9244 Y41.5027
G01 X24.9166 Y41.4876
G01 X24.9099 Y41.4719
G01 X24.9043 Y41.4558
G01 X24.9013 Y41.4448
G01 X24.8988 Y41.4337
G01 X24.8961 Y41.4169
G01 X24.8946 Y41.3999
G01 X24.8943 Y41.3885
G01 X24.8943 Y41.0679
G01 X21.2210 Y41.0679
G01 X21.2097 Y41.0676
G01 X21.1591 Y41.0649
G01 X21.1090 Y41.0577
G01 X21.0977 Y41.0558
G01 X21.0867 Y41.0533
G01 X21.0431 Y41.0423
G01 X21.0268 Y41.0371
G01 X20.9792 Y41.0198
G01 X20.9688 Y41.0152
G01 X20.9231 Y40.9933
G01 X20.8796 Y40.9675
G01 X20.8700 Y40.9614
G01 X20.8607 Y40.9549
G01 X20.8202 Y40.9245
G01 X20.8115 Y40.9171
G01 X20.7742 Y40.8828
G01 X20.4956 Y40.6042
G01 X20.4647 Y40.6057
G01 X20.4533 Y40.6057
G01 X20.3790 Y40.6021
G01 X20.3621 Y40.6006
G01 X20.2885 Y40.5898
G01 X20.2773 Y40.5878
G01 X20.2662 Y40.5853
G01 X20.1940 Y40.5672
G01 X20.1778 Y40.5620
G01 X20.1025 Y40.5348
G01 X20.0300 Y40.5008
G01 X20.0198 Y40.4957
G01 X20.0099 Y40.4901
G01 X19.9510 Y40.4548
G01 X19.9367 Y40.4455
G01 X19.8769 Y40.4012
G01 X19.8680 Y40.3942
G01 X19.8085 Y40.3407
G01 X19.8002 Y40.3328
G01 X19.7924 Y40.3246
G01 X19.7388 Y40.2651
G01 X19.6909 Y40.2009
G01 X19.6843 Y40.1916
G01 X19.6783 Y40.1820
G01 X19.6373 Y40.1132
G01 X19.6029 Y40.0410
G01 X19.5982 Y40.0306
G01 X19.5942 Y40.0200
G01 X19.5674 Y39.9445
G01 X19.5477 Y39.8669
G01 X19.5452 Y39.8558
G01 X19.5433 Y39.8446
G01 X19.5318 Y39.7653
G01 X19.5276 Y39.6854
G01 X19.5273 Y39.6740
G01 X19.5276 Y39.6627
G01 X19.5318 Y39.5827
G01 X19.5433 Y39.5035
G01 X19.5452 Y39.4923
G01 X19.5477 Y39.4812
G01 X19.5644 Y39.4145
G01 X19.5674 Y39.4036
G01 X19.5710 Y39.3928
G01 X19.5982 Y39.3175
G01 X19.6029 Y39.3071
G01 X19.6373 Y39.2348
G01 X19.6783 Y39.1660
G01 X19.6843 Y39.1564
G01 X19.6909 Y39.1471
G01 X19.7388 Y39.0830
G01 X19.7924 Y39.0235
G01 X19.8002 Y39.0152
G01 X19.8085 Y39.0074
G01 X19.8680 Y38.9538
G01 X19.9321 Y38.9059
G01 X19.9414 Y38.8993
G01 X20.0099 Y38.8579
G01 X20.0249 Y38.8497
G00 Z2.0000
G00 X20.0918 Y38.9828
G01 F30.00
G01 Z-0.0900
G01 F60.00
G01 X20.1595 Y38.9509
G01 X20.2279 Y38.9263
G01 X20.2357 Y38.9239
G01 X20.3063 Y38.9063
G01 X20.3783 Y38.8955
G01 X20.3864 Y38.8947
G01 X20.4590 Y38.8913
G01 X20.5317 Y38.8947
G01 X20.5398 Y38.8955
G01 X20.6117 Y38.9063
G01 X20.6823 Y38.9239
G01 X20.6901 Y38.9263
G01 X20.7586 Y38.9509
G01 X20.8244 Y38.9819
G01 X20.8315 Y38.9857
G01 X20.8905 Y39.0210
G01 X20.8972 Y39.0255
G01 X20.9556 Y39.0690
G01 X21.0096 Y39.1177
G01 X21.0153 Y39.1235
G01 X21.0614 Y39.1744
G01 X21.0666 Y39.1807
G01 X21.1099 Y39.2392
G01 X21.1484 Y39.3033
G01 X21.1805 Y39.3708
G01 X21.1837 Y39.3783
G01 X21.2081 Y39.4468
G01 X21.2267 Y39.5213
G01 X21.2380 Y39.5973
G01 X21.2417 Y39.6720
G01 X21.2382 Y39.7487
G01 X21.2356 Y39.7676
G01 X21.4211 Y39.9531
G01 X25.0433 Y39.9531
G01 X25.0433 Y39.4835
G01 X25.0439 Y39.4734
G01 X25.0463 Y39.4615
G01 X25.0504 Y39.4500
G01 X25.0561 Y39.4393
G01 X25.0634 Y39.4295
G01 X25.0720 Y39.4209
G01 X25.0818 Y39.4136
G01 X25.0870 Y39.4105
G01 X25.0944 Y39.4071
G01 X25.1059 Y39.4033
G01 X25.1159 Y39.4014
G01 X25.1260 Y39.4008
G01 X27.1260 Y39.4008
G01 X27.1341 Y39.4012
G01 X27.1402 Y39.4020
G01 X27.1520 Y39.4050
G01 X27.1632 Y39.4096
G01 X27.1737 Y39.4159
G01 X27.1831 Y39.4236
G01 X27.1873 Y39.4280
G01 X27.1925 Y39.4342
G01 X27.1959 Y39.4393
G01 X27.1999 Y39.4463
G01 X27.2046 Y39.4576
G01 X27.2076 Y39.4694
G01 X27.2087 Y39.4815
G01 X27.2088 Y41.3885
G01 X27.2084 Y41.3966
G01 X27.2076 Y41.4027
G01 X27.2046 Y41.4145
G01 X27.1999 Y41.4257
G01 X27.1937 Y41.4362
G01 X27.1860 Y41.4456
G01 X27.1801 Y41.4512
G01 X27.1753 Y41.4550
G01 X27.1650 Y41.4615
G01 X27.1539 Y41.4664
G01 X27.1461 Y41.4688
G01 X27.1402 Y41.4701
G01 X27.1281 Y41.4712
G01 X25.1260 Y41.4713
G01 X25.1179 Y41.4709
G01 X25.1079 Y41.4693
G01 X25.0962 Y41.4657
G01 X25.0852 Y41.4605
G01 X25.0801 Y41.4573
G01 X25.0735 Y41.4525
G01 X25.0647 Y41.4441
G01 X25.0572 Y41.4345
G01 X25.0540 Y41.4293
G01 X25.0504 Y41.4221
G01 X25.0463 Y41.4106
G01 X25.0439 Y41.3987
G01 X25.0433 Y41.3885
G01 X25.0433 Y40.9190
G01 X21.2210 Y40.9190
G01 X21.1737 Y40.9166
G01 X21.1308 Y40.9104
G01 X21.1228 Y40.9088
G01 X21.0789 Y40.8976
G01 X21.0362 Y40.8822
G01 X20.9934 Y40.8619
G01 X20.9527 Y40.8376
G01 X20.9131 Y40.8080
G01 X20.8795 Y40.7775
G01 X20.5526 Y40.4506
G01 X20.5337 Y40.4532
G01 X20.4631 Y40.4567
G01 X20.4550 Y40.4567
G01 X20.3823 Y40.4530
G01 X20.3103 Y40.4424
G01 X20.3024 Y40.4408
G01 X20.2318 Y40.4231
G01 X20.1595 Y40.3972
G01 X20.0900 Y40.3643
G01 X20.0242 Y40.3249
G01 X19.9657 Y40.2816
G01 X19.9594 Y40.2764
G01 X19.9055 Y40.2275
G01 X19.8566 Y40.1737
G01 X19.8515 Y40.1674
G01 X19.8082 Y40.1089
G01 X19.7678 Y40.0412
G01 X19.7359 Y39.9736
G01 X19.7100 Y39.9012
G01 X19.6913 Y39.8267
G01 X19.6800 Y39.7507
G01 X19.6763 Y39.6740
G01 X19.6800 Y39.5973
G01 X19.6913 Y39.5213
G01 X19.7100 Y39.4468
G01 X19.7359 Y39.3745
G01 X19.7687 Y39.3050
G01 X19.8082 Y39.2392
G01 X19.8540 Y39.1775
G01 X19.9055 Y39.1205
G01 X19.9625 Y39.0690
G01 X20.0242 Y39.0232
G01 X20.0918 Y38.9828
G00 Z2.0000
G00 X25.3343 Y41.8143
G01 F30.00
G01 Z-0.0900
G01 F60.00
G01 X25.3294 Y41.7960
G01 X25.3204 Y41.7692
G01 X25.5148 Y41.7692
G01 X25.4584 Y41.7960
G01 X25.4419 Y41.8048
G01 X25.3449 Y41.8629
G01 X25.3343 Y41.8143
G00 Z2.0000
G00 X25.5305 Y41.9265
G01 F30.00
G01 Z-0.0900
G01 F60.00
G01 X25.6254 Y41.8820
G01 X25.6360 Y41.8779
G01 X25.7348 Y41.8428
G01 X25.7457 Y41.8398
G01 X25.8475 Y41.8146
G01 X25.8587 Y41.8126
G01 X25.9568 Y41.7982
G01 X25.9738 Y41.7967
G01 X26.0728 Y41.7919
G01 X26.1735 Y41.7918
G01 X26.1849 Y41.7921
G01 X26.2896 Y41.7975
G01 X26.3933 Y41.8126
G01 X26.4046 Y41.8146
G01 X26.4156 Y41.8171
G01 X26.5173 Y41.8428
G01 X26.6161 Y41.8779
G01 X26.6267 Y41.8820
G01 X26.7216 Y41.9265
G01 X26.7318 Y41.9317
G01 X26.8218 Y41.9853
G01 X26.8314 Y41.9914
G01 X26.8407 Y41.9979
G01 X26.9248 Y42.0606
G01 X26.9334 Y42.0681
G01 X27.0109 Y42.1387
G01 X27.0187 Y42.1469
G01 X27.0889 Y42.2248
G01 X27.1516 Y42.3088
G01 X27.1613 Y42.3229
G01 X27.2123 Y42.4079
G01 X27.2179 Y42.4178
G01 X27.2230 Y42.4280
G01 X27.2676 Y42.5229
G01 X27.2717 Y42.5335
G01 X27.3067 Y42.6323
G01 X27.3325 Y42.7339
G01 X27.3350 Y42.7450
G01 X27.3506 Y42.8487
G01 X27.3520 Y42.8600
G01 X27.3529 Y42.8713
G01 X27.3577 Y42.9760
G01 X27.3529 Y43.0808
G01 X27.3520 Y43.0921
G01 X27.3506 Y43.1034
G01 X27.3350 Y43.2071
G01 X27.3325 Y43.2181
G01 X27.3067 Y43.3198
G01 X27.2717 Y43.4186
G01 X27.2676 Y43.4292
G01 X27.2630 Y43.4396
G01 X27.2179 Y43.5343
G01 X27.1642 Y43.6243
G01 X27.1582 Y43.6339
G01 X27.1516 Y43.6432
G01 X27.0889 Y43.7273
G01 X27.0187 Y43.8051
G01 X27.0109 Y43.8134
G01 X27.0026 Y43.8212
G01 X26.9248 Y43.8914
G01 X26.8407 Y43.9541
G01 X26.8267 Y43.9638
G01 X26.7416 Y44.0148
G01 X26.7318 Y44.0204
G01 X26.6371 Y44.0655
G01 X26.6267 Y44.0701
G01 X26.6161 Y44.0742
G01 X26.5173 Y44.1092
G01 X26.4156 Y44.1350
G01 X26.3990 Y44.1385
G01 X26.3009 Y44.1531
G01 X26.2839 Y44.1550
G01 X26.1792 Y44.1602
G01 X26.0785 Y44.1602
G01 X26.0672 Y44.1599
G01 X25.9625 Y44.1545
G01 X25.8587 Y44.1394
G01 X25.8475 Y44.1375
G01 X25.8364 Y44.1350
G01 X25.7348 Y44.1092
G01 X25.6360 Y44.0742
G01 X25.6254 Y44.0701
G01 X25.5305 Y44.0255
G01 X25.5203 Y44.0204
G01 X25.4302 Y43.9667
G01 X25.4206 Y43.9607
G01 X25.4113 Y43.9541
G01 X25.3273 Y43.8914
G01 X25.3187 Y43.8840
G01 X25.2412 Y43.8134
G01 X25.2333 Y43.8051
G01 X25.1631 Y43.7273
G01 X25.1004 Y43.6432
G01 X25.0908 Y43.6292
G01 X25.0398 Y43.5441
G01 X25.0342 Y43.5343
G01 X25.0290 Y43.5241
G01 X24.9845 Y43.4292
G01 X24.9804 Y43.4186
G01 X24.9453 Y43.3198
G01 X24.9196 Y43.2181
G01 X24.9171 Y43.2071
G01 X24.9151 Y43.1958
G01 X24.9014 Y43.1034
G01 X24.9000 Y43.0921
G01 X24.8992 Y43.0808
G01 X24.8943 Y42.9760
G01 X24.8992 Y42.8713
G01 X24.9000 Y42.8600
G01 X24.9014 Y42.8487
G01 X24.9171 Y42.7450
G01 X24.9423 Y42.6432
G01 X24.9453 Y42.6323
G01 X24.9489 Y42.6215
G01 X24.9845 Y42.5229
G01 X24.9891 Y42.5125
G01 X25.0342 Y42.4178
G01 X25.0878 Y42.3277
G01 X25.0939 Y42.3181
G01 X25.1004 Y42.3088
G01 X25.1631 Y42.2248
G01 X25.2333 Y42.1469
G01 X25.2412 Y42.1387
G01 X25.2494 Y42.1308
G01 X25.3273 Y42.0606
G01 X25.4113 Y41.9979
G01 X25.4206 Y41.9914
G01 X25.5104 Y41.9373
G01 X25.5203 Y41.9317
G01 X25.5305 Y41.9265
G00 Z2.0000
G00 X25.5941 Y42.0612
G01 F30.00
G01 Z-0.0900
G01 F60.00
G01 X25.6824 Y42.0196
G01 X25.7780 Y41.9854
G01 X25.8766 Y41.9607
G01 X25.9750 Y41.9460
G01 X26.0765 Y41.9408
G01 X26.1776 Y41.9409
G01 X26.2750 Y41.9458
G01 X26.3775 Y41.9611
G01 X26.4740 Y41.9854
G01 X26.5697 Y42.0196
G01 X26.6615 Y42.0630
G01 X26.7487 Y42.1152
G01 X26.8303 Y42.1758
G01 X26.9056 Y42.2440
G01 X26.9738 Y42.3193
G01 X27.0354 Y42.4026
G01 X27.0865 Y42.4880
G01 X27.1300 Y42.5799
G01 X27.1642 Y42.6755
G01 X27.1889 Y42.7741
G01 X27.2038 Y42.8746
G01 X27.2088 Y42.9760
G01 X27.2038 Y43.0775
G01 X27.1889 Y43.1780
G01 X27.1642 Y43.2765
G01 X27.1300 Y43.3722
G01 X27.0865 Y43.4640
G01 X27.0343 Y43.5512
G01 X26.9738 Y43.6328
G01 X26.9056 Y43.7081
G01 X26.8303 Y43.7763
G01 X26.7470 Y43.8379
G01 X26.6615 Y43.8890
G01 X26.5697 Y43.9325
G01 X26.4740 Y43.9667
G01 X26.3735 Y43.9918
G01 X26.2730 Y44.0065
G01 X26.1756 Y44.0112
G01 X26.0785 Y44.0113
G01 X25.9771 Y44.0063
G01 X25.8766 Y43.9914
G01 X25.7780 Y43.9667
G01 X25.6824 Y43.9325
G01 X25.5905 Y43.8890
G01 X25.5034 Y43.8368
G01 X25.4218 Y43.7763
G01 X25.3465 Y43.7081
G01 X25.2783 Y43.6328
G01 X25.2166 Y43.5495
G01 X25.1655 Y43.4640
G01 X25.1221 Y43.3722
G01 X25.0879 Y43.2765
G01 X25.0641 Y43.1820
G01 X25.0625 Y43.1740
G01 X25.0488 Y43.0815
G01 X25.0480 Y43.0734
G01 X25.0433 Y42.9760
G01 X25.0480 Y42.8786
G01 X25.0488 Y42.8705
G01 X25.0632 Y42.7741
G01 X25.0868 Y42.6794
G01 X25.0891 Y42.6717
G01 X25.1221 Y42.5799
G01 X25.1655 Y42.4880
G01 X25.2177 Y42.4009
G01 X25.2783 Y42.3193
G01 X25.3465 Y42.2440
G01 X25.4218 Y42.1758
G01 X25.5034 Y42.1152
G01 X25.5870 Y42.0650
G01 X25.5941 Y42.0612
G00 Z2.0000
G00 X26.9031 Y41.8594
G01 F30.00
G01 Z-0.0900
G01 F60.00
G01 X26.9029 Y41.8603
G01 X26.8182 Y41.8095
G01 X26.8020 Y41.8003
G01 X26.7853 Y41.7919
G01 X26.7372 Y41.7692
G01 X26.9346 Y41.7692
G01 X26.9113 Y41.8323
G01 X26.9031 Y41.8594
G00 Z2.0000
G00 X26.6257 Y44.2413
G01 F30.00
G01 Z-0.0900
G01 F60.00
G01 X26.6249 Y44.2628
G01 X26.5779 Y44.2460
G01 X26.6268 Y44.2286
G01 X26.6257 Y44.2413
G00 Z2.0000
G00 X25.6254 Y44.2635
G01 F30.00
G01 Z-0.0900
G01 F60.00
G01 X25.6269 Y44.2419
G01 X25.6272 Y44.2292
G01 X25.6741 Y44.2460
G01 X25.6254 Y44.2635
G00 Z2.0000
G00 X25.1229 Y45.9141
G01 F30.00
G01 Z-0.0900
G01 F60.00
G01 X25.1655 Y46.0040
G01 X25.2156 Y46.0877
G01 X25.2201 Y46.0945
G01 X25.2758 Y46.1696
G01 X25.2809 Y46.1759
G01 X25.3465 Y46.2481
G01 X25.4187 Y46.3136
G01 X25.4250 Y46.3188
G01 X25.5034 Y46.3768
G01 X25.5905 Y46.4290
G01 X25.6824 Y46.4725
G01 X25.7742 Y46.5054
G01 X25.7893 Y46.5096
G01 X25.7893 Y46.8640
G01 X25.6347 Y46.8252
G01 X25.6314 Y46.8240
G01 X25.4268 Y46.7351
G01 X25.4238 Y46.7335
G01 X25.2365 Y46.6123
G01 X25.2337 Y46.6102
G01 X25.0687 Y46.4601
G01 X25.0664 Y46.4575
G01 X24.9281 Y46.2825
G01 X24.9262 Y46.2795
G01 X24.8184 Y46.0843
G01 X24.8170 Y46.0811
G01 X24.7425 Y45.8708
G01 X24.7390 Y45.8528
G01 X25.1007 Y45.8528
G01 X25.1229 Y45.9141
G00 Z2.0000
G00 X25.0369 Y46.0792
G01 F30.00
G01 Z-0.0900
G01 F60.00
G01 X25.0878 Y46.1643
G01 X25.0939 Y46.1739
G01 X25.1561 Y46.2583
G01 X25.1631 Y46.2673
G01 X25.1706 Y46.2759
G01 X25.2333 Y46.3451
G01 X25.2452 Y46.3574
G01 X25.3187 Y46.4240
G01 X25.3273 Y46.4314
G01 X25.4113 Y46.4941
G01 X25.4206 Y46.5007
G01 X25.4302 Y46.5067
G01 X25.5203 Y46.5604
G01 X25.6150 Y46.6055
G01 X25.6254 Y46.6101
G01 X25.6403 Y46.6157
G01 X25.6403 Y46.6655
G01 X25.4959 Y46.6027
G01 X25.3262 Y46.4929
G01 X25.1767 Y46.3569
G01 X25.0515 Y46.1984
G01 X24.9539 Y46.0215
G01 X24.9469 Y46.0017
G01 X24.9995 Y46.0017
G01 X25.0290 Y46.0641
G01 X25.0369 Y46.0792
G00 Z2.0000
G00 X26.4779 Y46.5054
G01 F30.00
G01 Z-0.0900
G01 F60.00
G01 X26.5659 Y46.4739
G01 X26.5734 Y46.4708
G01 X26.6615 Y46.4290
G01 X26.7452 Y46.3790
G01 X26.7520 Y46.3745
G01 X26.8303 Y46.3163
G01 X26.9041 Y46.2495
G01 X26.9738 Y46.1728
G01 X27.0354 Y46.0895
G01 X27.0875 Y46.0022
G01 X27.1300 Y45.9122
G01 X27.1513 Y45.8528
G01 X27.5130 Y45.8528
G01 X27.4485 Y46.0501
G01 X27.4472 Y46.0533
G01 X27.3442 Y46.2511
G01 X27.3423 Y46.2541
G01 X27.2084 Y46.4325
G01 X27.2061 Y46.4351
G01 X27.0448 Y46.5892
G01 X27.0421 Y46.5914
G01 X26.8578 Y46.7171
G01 X26.8548 Y46.7188
G01 X26.6525 Y46.8127
G01 X26.6492 Y46.8139
G01 X26.4628 Y46.8656
G01 X26.4628 Y46.5096
G01 X26.4779 Y46.5054
G00 Z2.0000
G00 X26.6319 Y46.6078
G01 F30.00
G01 Z-0.0900
G01 F60.00
G01 X26.7216 Y46.5655
G01 X26.7318 Y46.5604
G01 X26.8218 Y46.5067
G01 X26.8314 Y46.5007
G01 X26.8407 Y46.4941
G01 X26.9158 Y46.4384
G01 X26.9248 Y46.4314
G01 X26.9334 Y46.4240
G01 X27.0109 Y46.3534
G01 X27.0815 Y46.2759
G01 X27.0889 Y46.2673
G01 X27.0959 Y46.2583
G01 X27.1516 Y46.1832
G01 X27.1582 Y46.1739
G01 X27.1642 Y46.1643
G01 X27.2179 Y46.0743
G01 X27.2525 Y46.0017
G01 X27.3061 Y46.0017
G01 X27.2169 Y46.1731
G01 X27.0956 Y46.3347
G01 X26.9495 Y46.4743
G01 X26.7826 Y46.5881
G01 X26.6117 Y46.6674
G01 X26.6117 Y46.6157
G01 X26.6319 Y46.6078
G00 Z2.0000
G00 X27.6736 Y50.0126
G01 F30.00
G01 Z-0.0900
G01 F60.00
G01 X27.7623 Y49.9707
G01 X27.7727 Y49.9661
G01 X27.7833 Y49.9620
G01 X27.8757 Y49.9289
G01 X27.8865 Y49.9254
G01 X27.8974 Y49.9223
G01 X27.9926 Y49.8985
G01 X28.0037 Y49.8960
G01 X28.0149 Y49.8940
G01 X28.1176 Y49.8789
G01 X28.1346 Y49.8774
G01 X28.2327 Y49.8726
G01 X28.2440 Y49.8723
G01 X28.2554 Y49.8726
G01 X28.3591 Y49.8778
G01 X28.3760 Y49.8796
G01 X28.4787 Y49.8950
G01 X28.4954 Y49.8985
G01 X28.5438 Y49.9106
G01 X30.3372 Y48.1172
G01 X30.3454 Y48.1094
G01 X30.3832 Y48.0756
G01 X30.4237 Y48.0452
G01 X30.4330 Y48.0386
G01 X30.4426 Y48.0325
G01 X30.4861 Y48.0067
G01 X30.5318 Y47.9848
G01 X30.5422 Y47.9802
G01 X30.5528 Y47.9761
G01 X30.5898 Y47.9629
G01 X30.6061 Y47.9578
G01 X30.6607 Y47.9443
G01 X30.7164 Y47.9358
G01 X30.7334 Y47.9343
G01 X30.7840 Y47.9321
G01 X44.1190 Y47.9321
G01 X44.1753 Y47.9347
G01 X44.1922 Y47.9366
G01 X44.2311 Y47.9423
G01 X44.2423 Y47.9443
G01 X44.2534 Y47.9468
G01 X44.3025 Y47.9593
G01 X44.3133 Y47.9629
G01 X44.3608 Y47.9802
G01 X44.4067 Y48.0016
G01 X44.4169 Y48.0067
G01 X44.4605 Y48.0325
G01 X44.4701 Y48.0386
G01 X44.4794 Y48.0452
G01 X44.5109 Y48.0686
G01 X44.5242 Y48.0792
G01 X44.5658 Y48.1172
G01 X45.2048 Y48.7563
G01 X45.2425 Y48.7982
G01 X45.2729 Y48.8387
G01 X45.2794 Y48.8480
G01 X45.2855 Y48.8576
G01 X45.3057 Y48.8913
G01 X45.3139 Y48.9062
G01 X45.3378 Y48.9572
G01 X45.3551 Y49.0048
G01 X45.3603 Y49.0211
G01 X45.3713 Y49.0647
G01 X45.3748 Y49.0813
G01 X45.3823 Y49.1314
G01 X45.3837 Y49.1484
G01 X45.3859 Y49.1990
G01 X45.3859 Y50.2894
G01 X45.4041 Y50.3030
G01 X45.4129 Y50.3102
G01 X45.4795 Y50.3705
G01 X45.4914 Y50.3827
G01 X45.5441 Y50.4409
G01 X45.5551 Y50.4540
G01 X45.6053 Y50.5215
G01 X45.6119 Y50.5308
G01 X45.6583 Y50.6078
G01 X45.6639 Y50.6177
G01 X45.6690 Y50.6278
G01 X45.7050 Y50.7040
G01 X45.7113 Y50.7198
G01 X45.7413 Y50.8045
G01 X45.7634 Y50.8917
G01 X45.7659 Y50.9028
G01 X45.7678 Y50.9140
G01 X45.7808 Y51.0029
G01 X45.7854 Y51.0927
G01 X45.7857 Y51.1040
G01 X45.7854 Y51.1154
G01 X45.7812 Y51.1995
G01 X45.7794 Y51.2164
G01 X45.7678 Y51.2941
G01 X45.7659 Y51.3053
G01 X45.7634 Y51.3164
G01 X45.7413 Y51.4035
G01 X45.7113 Y51.4882
G01 X45.7072 Y51.4988
G01 X45.6690 Y51.5802
G01 X45.6639 Y51.5904
G01 X45.6583 Y51.6003
G01 X45.6119 Y51.6772
G01 X45.5585 Y51.7496
G01 X45.5515 Y51.7585
G01 X45.5441 Y51.7671
G01 X45.4914 Y51.8253
G01 X45.4835 Y51.8335
G01 X45.4753 Y51.8414
G01 X45.4085 Y51.9015
G01 X45.3365 Y51.9553
G01 X45.3272 Y51.9619
G01 X45.3176 Y51.9679
G01 X45.2404 Y52.0139
G01 X45.1592 Y52.0526
G01 X45.1488 Y52.0572
G01 X45.1382 Y52.0613
G01 X45.0535 Y52.0913
G01 X44.9664 Y52.1134
G01 X44.9553 Y52.1159
G01 X44.9441 Y52.1178
G01 X44.8551 Y52.1308
G01 X44.7654 Y52.1354
G01 X44.7540 Y52.1357
G01 X44.7427 Y52.1354
G01 X44.6529 Y52.1308
G01 X44.5640 Y52.1178
G01 X44.5528 Y52.1159
G01 X44.4655 Y52.0943
G01 X44.4545 Y52.0913
G01 X44.4437 Y52.0877
G01 X44.3592 Y52.0572
G01 X44.2778 Y52.0190
G01 X44.2677 Y52.0139
G01 X44.1905 Y51.9679
G01 X44.1808 Y51.9619
G01 X44.1085 Y51.9085
G01 X44.0995 Y51.9015
G01 X44.0909 Y51.8941
G01 X44.0327 Y51.8414
G01 X44.0205 Y51.8295
G01 X43.9639 Y51.7671
G01 X43.9565 Y51.7585
G01 X43.9027 Y51.6865
G01 X43.8962 Y51.6772
G01 X43.8498 Y51.6003
G01 X43.8441 Y51.5904
G01 X43.8055 Y51.5092
G01 X43.8009 Y51.4988
G01 X43.7968 Y51.4882
G01 X43.7703 Y51.4143
G01 X43.7667 Y51.4035
G01 X43.7637 Y51.3926
G01 X43.7421 Y51.3053
G01 X43.7287 Y51.2164
G01 X43.7268 Y51.1995
G01 X43.7226 Y51.1154
G01 X43.7223 Y51.1040
G01 X43.7226 Y51.0927
G01 X43.7273 Y51.0029
G01 X43.7402 Y50.9140
G01 X43.7421 Y50.9028
G01 X43.7446 Y50.8917
G01 X43.7667 Y50.8045
G01 X43.7968 Y50.7198
G01 X43.8031 Y50.7040
G01 X43.8390 Y50.6278
G01 X43.8441 Y50.6177
G01 X43.8901 Y50.5405
G01 X43.8962 Y50.5308
G01 X43.9027 Y50.5215
G01 X43.9530 Y50.4540
G01 X43.9639 Y50.4409
G01 X44.0167 Y50.3827
G01 X44.0286 Y50.3705
G01 X44.0952 Y50.3102
G01 X44.1040 Y50.3030
G01 X44.1221 Y50.2894
G01 X44.1221 Y49.4608
G01 X43.8573 Y49.1959
G01 X31.0458 Y49.1959
G01 X29.4374 Y50.8042
G01 X29.4496 Y50.8526
G01 X29.4531 Y50.8693
G01 X29.4692 Y50.9776
G01 X29.4706 Y50.9946
G01 X29.4754 Y51.0927
G01 X29.4757 Y51.1097
G01 X29.4706 Y51.2134
G01 X29.4698 Y51.2248
G01 X29.4684 Y51.2360
G01 X29.4540 Y51.3331
G01 X29.4521 Y51.3443
G01 X29.4496 Y51.3554
G01 X29.4243 Y51.4561
G01 X29.4191 Y51.4724
G01 X29.3861 Y51.5648
G01 X29.3820 Y51.5754
G01 X29.3774 Y51.5858
G01 X29.3354 Y51.6745
G01 X29.3303 Y51.6846
G01 X29.3247 Y51.6945
G01 X29.2742 Y51.7787
G01 X29.2681 Y51.7883
G01 X29.2616 Y51.7976
G01 X29.2031 Y51.8764
G01 X29.1961 Y51.8854
G01 X29.1887 Y51.8940
G01 X29.1189 Y51.9709
G01 X29.1067 Y51.9828
G01 X29.0340 Y52.0487
G01 X29.0254 Y52.0561
G01 X29.0164 Y52.0631
G01 X28.9376 Y52.1216
G01 X28.9283 Y52.1281
G01 X28.9187 Y52.1342
G01 X28.8345 Y52.1847
G01 X28.8246 Y52.1903
G01 X28.8145 Y52.1954
G01 X28.7258 Y52.2374
G01 X28.7154 Y52.2420
G01 X28.7048 Y52.2461
G01 X28.6124 Y52.2791
G01 X28.6016 Y52.2827
G01 X28.5906 Y52.2857
G01 X28.4954 Y52.3096
G01 X28.4843 Y52.3121
G01 X28.4731 Y52.3140
G01 X28.3760 Y52.3284
G01 X28.3648 Y52.3298
G01 X28.3534 Y52.3306
G01 X28.2554 Y52.3354
G01 X28.2440 Y52.3357
G01 X28.2327 Y52.3354
G01 X28.1290 Y52.3303
G01 X28.1120 Y52.3284
G01 X28.0149 Y52.3140
G01 X28.0037 Y52.3121
G01 X27.9926 Y52.3096
G01 X27.8974 Y52.2857
G01 X27.8865 Y52.2827
G01 X27.8757 Y52.2791
G01 X27.7833 Y52.2461
G01 X27.7727 Y52.2420
G01 X27.7623 Y52.2374
G01 X27.6736 Y52.1954
G01 X27.6634 Y52.1903
G01 X27.6535 Y52.1847
G01 X27.5693 Y52.1342
G01 X27.5597 Y52.1281
G01 X27.5504 Y52.1216
G01 X27.4716 Y52.0631
G01 X27.4626 Y52.0561
G01 X27.4540 Y52.0487
G01 X27.3813 Y51.9828
G01 X27.3731 Y51.9750
G01 X27.3652 Y51.9667
G01 X27.2993 Y51.8940
G01 X27.2919 Y51.8854
G01 X27.2849 Y51.8764
G01 X27.2265 Y51.7976
G01 X27.2199 Y51.7883
G01 X27.2138 Y51.7787
G01 X27.1634 Y51.6945
G01 X27.1578 Y51.6846
G01 X27.1526 Y51.6745
G01 X27.1107 Y51.5858
G01 X27.1061 Y51.5754
G01 X27.1020 Y51.5648
G01 X27.0689 Y51.4724
G01 X27.0654 Y51.4616
G01 X27.0623 Y51.4506
G01 X27.0385 Y51.3554
G01 X27.0360 Y51.3443
G01 X27.0340 Y51.3331
G01 X27.0196 Y51.2360
G01 X27.0183 Y51.2248
G01 X27.0174 Y51.2134
G01 X27.0126 Y51.1154
G01 X27.0123 Y51.1040
G01 X27.0126 Y51.0927
G01 X27.0174 Y50.9946
G01 X27.0183 Y50.9833
G01 X27.0196 Y50.9720
G01 X27.0340 Y50.8749
G01 X27.0360 Y50.8637
G01 X27.0385 Y50.8526
G01 X27.0623 Y50.7574
G01 X27.0654 Y50.7465
G01 X27.0689 Y50.7357
G01 X27.1020 Y50.6433
G01 X27.1061 Y50.6327
G01 X27.1107 Y50.6223
G01 X27.1526 Y50.5336
G01 X27.1578 Y50.5234
G01 X27.1634 Y50.5135
G01 X27.2138 Y50.4293
G01 X27.2199 Y50.4197
G01 X27.2265 Y50.4104
G01 X27.2849 Y50.3316
G01 X27.2919 Y50.3226
G01 X27.2993 Y50.3140
G01 X27.3652 Y50.2413
G01 X27.3731 Y50.2331
G01 X27.3813 Y50.2252
G01 X27.4540 Y50.1593
G01 X27.4626 Y50.1519
G01 X27.4716 Y50.1449
G01 X27.5504 Y50.0865
G01 X27.5597 Y50.0799
G01 X27.5693 Y50.0738
G01 X27.6535 Y50.0234
G01 X27.6634 Y50.0178
G01 X27.6736 Y50.0126
G00 Z2.0000
G00 X27.7372 Y50.1473
G01 F30.00
G01 Z-0.0900
G01 F60.00
G01 X27.8297 Y50.1037
G01 X27.9297 Y50.0679
G01 X28.0328 Y50.0421
G01 X28.1399 Y50.0263
G01 X28.2440 Y50.0213
G01 X28.3522 Y50.0267
G01 X28.4572 Y50.0425
G01 X28.5564 Y50.0673
G01 X28.5870 Y50.0781
G01 X30.4455 Y48.2197
G01 X30.4776 Y48.1907
G01 X30.5157 Y48.1625
G01 X30.5564 Y48.1381
G01 X30.5955 Y48.1195
G01 X30.6030 Y48.1164
G01 X30.6400 Y48.1031
G01 X30.6477 Y48.1008
G01 X30.6898 Y48.0904
G01 X30.7347 Y48.0836
G01 X30.7840 Y48.0811
G01 X44.1190 Y48.0811
G01 X44.1623 Y48.0831
G01 X44.1704 Y48.0839
G01 X44.2092 Y48.0897
G01 X44.2172 Y48.0912
G01 X44.2592 Y48.1019
G01 X44.3038 Y48.1178
G01 X44.3467 Y48.1381
G01 X44.3839 Y48.1603
G01 X44.3907 Y48.1648
G01 X44.4270 Y48.1920
G01 X44.4605 Y48.2225
G01 X45.0969 Y48.8590
G01 X45.1274 Y48.8926
G01 X45.1532 Y48.9274
G01 X45.1578 Y48.9341
G01 X45.1779 Y48.9678
G01 X45.1818 Y48.9750
G01 X45.1986 Y49.0105
G01 X45.2017 Y49.0180
G01 X45.2162 Y49.0588
G01 X45.2268 Y49.1008
G01 X45.2284 Y49.1088
G01 X45.2346 Y49.1517
G01 X45.2369 Y49.1950
G01 X45.2370 Y50.3654
G01 X45.2478 Y50.3724
G01 X45.3140 Y50.4217
G01 X45.3753 Y50.4770
G01 X45.3810 Y50.4828
G01 X45.4364 Y50.5440
G01 X45.4857 Y50.6103
G01 X45.4902 Y50.6170
G01 X45.5305 Y50.6844
G01 X45.5344 Y50.6915
G01 X45.5696 Y50.7662
G01 X45.5975 Y50.8439
G01 X45.5998 Y50.8517
G01 X45.6198 Y50.9318
G01 X45.6320 Y51.0135
G01 X45.6328 Y51.0216
G01 X45.6368 Y51.1040
G01 X45.6328 Y51.1865
G01 X45.6320 Y51.1946
G01 X45.6205 Y51.2722
G01 X45.6189 Y51.2802
G01 X45.5988 Y51.3603
G01 X45.5696 Y51.4418
G01 X45.5325 Y51.5202
G01 X45.4902 Y51.5910
G01 X45.4857 Y51.5978
G01 X45.4364 Y51.6640
G01 X45.3810 Y51.7253
G01 X45.3753 Y51.7310
G01 X45.3140 Y51.7864
G01 X45.2445 Y51.8380
G01 X45.1737 Y51.8805
G01 X45.1665 Y51.8844
G01 X45.0918 Y51.9196
G01 X45.0103 Y51.9488
G01 X44.9302 Y51.9689
G01 X44.9222 Y51.9705
G01 X44.8405 Y51.9825
G01 X44.7540 Y51.9868
G01 X44.6675 Y51.9825
G01 X44.5858 Y51.9705
G01 X44.5778 Y51.9689
G01 X44.4978 Y51.9488
G01 X44.4162 Y51.9196
G01 X44.3415 Y51.8844
G01 X44.3344 Y51.8805
G01 X44.2636 Y51.8380
G01 X44.1940 Y51.7864
G01 X44.1328 Y51.7310
G01 X44.1270 Y51.7253
G01 X44.0717 Y51.6640
G01 X44.0200 Y51.5945
G01 X43.9755 Y51.5202
G01 X43.9385 Y51.4418
G01 X43.9093 Y51.3603
G01 X43.8882 Y51.2762
G01 X43.8755 Y51.1905
G01 X43.8713 Y51.1040
G01 X43.8755 Y51.0175
G01 X43.8882 Y50.9318
G01 X43.9082 Y50.8517
G01 X43.9106 Y50.8439
G01 X43.9370 Y50.7700
G01 X43.9401 Y50.7625
G01 X43.9755 Y50.6879
G01 X44.0179 Y50.6170
G01 X44.0224 Y50.6103
G01 X44.0717 Y50.5440
G01 X44.1298 Y50.4798
G01 X44.1940 Y50.4217
G01 X44.2603 Y50.3724
G01 X44.2711 Y50.3654
G01 X44.2711 Y49.3991
G01 X43.9190 Y49.0470
G01 X30.9841 Y49.0470
G01 X29.2700 Y50.7610
G01 X29.2807 Y50.7917
G01 X29.3055 Y50.8908
G01 X29.3217 Y50.9999
G01 X29.3267 Y51.1000
G01 X29.3267 Y51.1081
G01 X29.3216 Y51.2102
G01 X29.3063 Y51.3133
G01 X29.2802 Y51.4183
G01 X29.2458 Y51.5146
G01 X29.2427 Y51.5221
G01 X29.1989 Y51.6144
G01 X29.1465 Y51.7021
G01 X29.1420 Y51.7089
G01 X29.0810 Y51.7909
G01 X29.0096 Y51.8696
G01 X28.9309 Y51.9410
G01 X28.8456 Y52.0043
G01 X28.7544 Y52.0589
G01 X28.6584 Y52.1044
G01 X28.5583 Y52.1402
G01 X28.4553 Y52.1660
G01 X28.3481 Y52.1817
G01 X28.2440 Y52.1868
G01 X28.1379 Y52.1816
G01 X28.0328 Y52.1660
G01 X27.9336 Y52.1412
G01 X27.9259 Y52.1389
G01 X27.8335 Y52.1058
G01 X27.8260 Y52.1027
G01 X27.7336 Y52.0589
G01 X27.6425 Y52.0043
G01 X27.5571 Y51.9410
G01 X27.4784 Y51.8696
G01 X27.4070 Y51.7909
G01 X27.3461 Y51.7089
G01 X27.3416 Y51.7021
G01 X27.2911 Y51.6180
G01 X27.2873 Y51.6108
G01 X27.2437 Y51.5184
G01 X27.2079 Y51.4183
G01 X27.1821 Y51.3153
G01 X27.1665 Y51.2102
G01 X27.1613 Y51.1040
G01 X27.1662 Y51.0019
G01 X27.1670 Y50.9939
G01 X27.1814 Y50.8968
G01 X27.1830 Y50.8888
G01 X27.2079 Y50.7897
G01 X27.2437 Y50.6897
G01 X27.2891 Y50.5936
G01 X27.3438 Y50.5025
G01 X27.4070 Y50.4171
G01 X27.4756 Y50.3413
G01 X27.4813 Y50.3356
G01 X27.5541 Y50.2697
G01 X27.5603 Y50.2645
G01 X27.6425 Y50.2038
G01 X27.7301 Y50.1511
G01 X27.7372 Y50.1473
G00 Z2.0000
G00 X26.7563 Y51.6676
G01 F30.00
G01 Z-0.0900
G01 F60.00
G01 X26.7833 Y51.6590
G01 X26.8009 Y51.6522
G01 X26.8182 Y51.6445
G01 X26.8433 Y51.6313
G01 X26.8595 Y51.6216
G01 X26.8752 Y51.6110
G01 X26.9424 Y51.5608
G01 X26.9617 Y51.6149
G01 X26.9722 Y51.6410
G01 X27.0180 Y51.7382
G01 X27.0309 Y51.7630
G01 X27.0861 Y51.8553
G01 X27.0961 Y51.8711
G01 X27.1068 Y51.8863
G01 X27.1653 Y51.9652
G01 X27.1768 Y51.9799
G01 X27.1890 Y51.9940
G01 X27.2549 Y52.0668
G01 X27.2744 Y52.0868
G01 X27.3540 Y52.1591
G01 X27.3681 Y52.1713
G01 X27.3829 Y52.1828
G01 X27.4441 Y52.2282
G01 X27.2975 Y52.2282
G01 X26.7408 Y51.6715
G01 X26.7563 Y51.6676
G00 Z2.0000
G00 X29.7244 Y51.8953
G01 F30.00
G01 Z-0.0900
G01 F60.00
G01 X29.7393 Y51.8655
G01 X29.7882 Y51.7617
G01 X29.7948 Y51.7464
G01 X29.8068 Y51.7153
G01 X29.8398 Y51.6229
G01 X29.8503 Y51.5913
G01 X29.8592 Y51.5592
G01 X29.8830 Y51.4640
G01 X29.8903 Y51.4315
G01 X29.8960 Y51.3987
G01 X29.9127 Y51.2851
G01 X29.9145 Y51.2686
G01 X29.9169 Y51.2353
G01 X29.9218 Y51.1373
G01 X29.9226 Y51.1040
G01 X29.9218 Y51.0707
G01 X29.9160 Y50.9576
G01 X31.2309 Y49.6428
G01 X33.6419 Y49.6428
G01 X33.6130 Y49.6501
G01 X33.5971 Y49.6547
G01 X33.5654 Y49.6651
G01 X33.5498 Y49.6709
G01 X33.5344 Y49.6771
G01 X33.5039 Y49.6906
G01 X33.4742 Y49.7056
G01 X33.4596 Y49.7136
G01 X33.4452 Y49.7220
G01 X33.4170 Y49.7398
G01 X33.3898 Y49.7590
G01 X33.3636 Y49.7795
G01 X33.3508 Y49.7902
G01 X33.3261 Y49.8126
G01 X33.3142 Y49.8242
G01 X33.2913 Y49.8483
G01 X33.2802 Y49.8608
G01 X33.2695 Y49.8736
G01 X33.2490 Y49.8998
G01 X33.2298 Y49.9270
G01 X33.2207 Y49.9410
G01 X33.2120 Y49.9552
G01 X33.1956 Y49.9842
G01 X33.1879 Y49.9989
G01 X33.1737 Y50.0290
G01 X33.1671 Y50.0444
G01 X33.1551 Y50.0754
G01 X33.1447 Y50.1071
G01 X33.1358 Y50.1392
G01 X33.1320 Y50.1554
G01 X33.1255 Y50.1880
G01 X33.1206 Y50.2210
G01 X33.1187 Y50.2375
G01 X33.1163 Y50.2707
G01 X33.1155 Y50.3040
G01 X33.1155 Y51.9040
G01 X33.1160 Y51.9303
G01 X29.7044 Y51.9303
G01 X29.7163 Y51.9099
G01 X29.7244 Y51.8953
G00 Z2.0000
G00 X33.7819 Y50.2222
G01 F30.00
G01 Z-0.0900
G01 F60.00
G01 X33.7940 Y50.2213
G01 X35.3961 Y50.2213
G01 X35.4042 Y50.2219
G01 X35.4122 Y50.2233
G01 X35.4200 Y50.2255
G01 X35.4276 Y50.2284
G01 X35.4348 Y50.2320
G01 X35.4417 Y50.2364
G01 X35.4481 Y50.2414
G01 X35.4540 Y50.2470
G01 X35.4593 Y50.2531
G01 X35.4639 Y50.2598
G01 X35.4679 Y50.2668
G01 X35.4705 Y50.2724
G01 X35.4732 Y50.2800
G01 X35.4752 Y50.2879
G01 X35.4764 Y50.2959
G01 X35.4767 Y50.3020
G01 X35.4768 Y51.9040
G01 X35.4764 Y51.9121
G01 X35.4752 Y51.9202
G01 X35.4732 Y51.9280
G01 X35.4705 Y51.9357
G01 X35.4670 Y51.9430
G01 X35.4628 Y51.9500
G01 X35.4580 Y51.9565
G01 X35.4511 Y51.9640
G01 X35.4449 Y51.9693
G01 X35.4383 Y51.9739
G01 X35.4312 Y51.9779
G01 X35.4257 Y51.9805
G01 X35.4200 Y51.9826
G01 X35.4122 Y51.9848
G01 X35.4042 Y51.9862
G01 X35.3961 Y51.9867
G01 X33.7940 Y51.9868
G01 X33.7859 Y51.9864
G01 X33.7779 Y51.9852
G01 X33.7681 Y51.9826
G01 X33.7605 Y51.9797
G01 X33.7532 Y51.9760
G01 X33.7464 Y51.9717
G01 X33.7400 Y51.9667
G01 X33.7341 Y51.9611
G01 X33.7301 Y51.9565
G01 X33.7252 Y51.9500
G01 X33.7210 Y51.9430
G01 X33.7176 Y51.9357
G01 X33.7148 Y51.9280
G01 X33.7129 Y51.9202
G01 X33.7119 Y51.9142
G01 X33.7113 Y51.9061
G01 X33.7113 Y50.3020
G01 X33.7119 Y50.2939
G01 X33.7133 Y50.2859
G01 X33.7148 Y50.2800
G01 X33.7176 Y50.2724
G01 X33.7210 Y50.2650
G01 X33.7241 Y50.2598
G01 X33.7276 Y50.2547
G01 X33.7327 Y50.2485
G01 X33.7385 Y50.2427
G01 X33.7431 Y50.2388
G01 X33.7481 Y50.2352
G01 X33.7550 Y50.2310
G01 X33.7605 Y50.2284
G01 X33.7681 Y50.2255
G01 X33.7759 Y50.2233
G01 X33.7819 Y50.2222
G00 Z2.0000
G00 X33.7600 Y50.0748
G01 F30.00
G01 Z-0.0900
G01 F60.00
G01 X33.7770 Y50.0730
G01 X33.7940 Y50.0723
G01 X35.3940 Y50.0723
G01 X35.4054 Y50.0726
G01 X35.4167 Y50.0734
G01 X35.4280 Y50.0748
G01 X35.4392 Y50.0768
G01 X35.4503 Y50.0793
G01 X35.4613 Y50.0823
G01 X35.4721 Y50.0859
G01 X35.4827 Y50.0900
G01 X35.4931 Y50.0946
G01 X35.5032 Y50.0997
G01 X35.5131 Y50.1053
G01 X35.5228 Y50.1114
G01 X35.5320 Y50.1179
G01 X35.5410 Y50.1249
G01 X35.5496 Y50.1323
G01 X35.5579 Y50.1402
G01 X35.5657 Y50.1484
G01 X35.5767 Y50.1615
G01 X35.5835 Y50.1706
G01 X35.5898 Y50.1801
G01 X35.5956 Y50.1898
G01 X35.6010 Y50.1999
G01 X35.6081 Y50.2154
G01 X35.6122 Y50.2260
G01 X35.6157 Y50.2368
G01 X35.6188 Y50.2477
G01 X35.6213 Y50.2588
G01 X35.6240 Y50.2757
G01 X35.6251 Y50.2870
G01 X35.6257 Y50.2983
G01 X35.6257 Y51.9040
G01 X35.6254 Y51.9154
G01 X35.6246 Y51.9267
G01 X35.6232 Y51.9380
G01 X35.6213 Y51.9492
G01 X35.6188 Y51.9603
G01 X35.6140 Y51.9767
G01 X35.6102 Y51.9874
G01 X35.6058 Y51.9979
G01 X35.6010 Y52.0082
G01 X35.5956 Y52.0182
G01 X35.5898 Y52.0280
G01 X35.5835 Y52.0374
G01 X35.5767 Y52.0466
G01 X35.5695 Y52.0554
G01 X35.5618 Y52.0638
G01 X35.5496 Y52.0757
G01 X35.5366 Y52.0867
G01 X35.5274 Y52.0935
G01 X35.5180 Y52.0998
G01 X35.5082 Y52.1056
G01 X35.4982 Y52.1110
G01 X35.4879 Y52.1158
G01 X35.4774 Y52.1202
G01 X35.4667 Y52.1240
G01 X35.4558 Y52.1273
G01 X35.4392 Y52.1313
G01 X35.4224 Y52.1340
G01 X35.4111 Y52.1351
G01 X35.3997 Y52.1357
G01 X33.7940 Y52.1357
G01 X33.7827 Y52.1354
G01 X33.7713 Y52.1346
G01 X33.7544 Y52.1323
G01 X33.7433 Y52.1301
G01 X33.7322 Y52.1273
G01 X33.7213 Y52.1240
G01 X33.7106 Y52.1202
G01 X33.7001 Y52.1158
G01 X33.6899 Y52.1110
G01 X33.6798 Y52.1056
G01 X33.6701 Y52.0998
G01 X33.6606 Y52.0935
G01 X33.6515 Y52.0867
G01 X33.6427 Y52.0795
G01 X33.6302 Y52.0679
G01 X33.6223 Y52.0596
G01 X33.6114 Y52.0466
G01 X33.6046 Y52.0374
G01 X33.5983 Y52.0280
G01 X33.5924 Y52.0182
G01 X33.5871 Y52.0082
G01 X33.5822 Y51.9979
G01 X33.5779 Y51.9874
G01 X33.5723 Y51.9713
G01 X33.5693 Y51.9603
G01 X33.5668 Y51.9492
G01 X33.5648 Y51.9380
G01 X33.5634 Y51.9267
G01 X33.5624 Y51.9097
G01 X33.5623 Y50.3040
G01 X33.5630 Y50.2870
G01 X33.5648 Y50.2700
G01 X33.5680 Y50.2533
G01 X33.5707 Y50.2422
G01 X33.5740 Y50.2313
G01 X33.5800 Y50.2154
G01 X33.5846 Y50.2050
G01 X33.5897 Y50.1948
G01 X33.5983 Y50.1801
G01 X33.6046 Y50.1706
G01 X33.6114 Y50.1615
G01 X33.6223 Y50.1484
G01 X33.6343 Y50.1362
G01 X33.6427 Y50.1286
G01 X33.6515 Y50.1214
G01 X33.6606 Y50.1146
G01 X33.6701 Y50.1083
G01 X33.6848 Y50.0997
G01 X33.6950 Y50.0946
G01 X33.7054 Y50.0900
G01 X33.7213 Y50.0840
G01 X33.7322 Y50.0807
G01 X33.7433 Y50.0780
G01 X33.7600 Y50.0748
G00 Z2.0000
G00 X36.6527 Y50.1915
G01 F30.00
G01 Z-0.0900
G01 F60.00
G01 X36.7288 Y50.1555
G01 X36.7392 Y50.1509
G01 X36.7498 Y50.1468
G01 X36.8345 Y50.1167
G01 X36.9217 Y50.0946
G01 X36.9328 Y50.0921
G01 X36.9440 Y50.0902
G01 X37.0329 Y50.0773
G01 X37.1227 Y50.0726
G01 X37.1340 Y50.0723
G01 X37.2238 Y50.0765
G01 X37.2351 Y50.0773
G01 X37.3241 Y50.0902
G01 X37.3353 Y50.0921
G01 X37.3464 Y50.0946
G01 X37.4335 Y50.1167
G01 X37.4443 Y50.1203
G01 X37.5288 Y50.1509
G01 X37.6102 Y50.1890
G01 X37.6204 Y50.1941
G01 X37.6976 Y50.2401
G01 X37.7072 Y50.2462
G01 X37.7165 Y50.2527
G01 X37.7885 Y50.3065
G01 X37.8553 Y50.3667
G01 X37.8635 Y50.3745
G01 X37.8714 Y50.3827
G01 X37.9315 Y50.4495
G01 X37.9853 Y50.5215
G01 X37.9919 Y50.5308
G01 X38.0383 Y50.6078
G01 X38.0439 Y50.6177
G01 X38.0490 Y50.6278
G01 X38.0872 Y50.7092
G01 X38.0913 Y50.7198
G01 X38.1213 Y50.8045
G01 X38.1434 Y50.8917
G01 X38.1459 Y50.9028
G01 X38.1594 Y50.9916
G01 X38.1608 Y51.0029
G01 X38.1616 Y51.0142
G01 X38.1657 Y51.1040
G01 X38.1616 Y51.1938
G01 X38.1608 Y51.2051
G01 X38.1594 Y51.2164
G01 X38.1459 Y51.3053
G01 X38.1434 Y51.3164
G01 X38.1213 Y51.4035
G01 X38.0913 Y51.4882
G01 X38.0872 Y51.4988
G01 X38.0826 Y51.5092
G01 X38.0439 Y51.5904
G01 X37.9979 Y51.6676
G01 X37.9919 Y51.6772
G01 X37.9853 Y51.6865
G01 X37.9315 Y51.7585
G01 X37.8714 Y51.8253
G01 X37.8635 Y51.8335
G01 X37.8553 Y51.8414
G01 X37.7885 Y51.9015
G01 X37.7165 Y51.9553
G01 X37.7072 Y51.9619
G01 X37.6976 Y51.9679
G01 X37.6204 Y52.0139
G01 X37.5392 Y52.0526
G01 X37.5288 Y52.0572
G01 X37.4443 Y52.0877
G01 X37.4335 Y52.0913
G01 X37.3464 Y52.1134
G01 X37.3353 Y52.1159
G01 X37.3241 Y52.1178
G01 X37.2351 Y52.1308
G01 X37.1454 Y52.1354
G01 X37.1340 Y52.1357
G01 X37.0442 Y52.1316
G01 X37.0329 Y52.1308
G01 X36.9440 Y52.1178
G01 X36.9328 Y52.1159
G01 X36.9217 Y52.1134
G01 X36.8345 Y52.0913
G01 X36.8237 Y52.0877
G01 X36.7392 Y52.0572
G01 X36.6578 Y52.0190
G01 X36.6477 Y52.0139
G01 X36.5705 Y51.9679
G01 X36.5608 Y51.9619
G01 X36.5515 Y51.9553
G01 X36.4795 Y51.9015
G01 X36.4127 Y51.8414
G01 X36.4045 Y51.8335
G01 X36.3967 Y51.8253
G01 X36.3365 Y51.7585
G01 X36.2827 Y51.6865
G01 X36.2762 Y51.6772
G01 X36.2298 Y51.6003
G01 X36.2241 Y51.5904
G01 X36.2190 Y51.5802
G01 X36.1809 Y51.4988
G01 X36.1768 Y51.4882
G01 X36.1467 Y51.4035
G01 X36.1246 Y51.3164
G01 X36.1221 Y51.3053
G01 X36.1087 Y51.2164
G01 X36.1073 Y51.2051
G01 X36.1065 Y51.1938
G01 X36.1023 Y51.1040
G01 X36.1065 Y51.0142
G01 X36.1073 Y51.0029
G01 X36.1087 Y50.9916
G01 X36.1221 Y50.9028
G01 X36.1246 Y50.8917
G01 X36.1467 Y50.8045
G01 X36.1768 Y50.7198
