(G-CODE GENERATED BY FLATCAM v8.994 - www.flatcam.org - Version Date: 2020/11/7)

(Name: pet_puller_shield-PTH.drl_mill_slot_cnc)
(Type: G-code from Geometry)
(Units: MM)

(Created on Sunday, 09 February 2025 at 14:01)

(This preprocessor is the default preprocessor used by FlatCAM.)
(It is made to work with MACH3 compatible motion controllers.)

(TOOL DIAMETER: 1.0 mm)
(Feedrate_XY: 120.0 mm/min)
(Feedrate_Z: 60.0 mm/min)
(Feedrate rapids 1500.0 mm/min)

(Z_Cut: -1.8 mm)
(DepthPerCut: 0.3 mm <=>6 passes)
(Z_Move: 2.0 mm)
(Z Start: None mm)
(Z End: 35.0 mm)
(X,Y End: None mm)
(Steps per circle: 64)
(Preprocessor Geometry: default)

(X range:   12.4193 ...   18.7195  mm)
(Y range:   31.7690 ...   37.8711  mm)

(Spindle Speed: 20000.0 RPM)
G21
G90
G94

G01 F120.00

M5
G00 Z38.0000
G00 X0.0000 Y0.0000
T1
M6    
(MSG, Change to Tool Dia = 1.0000)
M0
G00 Z38.0000

M03 S20000.0
G01 F120.00
G00 X12.4193 Y34.1698
G01 F60.00
G01 Z-0.3000
G01 F120.00
G01 X12.4198 Y34.1703
G01 X12.4203 Y34.1698
G01 X12.4203 Y31.9702
G01 X12.4198 Y31.9697
G01 X12.4193 Y31.9702
G01 X12.4193 Y34.1698
G00 X12.4193 Y34.1698
G01 F60.00
G01 Z-0.6000
G01 F120.00
G01 X12.4198 Y34.1703
G01 X12.4203 Y34.1698
G01 X12.4203 Y31.9702
G01 X12.4198 Y31.9697
G01 X12.4193 Y31.9702
G01 X12.4193 Y34.1698
G00 X12.4193 Y34.1698
G01 F60.00
G01 Z-0.9000
G01 F120.00
G01 X12.4198 Y34.1703
G01 X12.4203 Y34.1698
G01 X12.4203 Y31.9702
G01 X12.4198 Y31.9697
G01 X12.4193 Y31.9702
G01 X12.4193 Y34.1698
G00 X12.4193 Y34.1698
G01 F60.00
G01 Z-1.2000
G01 F120.00
G01 X12.4198 Y34.1703
G01 X12.4203 Y34.1698
G01 X12.4203 Y31.9702
G01 X12.4198 Y31.9697
G01 X12.4193 Y31.9702
G01 X12.4193 Y34.1698
G00 X12.4193 Y34.1698
G01 F60.00
G01 Z-1.5000
G01 F120.00
G01 X12.4198 Y34.1703
G01 X12.4203 Y34.1698
G01 X12.4203 Y31.9702
G01 X12.4198 Y31.9697
G01 X12.4193 Y31.9702
G01 X12.4193 Y34.1698
G00 X12.4193 Y34.1698
G01 F60.00
G01 Z-1.8000
G01 F120.00
G01 X12.4198 Y34.1703
G01 X12.4203 Y34.1698
G01 X12.4203 Y31.9702
G01 X12.4198 Y31.9697
G01 X12.4193 Y31.9702
G01 X12.4193 Y34.1698
G00 Z2.0000
G00 X16.9182 Y37.8711
G01 F60.00
G01 Z-0.3000
G01 F120.00
G01 X16.9187 Y37.8706
G01 X16.9182 Y37.8701
G01 X14.7185 Y37.8701
G01 X14.7180 Y37.8706
G01 X14.7185 Y37.8711
G01 X16.9182 Y37.8711
G00 X16.9182 Y37.8711
G01 F60.00
G01 Z-0.6000
G01 F120.00
G01 X16.9187 Y37.8706
G01 X16.9182 Y37.8701
G01 X14.7185 Y37.8701
G01 X14.7180 Y37.8706
G01 X14.7185 Y37.8711
G01 X16.9182 Y37.8711
G00 X16.9182 Y37.8711
G01 F60.00
G01 Z-0.9000
G01 F120.00
G01 X16.9187 Y37.8706
G01 X16.9182 Y37.8701
G01 X14.7185 Y37.8701
G01 X14.7180 Y37.8706
G01 X14.7185 Y37.8711
G01 X16.9182 Y37.8711
G00 X16.9182 Y37.8711
G01 F60.00
G01 Z-1.2000
G01 F120.00
G01 X16.9187 Y37.8706
G01 X16.9182 Y37.8701
G01 X14.7185 Y37.8701
G01 X14.7180 Y37.8706
G01 X14.7185 Y37.8711
G01 X16.9182 Y37.8711
G00 X16.9182 Y37.8711
G01 F60.00
G01 Z-1.5000
G01 F120.00
G01 X16.9187 Y37.8706
G01 X16.9182 Y37.8701
G01 X14.7185 Y37.8701
G01 X14.7180 Y37.8706
G01 X14.7185 Y37.8711
G01 X16.9182 Y37.8711
G00 X16.9182 Y37.8711
G01 F60.00
G01 Z-1.8000
G01 F120.00
G01 X16.9187 Y37.8706
G01 X16.9182 Y37.8701
G01 X14.7185 Y37.8701
G01 X14.7180 Y37.8706
G01 X14.7185 Y37.8711
G01 X16.9182 Y37.8711
G00 Z2.0000
G00 X18.7185 Y34.3705
G01 F60.00
G01 Z-0.3000
G01 F120.00
G01 X18.7190 Y34.3710
G01 X18.7195 Y34.3705
G01 X18.7195 Y31.7695
G01 X18.7190 Y31.7690
G01 X18.7185 Y31.7695
G01 X18.7185 Y34.3705
G00 X18.7185 Y34.3705
G01 F60.00
G01 Z-0.6000
G01 F120.00
G01 X18.7190 Y34.3710
G01 X18.7195 Y34.3705
G01 X18.7195 Y31.7695
G01 X18.7190 Y31.7690
G01 X18.7185 Y31.7695
G01 X18.7185 Y34.3705
G00 X18.7185 Y34.3705
G01 F60.00
G01 Z-0.9000
G01 F120.00
G01 X18.7190 Y34.3710
G01 X18.7195 Y34.3705
G01 X18.7195 Y31.7695
G01 X18.7190 Y31.7690
G01 X18.7185 Y31.7695
G01 X18.7185 Y34.3705
G00 X18.7185 Y34.3705
G01 F60.00
G01 Z-1.2000
G01 F120.00
G01 X18.7190 Y34.3710
G01 X18.7195 Y34.3705
G01 X18.7195 Y31.7695
G01 X18.7190 Y31.7690
G01 X18.7185 Y31.7695
G01 X18.7185 Y34.3705
G00 X18.7185 Y34.3705
G01 F60.00
G01 Z-1.5000
G01 F120.00
G01 X18.7190 Y34.3710
G01 X18.7195 Y34.3705
G01 X18.7195 Y31.7695
G01 X18.7190 Y31.7690
G01 X18.7185 Y31.7695
G01 X18.7185 Y34.3705
G00 X18.7185 Y34.3705
G01 F60.00
G01 Z-1.8000
G01 F120.00
G01 X18.7190 Y34.3710
G01 X18.7195 Y34.3705
G01 X18.7195 Y31.7695
G01 X18.7190 Y31.7690
G01 X18.7185 Y31.7695
G01 X18.7185 Y34.3705
G00 Z2.0000
M05
G00 Z2.0000
G00 Z35.00


